; Generated test file for benchmarking
; Simulates a typical 3D print with 100 layers
; PrusaSlicer compatible
;
M115 U3.9.0 ; tell printer latest fw version
M83  ; extruder relative mode
M104 S215 ; set extruder temp
M140 S60 ; set bed temp
M190 S60 ; wait for bed temp
M109 S215 ; wait for extruder temp
G28 W ; home all without mesh bed level
G80 ; mesh bed leveling
G1 Y-3.0 F1000.0 ; go outside print area
G92 E0.0 ; reset extrusion distance
G1 X60.0 E9.0 F1000.0 ; intro line
G1 X100.0 E12.5 F1000.0 ; intro line
G92 E0.0 ; reset extrusion distance

; LAYER:0
G1 Z0.000 F720 ; move to layer height
G1 X128.976 Y101.469 E0.05121 F2021
M104 S210
M106 S28
G1 X128.435 Y100.536 E0.02623 F1902
G1 X129.412 Y103.422 E0.06696 F1258
G1 X129.312 Y103.472 E0.04140 F1473
G1 X129.064 Y104.926 E0.03041 F1233
G1 X128.138 Y102.902 E0.05955 F1877
G1 X128.977 Y106.543 E0.06018 F1247
G1 X128.664 Y107.090 E0.02850 F1276
G1 X130.087 Y106.323 E0.07560 F1366
G1 X128.846 Y106.503 E0.02464 F2174
G1 X128.564 Y108.856 E0.04481 F1352
G1 X128.190 Y111.135 E0.04054 F2157
G1 X128.688 Y112.599 E0.03623 F1393
G1 X128.028 Y110.619 E0.02761 F1965
G1 X126.417 Y113.888 E0.02106 F2087
G1 X128.688 Y111.893 E0.05568 F1697
G1 X127.721 Y114.352 E0.06189 F1697
G1 X126.034 Y113.943 E0.02488 F1692
G1 X126.455 Y115.590 E0.06640 F2049
G1 X124.172 Y117.625 E0.04915 F1356
G1 X125.928 Y115.936 E0.07342 F2224
G1 X122.343 Y118.659 E0.02586 F1347
G1 X121.326 Y119.997 E0.04355 F1500
G1 X123.432 Y119.210 E0.07803 F1852
G1 X121.136 Y122.503 E0.02325 F1568
G1 X120.207 Y122.500 E0.06048 F2254
G1 X121.503 Y122.215 E0.03297 F2388
G1 X118.421 Y121.232 E0.03973 F1620
G1 X119.024 Y123.694 E0.02794 F2069
G1 X117.994 Y124.157 E0.02557 F1303
G1 X115.674 Y126.267 E0.02710 F2079
G1 X114.946 Y124.448 E0.06424 F2129
G1 X116.416 Y124.964 E0.06615 F1549
G1 X116.644 Y127.775 E0.04586 F1627
G1 X114.414 Y126.787 E0.02117 F1756
G1 X113.310 Y124.861 E0.03851 F1950
G1 X112.686 Y125.984 E0.04695 F1778
G1 X110.107 Y128.344 E0.02295 F1450
G1 X110.895 Y127.192 E0.07469 F1889
G1 X109.298 Y127.415 E0.04840 F1609
G1 X109.881 Y127.137 E0.03296 F1777
G1 X108.729 Y128.631 E0.07652 F1512
G1 X108.448 Y129.979 E0.02006 F1696
G1 X108.389 Y129.455 E0.04013 F1457
G1 X103.999 Y131.146 E0.06883 F2232
G1 X106.650 Y130.172 E0.02464 F2103
G1 X102.589 Y130.618 E0.04510 F1884
G1 X100.947 Y128.218 E0.04004 F1769
G1 X102.192 Y128.713 E0.06764 F1954
G1 X102.244 Y131.342 E0.05621 F1996
G1 X99.078 Y129.788 E0.05675 F1913
M104 S214
G1 X99.650 Y128.182 E0.06158 F1669
G1 X97.025 Y130.794 E0.07766 F1315
G1 X95.824 Y130.124 E0.02993 F2311
G1 X96.600 Y128.690 E0.02060 F1401
G1 X96.616 Y130.779 E0.07805 F1812
G1 X94.555 Y128.030 E0.07303 F2345
G1 X94.665 Y128.167 E0.06788 F1913
G1 X91.158 Y127.517 E0.04816 F1445
G1 X92.433 Y127.108 E0.05659 F1290
G1 X89.104 Y126.979 E0.04591 F2058
G1 X89.832 Y126.438 E0.07793 F2133
G1 X88.758 Y125.995 E0.04503 F1363
G1 X87.733 Y128.090 E0.05944 F1533
G1 X88.932 Y125.538 E0.04704 F1490
G1 X84.520 Y124.749 E0.06617 F2050
G1 X86.129 Y126.998 E0.06606 F1736
G1 X83.579 Y127.278 E0.04100 F1472
G1 X84.480 Y123.843 E0.02442 F1762
G1 X81.227 Y125.543 E0.07042 F1289
G1 X81.695 Y125.461 E0.02230 F1544
G1 X81.931 Y125.312 E0.04219 F2082
G1 X79.509 Y124.541 E0.07325 F1578
G1 X79.264 Y120.871 E0.02762 F1542
G1 X78.485 Y120.765 E0.07798 F1530
G1 X76.837 Y119.310 E0.04722 F2388
M106 S136
G1 X77.860 Y121.633 E0.05730 F1740
G1 X76.885 Y120.206 E0.03023 F1659
G1 X76.985 Y118.682 E0.03892 F1850
G1 X76.872 Y117.013 E0.02666 F1462
G1 X74.198 Y119.534 E0.07591 F1784
G1 X75.552 Y115.201 E0.03705 F1261
G1 X76.231 Y116.903 E0.05086 F2076
G1 X72.502 Y115.758 E0.02556 F1716
G1 X73.129 Y112.997 E0.05396 F1478
G1 X74.183 Y113.839 E0.06109 F1317
G1 X71.284 Y113.212 E0.05913 F1329
G1 X71.404 Y112.050 E0.04802 F1903
G1 X72.583 Y112.380 E0.05211 F1515
G1 X73.184 Y108.238 E0.07754 F1596
G1 X71.990 Y109.758 E0.02710 F1205
G1 X72.852 Y109.292 E0.02018 F1856
G1 X71.633 Y107.923 E0.02490 F1268
G1 X69.990 Y105.097 E0.02105 F1610
G1 X72.251 Y107.291 E0.02419 F1395
G1 X69.960 Y106.478 E0.04336 F2039
G1 X72.044 Y103.560 E0.02747 F1555
G1 X70.830 Y101.623 E0.02523 F1805
G1 X71.680 Y99.974 E0.05151 F1896
G1 X68.828 Y102.063 E0.04989 F1258
G1 X71.517 Y98.243 E0.07028 F2388
M104 S219
G1 X71.918 Y99.994 E0.06506 F2348
G1 X71.367 Y99.746 E0.04025 F1507
G1 X69.139 Y96.430 E0.05439 F1392
G1 X71.396 Y96.781 E0.04973 F2198
G1 X72.194 Y96.795 E0.06704 F1812
G1 X71.225 Y95.838 E0.03362 F2306
G1 X70.734 Y95.175 E0.07135 F1435
G1 X69.950 Y93.463 E0.03063 F1943
G1 X72.979 Y93.059 E0.04413 F1905
G1 X70.573 Y92.013 E0.03825 F1391
G1 X72.571 Y88.853 E0.07672 F1625
G1 X71.279 Y90.373 E0.05230 F1211
G1 X73.028 Y89.579 E0.07398 F1566
G1 X71.091 Y86.901 E0.04519 F1865
G1 X74.641 Y85.326 E0.03222 F1495
G1 X74.819 Y83.903 E0.03441 F1395
G1 X74.870 Y82.896 E0.04552 F1899
G1 X76.647 Y82.001 E0.07160 F1419
G1 X75.147 Y84.635 E0.04952 F1923
G1 X74.572 Y83.208 E0.06275 F1533
G1 X77.029 Y80.043 E0.06510 F2128
G1 X78.697 Y80.876 E0.07613 F2196
G1 X79.278 Y79.186 E0.07040 F1920
G1 X78.893 Y80.076 E0.04898 F2329
G1 X77.322 Y79.609 E0.07994 F1708
G1 X80.536 Y76.218 E0.07660 F1360
G1 X80.732 Y77.479 E0.06173 F1401
G1 X81.177 Y77.911 E0.02188 F1828
G1 X83.571 Y74.649 E0.05799 F1254
G1 X81.934 Y75.152 E0.07548 F2328
G1 X83.196 Y75.642 E0.04000 F1296
G1 X85.779 Y74.235 E0.02040 F1483
G1 X86.249 Y73.301 E0.02665 F1409
G1 X87.323 Y73.529 E0.05460 F1235
G1 X84.492 Y72.160 E0.04636 F1236
G1 X86.345 Y71.991 E0.02636 F1926
G1 X88.480 Y72.083 E0.02372 F1767
G1 X89.306 Y72.066 E0.02506 F2198
G1 X89.941 Y70.096 E0.05759 F1934
G1 X92.010 Y70.237 E0.05384 F1681
G1 X91.653 Y69.699 E0.03291 F1235
G1 X91.407 Y72.041 E0.05625 F1264
G1 X92.271 Y70.871 E0.07900 F2251
G1 X94.915 Y72.071 E0.07494 F1443
G1 X94.511 Y71.380 E0.07567 F2219
G1 X98.060 Y69.013 E0.06119 F1569
G1 X95.396 Y71.455 E0.05036 F2169
G1 X97.333 Y70.333 E0.06457 F1661
G1 X98.238 Y70.708 E0.07398 F1774
G1 X98.825 Y69.873 E0.05712 F1778
M104 S219
M106 S89
G1 X102.606 Y71.193 E0.02731 F1765
G1 X101.510 Y69.023 E0.03470 F1681
G1 X103.274 Y69.531 E0.02008 F1683
G1 X103.783 Y69.052 E0.02243 F1635
G1 X103.037 Y68.965 E0.04346 F1912
G1 X105.070 Y69.906 E0.02170 F1239
G1 X105.924 Y70.473 E0.07172 F1318
G1 X106.902 Y70.128 E0.04475 F2207
G1 X109.625 Y70.952 E0.02683 F1904
G1 X109.983 Y71.563 E0.03862 F1553
G1 X109.739 Y71.785 E0.05798 F1581
G1 X110.880 Y70.985 E0.07349 F1464
G1 X112.042 Y72.730 E0.05134 F1226
G1 X113.463 Y72.477 E0.07927 F1704
G1 X114.238 Y75.048 E0.07521 F2382
G1 X113.003 Y72.277 E0.04637 F1429
G1 X116.783 Y72.239 E0.04699 F2396
G1 X116.226 Y72.739 E0.02438 F2199
G1 X116.918 Y74.142 E0.02159 F1813
G1 X119.342 Y76.899 E0.02754 F2310
G1 X117.235 Y77.335 E0.06894 F2164
G1 X121.105 Y78.520 E0.04666 F1327
G1 X119.294 Y76.032 E0.04954 F1205
G1 X119.863 Y77.725 E0.02411 F2185
G1 X121.009 Y79.317 E0.02604 F1337
G1 X121.012 Y79.623 E0.06541 F2089
G1 X120.896 Y80.290 E0.02429 F1350
G1 X121.752 Y79.937 E0.04382 F1960
G1 X122.338 Y80.908 E0.04667 F1814
G1 X124.120 Y80.841 E0.03012 F1535
G1 X126.155 Y81.229 E0.03531 F1965
G1 X123.856 Y84.603 E0.04346 F1421
G1 X126.894 Y82.916 E0.05602 F1917
G1 X126.478 Y84.917 E0.02737 F1512
G1 X126.105 Y86.542 E0.07746 F2233
G1 X129.083 Y89.167 E0.02517 F1246
G1 X127.504 Y87.115 E0.07436 F1975
G1 X129.706 Y87.429 E0.03725 F2074
G1 X128.516 Y91.178 E0.03393 F2085
G1 X129.307 Y92.198 E0.06705 F1531
G1 X128.529 Y90.297 E0.07815 F2184
G1 X130.006 Y91.277 E0.05467 F1221
G1 X129.987 Y92.255 E0.04333 F1485
G1 X128.876 Y95.000 E0.06210 F1415
G1 X128.172 Y97.215 E0.03778 F2243
G1 X130.025 Y96.735 E0.02197 F1937
G1 X128.035 Y95.377 E0.04253 F1371
G1 X128.903 Y98.040 E0.05434 F1416
G1 X128.926 Y97.252 E0.02362 F2104
; LAYER:1
G1 Z0.200 F720 ; move to layer height
G1 X128.111 Y101.977 E0.06153 F1532
M104 S217
M106 S229
G1 X128.419 Y101.656 E0.02559 F1418
G1 X128.161 Y101.708 E0.04924 F1667
G1 X129.652 Y103.526 E0.04047 F2017
G1 X131.685 Y102.068 E0.02785 F1280
G1 X131.502 Y103.272 E0.07506 F2398
G1 X128.871 Y106.653 E0.07475 F1346
G1 X128.254 Y107.334 E0.06226 F1282
G1 X129.671 Y106.389 E0.02269 F1318
G1 X129.561 Y109.470 E0.05964 F1689
G1 X129.064 Y109.780 E0.04022 F1571
G1 X129.336 Y109.511 E0.07317 F1368
G1 X127.498 Y110.492 E0.06716 F1719
G1 X125.823 Y112.623 E0.02092 F2356
G1 X126.410 Y114.127 E0.02327 F1610
G1 X125.869 Y114.033 E0.05302 F1336
G1 X127.490 Y114.010 E0.03767 F1474
G1 X124.632 Y116.293 E0.06543 F2348
G1 X125.014 Y115.629 E0.05607 F1832
G1 X123.608 Y118.540 E0.05881 F2134
G1 X125.323 Y119.260 E0.06353 F2002
G1 X125.535 Y117.072 E0.06419 F1315
G1 X123.092 Y119.970 E0.07970 F1630
G1 X121.354 Y119.453 E0.04398 F2013
G1 X123.357 Y120.559 E0.04284 F1917
G1 X120.126 Y122.392 E0.05596 F2390
G1 X119.524 Y123.151 E0.07990 F2146
G1 X118.729 Y123.575 E0.04127 F1374
G1 X118.582 Y122.606 E0.07543 F1909
G1 X116.469 Y123.379 E0.03689 F1756
G1 X115.758 Y122.427 E0.03153 F2263
G1 X115.277 Y125.767 E0.07903 F1357
G1 X114.383 Y125.990 E0.05296 F1869
G1 X114.222 Y124.243 E0.03968 F2081
G1 X113.414 Y125.693 E0.02689 F1233
G1 X114.750 Y128.459 E0.02864 F1737
G1 X113.830 Y128.718 E0.04911 F1898
G1 X110.811 Y128.723 E0.06949 F1352
G1 X110.678 Y127.666 E0.07996 F1214
G1 X111.667 Y128.699 E0.03451 F1254
G1 X108.192 Y129.676 E0.06271 F2033
G1 X109.505 Y127.423 E0.04995 F2166
G1 X109.365 Y128.975 E0.07088 F2217
G1 X107.906 Y127.643 E0.06864 F1350
G1 X104.382 Y131.159 E0.04775 F1694
G1 X106.151 Y129.675 E0.02283 F1781
G1 X102.014 Y129.583 E0.06123 F1688
G1 X104.280 Y128.306 E0.07598 F1541
G1 X102.331 Y129.397 E0.07393 F1302
G1 X102.712 Y131.245 E0.05993 F1765
G1 X100.004 Y131.656 E0.03942 F2137
M104 S211
G1 X100.136 Y128.236 E0.04868 F2152
G1 X99.797 Y129.955 E0.04271 F1254
G1 X95.382 Y129.742 E0.05644 F1776
G1 X96.737 Y128.619 E0.06655 F1967
G1 X94.083 Y129.127 E0.05419 F1513
G1 X96.211 Y131.258 E0.05187 F1215
G1 X92.570 Y127.816 E0.05300 F2140
G1 X94.365 Y129.658 E0.02450 F2230
G1 X90.471 Y128.796 E0.05964 F1327
G1 X91.392 Y130.541 E0.02885 F1252
G1 X87.927 Y127.475 E0.07641 F1569
G1 X89.446 Y126.902 E0.05071 F1229
G1 X86.528 Y127.465 E0.06351 F1708
G1 X87.208 Y125.387 E0.05930 F2194
G1 X88.237 Y126.918 E0.02891 F1888
G1 X85.761 Y128.159 E0.04664 F1398
G1 X85.853 Y125.078 E0.06398 F2105
G1 X85.471 Y127.376 E0.04187 F1704
G1 X84.415 Y124.994 E0.07195 F1963
G1 X82.423 Y123.322 E0.04245 F1826
G1 X81.346 Y123.351 E0.07544 F1994
G1 X81.663 Y121.798 E0.07063 F1470
G1 X80.348 Y122.079 E0.02246 F1491
G1 X78.100 Y123.147 E0.03866 F1564
G1 X78.153 Y120.284 E0.04695 F1555
M106 S186
G1 X76.719 Y121.176 E0.06441 F1885
G1 X78.255 Y119.840 E0.05776 F1200
G1 X76.659 Y120.935 E0.06994 F2304
G1 X77.042 Y120.262 E0.05899 F1586
G1 X75.933 Y116.757 E0.06731 F2380
G1 X74.247 Y118.576 E0.03991 F1664
G1 X76.322 Y115.283 E0.05951 F2152
G1 X75.918 Y116.123 E0.04811 F2128
G1 X72.211 Y115.824 E0.05674 F1422
G1 X71.430 Y112.493 E0.07968 F1820
G1 X72.555 Y111.757 E0.06730 F2034
G1 X73.108 Y110.573 E0.06996 F1243
G1 X72.819 Y112.081 E0.05527 F1363
G1 X71.144 Y110.876 E0.07237 F1918
G1 X72.126 Y110.524 E0.06111 F1364
G1 X72.699 Y107.275 E0.02684 F1853
G1 X70.233 Y108.454 E0.02929 F2051
G1 X70.551 Y105.278 E0.04223 F1248
G1 X68.453 Y106.115 E0.04599 F1616
G1 X70.285 Y103.991 E0.06117 F1841
G1 X68.561 Y104.823 E0.07327 F1268
G1 X71.379 Y103.673 E0.07229 F1666
G1 X71.868 Y100.088 E0.02293 F2201
G1 X69.121 Y100.711 E0.07987 F1473
G1 X69.574 Y99.078 E0.07370 F1573
M104 S219
G1 X70.393 Y98.825 E0.04853 F1489
G1 X68.885 Y98.017 E0.06506 F1832
G1 X70.686 Y97.832 E0.02440 F2384
G1 X71.074 Y98.080 E0.05191 F1260
G1 X68.585 Y94.915 E0.03576 F1904
G1 X72.013 Y92.547 E0.03256 F1918
G1 X69.703 Y94.400 E0.02060 F2012
G1 X71.499 Y92.618 E0.07843 F1869
G1 X69.781 Y89.917 E0.04044 F2197
G1 X69.624 Y92.471 E0.07821 F1907
G1 X72.782 Y91.068 E0.02542 F2297
G1 X73.718 Y90.009 E0.03947 F1361
G1 X71.439 Y89.473 E0.03989 F2333
G1 X74.251 Y85.869 E0.03330 F1392
G1 X71.602 Y84.524 E0.03060 F2177
G1 X73.959 Y85.718 E0.03265 F1804
G1 X72.514 Y85.563 E0.03478 F2118
G1 X72.871 Y83.135 E0.03072 F1445
G1 X73.505 Y82.209 E0.02760 F2302
G1 X75.249 Y82.995 E0.05673 F1712
G1 X76.018 Y82.668 E0.02753 F1511
G1 X77.871 Y81.337 E0.07770 F1288
G1 X75.798 Y81.296 E0.07748 F1961
G1 X79.196 Y80.841 E0.07995 F2326
G1 X77.651 Y78.230 E0.07737 F2358
G1 X77.421 Y79.328 E0.06947 F2321
G1 X78.266 Y75.848 E0.02573 F1464
G1 X81.660 Y77.020 E0.07346 F2263
G1 X81.030 Y76.491 E0.04075 F1788
G1 X81.262 Y74.900 E0.07336 F1837
G1 X82.673 Y74.074 E0.04000 F2029
G1 X84.053 Y76.120 E0.06760 F2327
G1 X83.896 Y72.929 E0.06064 F1511
G1 X86.733 Y71.725 E0.05333 F2220
G1 X86.415 Y74.410 E0.04583 F1589
G1 X88.042 Y72.816 E0.07835 F1986
G1 X86.089 Y71.922 E0.07372 F1712
G1 X90.211 Y70.314 E0.05476 F1577
G1 X91.426 Y72.959 E0.04351 F1226
G1 X92.380 Y69.923 E0.04401 F1844
G1 X92.698 Y71.211 E0.04054 F2380
G1 X93.916 Y72.280 E0.06938 F1789
G1 X93.552 Y70.406 E0.07328 F1502
G1 X93.600 Y72.206 E0.06037 F2189
G1 X95.807 Y70.349 E0.07694 F1361
G1 X94.428 Y69.284 E0.07998 F1530
G1 X98.582 Y68.047 E0.06717 F1653
G1 X98.586 Y68.039 E0.07875 F1659
G1 X97.802 Y71.404 E0.02480 F1866
G1 X100.727 Y69.427 E0.03582 F1965
M104 S212
M106 S101
G1 X102.544 Y68.019 E0.06450 F1823
G1 X101.133 Y69.322 E0.04768 F1782
G1 X104.213 Y71.436 E0.02656 F1913
G1 X101.777 Y69.134 E0.07386 F1221
G1 X103.684 Y71.333 E0.06038 F1585
G1 X104.481 Y71.397 E0.03163 F1974
G1 X108.047 Y68.924 E0.05859 F2048
G1 X109.329 Y69.789 E0.06521 F2264
G1 X108.183 Y71.987 E0.07912 F1298
G1 X109.560 Y71.245 E0.02083 F1916
G1 X109.513 Y71.034 E0.06075 F1600
G1 X112.381 Y73.536 E0.05312 F1269
G1 X110.616 Y71.109 E0.07898 F1632
G1 X111.875 Y70.903 E0.04032 F1840
G1 X113.169 Y71.934 E0.02781 F1477
G1 X113.574 Y73.563 E0.04699 F2391
G1 X117.131 Y75.260 E0.03713 F1998
G1 X116.002 Y75.982 E0.05296 F1973
G1 X115.343 Y74.306 E0.03972 F1658
G1 X118.661 Y77.440 E0.05074 F2348
G1 X116.771 Y77.004 E0.02447 F1404
G1 X118.106 Y76.315 E0.05458 F1669
G1 X120.876 Y77.175 E0.03526 F2084
G1 X121.627 Y79.191 E0.04933 F1345
G1 X122.727 Y80.229 E0.03222 F1923
G1 X121.452 Y77.868 E0.03694 F1483
G1 X123.325 Y81.262 E0.02442 F1986
G1 X124.528 Y82.480 E0.07050 F2029
G1 X125.193 Y81.886 E0.07494 F1925
G1 X123.305 Y80.994 E0.05394 F1823
G1 X124.742 Y83.888 E0.06875 F1663
G1 X124.574 Y84.211 E0.04006 F1999
G1 X127.593 Y85.262 E0.02620 F1767
G1 X128.261 Y87.182 E0.02446 F1842
G1 X128.330 Y88.224 E0.02548 F2178
G1 X125.907 Y85.282 E0.04964 F1913
G1 X128.271 Y88.682 E0.05807 F2189
G1 X129.486 Y88.221 E0.07800 F1681
G1 X129.049 Y89.587 E0.02575 F1221
G1 X129.219 Y89.010 E0.06016 F2064
G1 X129.941 Y90.279 E0.05072 F2248
G1 X130.332 Y93.793 E0.03040 F1742
G1 X128.830 Y93.353 E0.07889 F1456
G1 X128.427 Y96.121 E0.07070 F1485
G1 X131.136 Y93.485 E0.02106 F2075
G1 X129.541 Y95.558 E0.03363 F1290
G1 X131.020 Y98.516 E0.05269 F2311
G1 X129.598 Y96.137 E0.03829 F1443
G1 X129.778 Y100.369 E0.02591 F1586
; LAYER:2
G1 Z0.400 F720 ; move to layer height
G1 X131.546 Y99.365 E0.06651 F2027
M104 S215
M106 S231
G1 X128.350 Y101.136 E0.05929 F1510
G1 X131.697 Y100.741 E0.03983 F2104
G1 X130.209 Y101.288 E0.07017 F2126
G1 X130.042 Y104.145 E0.05820 F1671
G1 X131.774 Y102.796 E0.06082 F1345
G1 X130.459 Y105.839 E0.04586 F2132
G1 X130.458 Y107.019 E0.04431 F1570
G1 X130.586 Y107.633 E0.07439 F2068
G1 X130.788 Y109.090 E0.06789 F1419
G1 X130.192 Y109.772 E0.03900 F2211
G1 X128.881 Y109.379 E0.04734 F2211
G1 X127.801 Y110.083 E0.05426 F2396
G1 X129.302 Y112.098 E0.06999 F1680
G1 X125.433 Y111.630 E0.04877 F2272
G1 X128.276 Y114.646 E0.02542 F1864
G1 X125.442 Y115.988 E0.05413 F2058
G1 X125.104 Y116.655 E0.03170 F1910
G1 X124.102 Y117.033 E0.07926 F1377
G1 X124.867 Y115.445 E0.07520 F1754
G1 X126.363 Y116.425 E0.07125 F1762
G1 X125.310 Y120.043 E0.07876 F1362
G1 X123.458 Y119.187 E0.06986 F1368
G1 X123.952 Y121.520 E0.07468 F1210
G1 X121.024 Y118.685 E0.06374 F2374
G1 X121.341 Y123.330 E0.02716 F2380
G1 X121.374 Y121.076 E0.07835 F2296
G1 X119.615 Y121.932 E0.06963 F2149
G1 X117.312 Y121.929 E0.04420 F1330
G1 X117.237 Y124.176 E0.07594 F2147
G1 X118.242 Y125.210 E0.03582 F1351
G1 X116.339 Y124.956 E0.04316 F2100
G1 X114.789 Y126.434 E0.06919 F1516
G1 X113.948 Y124.623 E0.02169 F1230
G1 X113.891 Y124.475 E0.05811 F1753
G1 X115.496 Y125.685 E0.06958 F2067
G1 X113.930 Y127.515 E0.03501 F2008
G1 X113.547 Y126.802 E0.04794 F1849
G1 X109.269 Y127.353 E0.04551 F2045
G1 X109.460 Y129.234 E0.02604 F1286
G1 X110.277 Y127.213 E0.06567 F2129
G1 X107.786 Y128.752 E0.07762 F2089
G1 X108.369 Y128.215 E0.06320 F1909
G1 X107.319 Y130.808 E0.07706 F1361
G1 X104.489 Y130.657 E0.03086 F1528
G1 X105.062 Y129.587 E0.02282 F1937
G1 X105.736 Y128.206 E0.07404 F1959
G1 X103.603 Y128.341 E0.06734 F1387
G1 X100.555 Y128.815 E0.07526 F2164
G1 X102.106 Y131.097 E0.03066 F1642
G1 X100.757 Y129.115 E0.05130 F1446
M104 S216
G1 X98.445 Y131.676 E0.04965 F1711
G1 X97.958 Y132.108 E0.04201 F1593
G1 X95.289 Y132.020 E0.07367 F2355
G1 X94.466 Y130.272 E0.06419 F1461
G1 X95.503 Y128.449 E0.04932 F2367
G1 X94.907 Y128.545 E0.07227 F1767
G1 X93.893 Y127.932 E0.03031 F1702
G1 X93.203 Y128.774 E0.02863 F2254
G1 X91.920 Y128.952 E0.05738 F1795
G1 X91.968 Y130.143 E0.07824 F2228
G1 X91.031 Y129.209 E0.04615 F1341
G1 X87.609 Y129.915 E0.06419 F2059
G1 X86.557 Y126.378 E0.07284 F1949
G1 X86.273 Y126.171 E0.07340 F2203
G1 X85.963 Y127.321 E0.07196 F1343
G1 X83.500 Y126.223 E0.05369 F2046
G1 X83.298 Y127.907 E0.07866 F1370
G1 X82.969 Y126.419 E0.04420 F1679
G1 X83.376 Y125.694 E0.04859 F1417
G1 X83.113 Y124.294 E0.03790 F2030
G1 X82.331 Y122.039 E0.06269 F2104
G1 X81.296 Y122.566 E0.06087 F1652
G1 X79.357 Y123.079 E0.02388 F1784
G1 X78.222 Y121.195 E0.07985 F1441
G1 X80.590 Y121.033 E0.04726 F2261
M106 S73
G1 X79.136 Y120.518 E0.05217 F1598
G1 X77.254 Y117.973 E0.06675 F2385
G1 X76.327 Y117.827 E0.07641 F1836
G1 X77.139 Y119.302 E0.02677 F1738
G1 X73.833 Y117.693 E0.02167 F1630
G1 X73.734 Y117.839 E0.05471 F1545
G1 X73.292 Y116.140 E0.05769 F2280
G1 X73.216 Y116.483 E0.02976 F2330
G1 X72.409 Y113.409 E0.06511 F1890
G1 X72.936 Y112.245 E0.05632 F1676
G1 X73.290 Y112.635 E0.04933 F2264
G1 X71.979 Y110.793 E0.05983 F1496
G1 X72.116 Y112.894 E0.06477 F1972
G1 X72.854 Y111.835 E0.05465 F1483
G1 X72.952 Y107.458 E0.05913 F1537
G1 X70.766 Y108.461 E0.05716 F2243
G1 X71.714 Y109.100 E0.04631 F1665
G1 X70.840 Y105.344 E0.07766 F2121
G1 X69.047 Y106.055 E0.07738 F1986
G1 X69.761 Y105.623 E0.04293 F2026
G1 X71.118 Y103.182 E0.04992 F1921
G1 X68.002 Y104.667 E0.03291 F1526
G1 X70.045 Y103.367 E0.04163 F1934
G1 X68.180 Y102.892 E0.07020 F1781
G1 X68.890 Y100.438 E0.04149 F1317
M104 S219
G1 X71.666 Y99.186 E0.05314 F1262
G1 X71.508 Y96.404 E0.04000 F1558
G1 X68.299 Y98.834 E0.05530 F1408
G1 X68.579 Y95.395 E0.05025 F1223
G1 X70.223 Y96.861 E0.05962 F1932
G1 X69.272 Y93.069 E0.03050 F2324
G1 X71.560 Y93.038 E0.05342 F1927
G1 X72.090 Y94.353 E0.05537 F2153
G1 X70.421 Y93.235 E0.05032 F2060
G1 X72.857 Y90.476 E0.03515 F1756
G1 X70.817 Y88.985 E0.02158 F2286
G1 X73.352 Y87.152 E0.07521 F2165
G1 X70.377 Y89.102 E0.05191 F1974
G1 X74.614 Y85.805 E0.03563 F1553
G1 X72.936 Y87.252 E0.05145 F1788
G1 X72.618 Y84.837 E0.04924 F1454
G1 X75.315 Y85.897 E0.06507 F2178
G1 X74.521 Y81.924 E0.06225 F2027
G1 X75.401 Y84.076 E0.02893 F1344
G1 X75.951 Y82.091 E0.04160 F1491
G1 X78.093 Y80.450 E0.04016 F2120
G1 X76.716 Y81.415 E0.04627 F2039
G1 X77.216 Y79.421 E0.07311 F1899
G1 X79.615 Y78.214 E0.07183 F1866
G1 X76.976 Y80.018 E0.05822 F1249
G1 X80.977 Y76.249 E0.03371 F2197
G1 X81.956 Y76.521 E0.07883 F1709
G1 X79.443 Y78.086 E0.06584 F2285
G1 X83.458 Y78.118 E0.05050 F1401
G1 X83.739 Y76.379 E0.06257 F2213
G1 X82.722 Y73.464 E0.07100 F1529
G1 X84.857 Y75.182 E0.07441 F1784
G1 X85.065 Y75.049 E0.02700 F1354
G1 X84.068 Y74.882 E0.07942 F1228
G1 X85.815 Y71.906 E0.03945 F2320
G1 X85.947 Y72.649 E0.07346 F1880
G1 X86.882 Y73.296 E0.03527 F1980
G1 X90.607 Y72.569 E0.03839 F2108
G1 X89.238 Y71.026 E0.06717 F2020
G1 X91.381 Y71.750 E0.03718 F1667
G1 X93.167 Y71.948 E0.03938 F1802
G1 X93.755 Y71.252 E0.05070 F2329
G1 X94.812 Y72.263 E0.04814 F1874
G1 X96.263 Y69.904 E0.06593 F1939
G1 X95.712 Y68.968 E0.04421 F2140
G1 X95.705 Y71.772 E0.05111 F1637
G1 X97.835 Y71.254 E0.04129 F1777
G1 X98.744 Y69.236 E0.04765 F1361
G1 X97.829 Y67.936 E0.07586 F2207
G1 X100.797 Y70.622 E0.03577 F1560
M104 S216
M106 S43
G1 X101.517 Y71.779 E0.04683 F2231
G1 X101.242 Y68.741 E0.06863 F2179
G1 X104.821 Y70.973 E0.06814 F1335
G1 X103.535 Y68.087 E0.04060 F2069
G1 X106.184 Y69.996 E0.05267 F1639
G1 X106.106 Y71.339 E0.05694 F1263
G1 X108.340 Y72.169 E0.02082 F1536
G1 X105.941 Y70.409 E0.05695 F1388
G1 X106.556 Y72.829 E0.07604 F1998
G1 X108.122 Y71.900 E0.03642 F1279
G1 X110.736 Y71.138 E0.05886 F2225
G1 X112.938 Y70.376 E0.04931 F2270
G1 X112.551 Y70.480 E0.06917 F2337
G1 X114.541 Y72.248 E0.02465 F1256
G1 X115.637 Y73.161 E0.06978 F1694
G1 X115.071 Y73.782 E0.04475 F1739
G1 X113.601 Y72.601 E0.05421 F2230
G1 X115.518 Y74.180 E0.07841 F1518
G1 X118.655 Y74.041 E0.07756 F1877
G1 X116.029 Y75.756 E0.05676 F1390
G1 X117.147 Y76.366 E0.05769 F2113
G1 X117.603 Y76.378 E0.06912 F2229
G1 X120.443 Y76.806 E0.05188 F1761
G1 X120.846 Y76.437 E0.03983 F1768
G1 X119.671 Y78.862 E0.02463 F1489
G1 X120.227 Y78.156 E0.04401 F2147
G1 X124.020 Y80.645 E0.07871 F1691
G1 X124.220 Y80.233 E0.03859 F1896
G1 X124.966 Y80.653 E0.03747 F1577
G1 X123.354 Y81.156 E0.07822 F1647
G1 X123.739 Y82.294 E0.05252 F1532
G1 X124.902 Y82.129 E0.06309 F1942
G1 X127.837 Y85.146 E0.07098 F1585
G1 X126.649 Y85.535 E0.03717 F1289
G1 X126.549 Y88.032 E0.06882 F1738
G1 X125.978 Y87.099 E0.03976 F1592
G1 X126.131 Y89.982 E0.04164 F1338
G1 X127.487 Y88.728 E0.07934 F1788
G1 X126.561 Y90.311 E0.07350 F2196
G1 X127.651 Y90.969 E0.03824 F1812
G1 X130.313 Y90.269 E0.06367 F1301
G1 X130.532 Y92.581 E0.05107 F1611
G1 X131.015 Y93.034 E0.05078 F2254
G1 X128.628 Y93.255 E0.07429 F1279
G1 X130.880 Y97.179 E0.04820 F1318
G1 X131.544 Y96.777 E0.06464 F1875
G1 X131.226 Y96.153 E0.05381 F1756
G1 X130.372 Y98.306 E0.07382 F2045
G1 X131.205 Y99.017 E0.02585 F2363
; LAYER:3
G1 Z0.600 F720 ; move to layer height
G1 X130.869 Y101.585 E0.02694 F1278
M104 S218
M106 S1
G1 X131.953 Y99.053 E0.05954 F2256
G1 X130.714 Y102.605 E0.02723 F1382
G1 X131.437 Y101.660 E0.04556 F1404
G1 X128.147 Y104.510 E0.02413 F2061
G1 X130.524 Y103.340 E0.04291 F1952
G1 X128.513 Y106.890 E0.04640 F1655
G1 X128.161 Y106.416 E0.07631 F1691
G1 X130.929 Y105.776 E0.06855 F2277
G1 X129.458 Y106.732 E0.02293 F1517
G1 X128.460 Y109.238 E0.07564 F2241
G1 X126.955 Y109.263 E0.04321 F1353
G1 X128.349 Y112.036 E0.02135 F1433
G1 X128.739 Y111.014 E0.03696 F1433
G1 X125.928 Y111.722 E0.06798 F2085
G1 X128.494 Y114.694 E0.05704 F1532
G1 X125.850 Y115.642 E0.03785 F2109
G1 X124.724 Y114.285 E0.05344 F2105
G1 X126.985 Y117.906 E0.03157 F2005
G1 X126.292 Y116.397 E0.04677 F1844
G1 X124.734 Y115.962 E0.03963 F1705
G1 X125.218 Y117.464 E0.05320 F2088
G1 X123.056 Y121.155 E0.02243 F1430
G1 X121.619 Y120.542 E0.06850 F1590
G1 X123.291 Y120.759 E0.07052 F1637
G1 X122.628 Y121.850 E0.05635 F2398
G1 X122.200 Y121.383 E0.05163 F1842
G1 X120.363 Y123.729 E0.03949 F1909
G1 X121.204 Y122.317 E0.04141 F2254
G1 X119.445 Y122.848 E0.05292 F2007
G1 X118.672 Y125.543 E0.02088 F1308
G1 X117.878 Y124.115 E0.06268 F1290
G1 X115.509 Y123.916 E0.04514 F2132
G1 X117.174 Y126.529 E0.06214 F1949
G1 X114.997 Y128.322 E0.04939 F1526
G1 X114.884 Y128.592 E0.07830 F1261
G1 X112.185 Y128.238 E0.06219 F2155
G1 X112.016 Y129.771 E0.04060 F2294
G1 X109.324 Y126.800 E0.04205 F1218
G1 X111.372 Y129.239 E0.05058 F1267
G1 X111.143 Y129.486 E0.07786 F2158
G1 X110.311 Y129.863 E0.04443 F1651
G1 X105.925 Y131.263 E0.07170 F2092
G1 X104.980 Y131.287 E0.02829 F1891
G1 X107.347 Y129.084 E0.06480 F2184
G1 X102.811 Y129.908 E0.05539 F1843
G1 X102.949 Y129.118 E0.03430 F1659
G1 X102.778 Y128.242 E0.05451 F1396
G1 X102.606 Y130.679 E0.03516 F1427
G1 X101.026 Y129.839 E0.07738 F2143
G1 X99.093 Y131.918 E0.07015 F2252
M104 S218
G1 X100.914 Y128.757 E0.06332 F2311
G1 X97.881 Y128.617 E0.04253 F2217
G1 X95.480 Y130.110 E0.03841 F1650
G1 X94.924 Y129.627 E0.03268 F1577
G1 X93.883 Y128.285 E0.07203 F2320
G1 X93.215 Y130.510 E0.07045 F2235
G1 X95.329 Y128.524 E0.05893 F2110
G1 X90.547 Y128.096 E0.05128 F1313
G1 X93.026 Y130.134 E0.07338 F1653
G1 X91.493 Y130.164 E0.02147 F1560
G1 X91.640 Y130.285 E0.05064 F1428
G1 X87.762 Y127.831 E0.05156 F2369
G1 X87.057 Y127.645 E0.02140 F1625
G1 X88.326 Y128.418 E0.07230 F1318
G1 X87.799 Y127.514 E0.05620 F1320
G1 X86.083 Y126.858 E0.05321 F2359
G1 X84.859 Y125.683 E0.07064 F1756
G1 X83.829 Y123.847 E0.06289 F2268
G1 X82.195 Y125.735 E0.02699 F1654
G1 X83.949 Y123.712 E0.02439 F1831
G1 X81.229 Y122.518 E0.06860 F2268
G1 X82.542 Y123.790 E0.04632 F2291
G1 X78.751 Y121.522 E0.04627 F1817
G1 X78.226 Y121.782 E0.05463 F2252
G1 X79.630 Y122.603 E0.05096 F1318
M106 S225
G1 X78.846 Y120.813 E0.07252 F1985
G1 X79.023 Y121.939 E0.02015 F2100
G1 X77.061 Y119.553 E0.02031 F1219
G1 X76.836 Y119.781 E0.06519 F1821
G1 X76.663 Y117.180 E0.02708 F1645
G1 X76.375 Y118.694 E0.02718 F1334
G1 X72.605 Y117.952 E0.04387 F1269
G1 X73.354 Y115.301 E0.02402 F1454
G1 X72.578 Y115.540 E0.02565 F1684
G1 X72.710 Y114.992 E0.02506 F1224
G1 X72.857 Y113.645 E0.02022 F2057
G1 X73.213 Y113.076 E0.04843 F2210
G1 X70.179 Y112.970 E0.03456 F2067
G1 X70.820 Y112.135 E0.03077 F1931
G1 X71.045 Y108.580 E0.03515 F1264
G1 X71.851 Y109.668 E0.02771 F2282
G1 X69.335 Y105.748 E0.03492 F1492
G1 X70.954 Y107.082 E0.05055 F1986
G1 X71.149 Y107.595 E0.05879 F2260
G1 X69.312 Y104.426 E0.07139 F1584
G1 X70.198 Y104.187 E0.07647 F1525
G1 X71.732 Y103.479 E0.02324 F2026
G1 X70.971 Y101.455 E0.05412 F2113
G1 X71.247 Y101.720 E0.04219 F1873
G1 X67.721 Y100.870 E0.04745 F2136
M104 S211
G1 X69.038 Y100.606 E0.04341 F1704
G1 X68.967 Y97.364 E0.07994 F2382
G1 X69.606 Y95.570 E0.05450 F1285
G1 X69.240 Y95.917 E0.07768 F1881
G1 X70.584 Y94.106 E0.05833 F2064
G1 X68.976 Y93.447 E0.05201 F2245
G1 X71.172 Y93.340 E0.03075 F1894
G1 X72.621 Y92.985 E0.06767 F1572
G1 X71.687 Y90.238 E0.04531 F2267
G1 X70.953 Y89.181 E0.06423 F1373
G1 X69.748 Y91.501 E0.06116 F1489
G1 X71.637 Y90.258 E0.06631 F2162
G1 X73.289 Y87.332 E0.04102 F1798
G1 X74.403 Y87.764 E0.02293 F2065
G1 X73.773 Y85.413 E0.04393 F2095
G1 X74.541 Y84.286 E0.04910 F1360
G1 X75.483 Y86.352 E0.06425 F1557
G1 X73.049 Y83.284 E0.07494 F2200
G1 X76.251 Y84.403 E0.04646 F2101
G1 X77.452 Y81.593 E0.05735 F2175
G1 X76.982 Y80.535 E0.03833 F2375
G1 X78.475 Y79.266 E0.05309 F1305
G1 X75.283 Y81.444 E0.07532 F2166
G1 X78.877 Y77.451 E0.02748 F1874
G1 X76.839 Y77.349 E0.03727 F1437
G1 X77.265 Y76.967 E0.07011 F1593
G1 X80.659 Y76.275 E0.03997 F2391
G1 X81.875 Y75.337 E0.04612 F2140
G1 X81.090 Y77.130 E0.04020 F2284
G1 X81.966 Y74.510 E0.05227 F2094
G1 X81.639 Y73.278 E0.05495 F1786
G1 X84.462 Y76.059 E0.02651 F1910
G1 X84.789 Y72.984 E0.07020 F1914
G1 X85.982 Y73.102 E0.03910 F2176
G1 X86.133 Y73.904 E0.06034 F1796
G1 X88.366 Y74.203 E0.06226 F2250
G1 X89.909 Y71.857 E0.03036 F2312
G1 X89.089 Y72.604 E0.04672 F1911
G1 X87.915 Y70.601 E0.06328 F1768
G1 X89.282 Y71.408 E0.02092 F1220
G1 X92.618 Y71.000 E0.04797 F1974
G1 X93.116 Y69.094 E0.05754 F2037
G1 X92.235 Y69.362 E0.02704 F2244
G1 X95.749 Y71.902 E0.06445 F1647
G1 X93.506 Y69.167 E0.02290 F1988
G1 X96.822 Y69.011 E0.05183 F1974
G1 X97.294 Y70.141 E0.07918 F1784
G1 X99.674 Y70.940 E0.02827 F1993
G1 X100.476 Y69.936 E0.06278 F2122
G1 X99.533 Y70.270 E0.04487 F2195
M104 S218
M106 S122
G1 X98.992 Y69.700 E0.03867 F2093
G1 X103.521 Y70.031 E0.03934 F2313
G1 X101.091 Y69.858 E0.04643 F2015
G1 X103.777 Y71.565 E0.02352 F1604
G1 X105.796 Y68.759 E0.05945 F2365
G1 X107.317 Y71.864 E0.02425 F2280
G1 X107.928 Y68.462 E0.04337 F1352
G1 X107.560 Y71.028 E0.05122 F1213
G1 X108.397 Y69.016 E0.04197 F1498
G1 X110.523 Y72.521 E0.02467 F1734
G1 X110.427 Y71.915 E0.02632 F2115
G1 X109.177 Y71.313 E0.02710 F1797
G1 X110.541 Y74.046 E0.04530 F2376
G1 X114.488 Y70.805 E0.07657 F1524
G1 X115.205 Y71.245 E0.04542 F1806
G1 X113.314 Y74.442 E0.02601 F2270
G1 X117.077 Y75.012 E0.06811 F2086
G1 X114.981 Y75.663 E0.05196 F2142
G1 X116.349 Y73.997 E0.04261 F1681
G1 X118.130 Y75.301 E0.03476 F2073
G1 X119.079 Y76.144 E0.04917 F1699
G1 X119.547 Y78.081 E0.02405 F2031
G1 X121.966 Y77.457 E0.07669 F2167
G1 X122.631 Y79.384 E0.07984 F1446
G1 X121.556 Y80.526 E0.05633 F1675
G1 X120.616 Y80.488 E0.02760 F2152
G1 X120.816 Y78.848 E0.07726 F1685
G1 X124.353 Y79.625 E0.06248 F2007
G1 X123.373 Y80.471 E0.05420 F1429
G1 X125.431 Y83.199 E0.02024 F2086
G1 X123.799 Y84.218 E0.06410 F1403
G1 X125.980 Y82.713 E0.07316 F1873
G1 X127.084 Y84.338 E0.07413 F1364
G1 X126.790 Y84.188 E0.05949 F2009
G1 X127.639 Y84.774 E0.02700 F1941
G1 X126.566 Y86.375 E0.05295 F2246
G1 X127.726 Y86.787 E0.06192 F1765
G1 X127.116 Y87.100 E0.03938 F1441
G1 X127.905 Y88.157 E0.02974 F1791
G1 X129.287 Y90.813 E0.03548 F1482
G1 X127.254 Y92.443 E0.05764 F2207
G1 X131.217 Y91.455 E0.06389 F2268
G1 X131.457 Y92.373 E0.06931 F1747
G1 X128.498 Y94.206 E0.03437 F2249
G1 X131.794 Y93.309 E0.07285 F2190
G1 X130.916 Y96.446 E0.03678 F1562
G1 X130.165 Y96.748 E0.06465 F2180
G1 X132.156 Y97.465 E0.03655 F1758
G1 X128.568 Y100.262 E0.05192 F1340
; LAYER:4
G1 Z0.800 F720 ; move to layer height
G1 X129.832 Y100.204 E0.04625 F1632
M104 S219
M106 S120
G1 X131.888 Y101.787 E0.02674 F2249
G1 X131.920 Y103.893 E0.07111 F1900
G1 X130.666 Y102.012 E0.07503 F1524
G1 X128.950 Y105.666 E0.06230 F1630
G1 X129.865 Y103.590 E0.06397 F1518
G1 X129.364 Y105.637 E0.06654 F1614
G1 X128.593 Y106.351 E0.05594 F1531
G1 X130.726 Y107.351 E0.02920 F1515
G1 X128.767 Y109.928 E0.06133 F1274
G1 X130.262 Y109.995 E0.02297 F1376
G1 X130.498 Y112.097 E0.05396 F1850
G1 X129.346 Y109.577 E0.05632 F2391
G1 X129.174 Y111.333 E0.06057 F2153
G1 X127.077 Y111.566 E0.02736 F1254
G1 X127.142 Y114.661 E0.06535 F1201
G1 X127.713 Y114.596 E0.07292 F2356
G1 X125.916 Y115.057 E0.06956 F1620
G1 X125.261 Y117.792 E0.04783 F1672
G1 X124.476 Y116.187 E0.06406 F1894
G1 X125.139 Y118.292 E0.03320 F1235
G1 X123.968 Y118.069 E0.03993 F1765
G1 X123.405 Y120.445 E0.04519 F2059
G1 X123.140 Y119.585 E0.04414 F1979
G1 X123.722 Y119.912 E0.03348 F2397
G1 X120.105 Y120.262 E0.02768 F1974
G1 X119.058 Y123.746 E0.02391 F1835
G1 X121.840 Y121.986 E0.02999 F2000
G1 X120.691 Y124.109 E0.03000 F1568
G1 X117.470 Y122.727 E0.04017 F1330
G1 X116.635 Y125.296 E0.07503 F1289
G1 X118.584 Y123.189 E0.05642 F1351
G1 X114.743 Y124.312 E0.05606 F1709
G1 X115.970 Y127.557 E0.03627 F2357
G1 X115.545 Y128.382 E0.06582 F2245
G1 X114.014 Y126.303 E0.05180 F2154
G1 X112.372 Y128.829 E0.07756 F2221
G1 X111.649 Y127.347 E0.02714 F2297
G1 X111.398 Y129.332 E0.06588 F1668
G1 X109.983 Y128.417 E0.04644 F2041
G1 X110.449 Y129.967 E0.03697 F2098
G1 X108.763 Y130.434 E0.06054 F1657
G1 X109.285 Y130.653 E0.04474 F1922
G1 X107.438 Y128.756 E0.03510 F2021
G1 X105.718 Y129.039 E0.02088 F1971
G1 X103.306 Y128.327 E0.02559 F1973
G1 X104.322 Y131.423 E0.06394 F1665
G1 X101.798 Y131.649 E0.03256 F1825
G1 X101.630 Y129.318 E0.04867 F2282
G1 X101.927 Y128.811 E0.05695 F2217
G1 X99.288 Y129.399 E0.03724 F1354
M104 S217
G1 X99.739 Y128.877 E0.06706 F2370
G1 X98.658 Y128.444 E0.03914 F2207
G1 X96.807 Y131.417 E0.04770 F2061
G1 X96.233 Y129.055 E0.05397 F2103
G1 X97.209 Y130.632 E0.04052 F2090
G1 X96.121 Y129.690 E0.03009 F1473
G1 X92.345 Y128.345 E0.04696 F1455
G1 X91.039 Y127.474 E0.06764 F1251
G1 X89.617 Y129.815 E0.06603 F1817
G1 X90.884 Y127.800 E0.07026 F1591
G1 X89.547 Y126.793 E0.02826 F1862
G1 X86.815 Y127.897 E0.06059 F1299
G1 X88.807 Y127.988 E0.06428 F1900
G1 X88.162 Y126.675 E0.03530 F2317
G1 X85.857 Y128.297 E0.07912 F1965
G1 X85.358 Y127.032 E0.03401 F1786
G1 X85.123 Y126.167 E0.03486 F2317
G1 X82.460 Y124.920 E0.06644 F2006
G1 X82.472 Y124.901 E0.03012 F2382
G1 X82.167 Y125.519 E0.07135 F2213
G1 X81.833 Y122.773 E0.02899 F1686
G1 X81.281 Y122.638 E0.05035 F2122
G1 X78.845 Y124.661 E0.03884 F1848
G1 X79.773 Y120.360 E0.07653 F2217
G1 X80.191 Y122.940 E0.04488 F1950
M106 S79
G1 X76.443 Y121.386 E0.02438 F1614
G1 X76.229 Y121.701 E0.02437 F1211
G1 X77.108 Y120.619 E0.07862 F2271
G1 X77.096 Y116.709 E0.04971 F2395
G1 X75.928 Y118.709 E0.02251 F1448
G1 X73.675 Y117.995 E0.07982 F1439
G1 X73.347 Y116.823 E0.06581 F2345
G1 X73.351 Y115.303 E0.06520 F1497
G1 X72.184 Y116.500 E0.07594 F1608
G1 X73.589 Y115.455 E0.05455 F2051
G1 X73.396 Y111.340 E0.07681 F2129
G1 X70.207 Y113.296 E0.07882 F1320
G1 X72.959 Y109.216 E0.02178 F1344
G1 X69.820 Y110.402 E0.02389 F2396
G1 X71.581 Y110.300 E0.05803 F1651
G1 X69.216 Y109.218 E0.06079 F1896
G1 X69.890 Y108.275 E0.07580 F1513
G1 X68.363 Y104.942 E0.07904 F1473
G1 X69.548 Y107.665 E0.02448 F1305
G1 X70.577 Y106.718 E0.02758 F2152
G1 X68.193 Y103.330 E0.06404 F2124
G1 X70.879 Y104.721 E0.07935 F2135
G1 X67.720 Y103.590 E0.03762 F2047
G1 X71.356 Y101.620 E0.07013 F1714
G1 X68.572 Y98.439 E0.07416 F2226
M104 S219
G1 X70.264 Y98.300 E0.07439 F1440
G1 X69.493 Y99.061 E0.05068 F1764
G1 X70.357 Y96.690 E0.05302 F2320
G1 X68.672 Y97.897 E0.03206 F2123
G1 X68.219 Y94.297 E0.04380 F1785
G1 X70.030 Y93.222 E0.02279 F1563
G1 X71.408 Y93.942 E0.06574 F1979
G1 X69.761 Y91.764 E0.07148 F2232
G1 X71.956 Y93.041 E0.07363 F1301
G1 X69.614 Y91.302 E0.06042 F1843
G1 X72.498 Y88.945 E0.04787 F1518
G1 X70.448 Y89.152 E0.02877 F1635
G1 X72.239 Y86.049 E0.03662 F1382
G1 X73.034 Y87.633 E0.06425 F1729
G1 X74.799 Y87.418 E0.05180 F1661
G1 X73.006 Y83.985 E0.03431 F1773
G1 X75.393 Y83.453 E0.07231 F1425
G1 X75.322 Y82.449 E0.02324 F1361
G1 X73.056 Y82.170 E0.04682 F2326
G1 X74.142 Y80.421 E0.05833 F1276
G1 X76.008 Y79.914 E0.04046 F1780
G1 X77.094 Y82.206 E0.06331 F1327
G1 X75.380 Y78.805 E0.02556 F2122
G1 X79.152 Y77.902 E0.07983 F1968
G1 X77.315 Y79.442 E0.05253 F1911
G1 X77.293 Y78.202 E0.05428 F1277
G1 X81.549 Y75.208 E0.07007 F1813
G1 X82.616 Y75.625 E0.05677 F2388
G1 X80.714 Y74.803 E0.05786 F1535
G1 X82.723 Y77.001 E0.05170 F1206
G1 X82.813 Y73.715 E0.05312 F1950
G1 X83.197 Y73.601 E0.03919 F1321
G1 X84.462 Y75.692 E0.02532 F2292
G1 X85.158 Y71.729 E0.03489 F1930
G1 X86.175 Y72.685 E0.04987 F2366
G1 X88.375 Y74.377 E0.06496 F1654
G1 X87.680 Y71.484 E0.02168 F1203
G1 X89.519 Y71.261 E0.06992 F1674
G1 X88.216 Y70.831 E0.04624 F1676
G1 X89.941 Y70.338 E0.05229 F1468
G1 X93.420 Y70.947 E0.05615 F1608
G1 X92.926 Y69.438 E0.02465 F1432
G1 X91.523 Y69.612 E0.06376 F2246
G1 X94.446 Y71.254 E0.02643 F1743
G1 X97.179 Y69.520 E0.05268 F1675
G1 X95.455 Y67.884 E0.02323 F2196
G1 X95.562 Y71.197 E0.03854 F1953
G1 X99.385 Y69.342 E0.05938 F1460
G1 X100.834 Y70.229 E0.07659 F1779
G1 X100.082 Y69.342 E0.05924 F2167
M104 S217
M106 S220
G1 X102.289 Y70.449 E0.02556 F1515
G1 X102.562 Y71.078 E0.06595 F2059
G1 X102.503 Y71.714 E0.07244 F1299
G1 X105.748 Y69.902 E0.05639 F1459
G1 X106.712 Y69.072 E0.03823 F1982
G1 X107.470 Y70.560 E0.04684 F1694
G1 X106.816 Y69.527 E0.03075 F2262
G1 X108.963 Y70.291 E0.05698 F1715
G1 X107.193 Y72.136 E0.06904 F2025
G1 X108.562 Y69.524 E0.07459 F2115
G1 X112.145 Y73.272 E0.02356 F1847
G1 X109.345 Y72.618 E0.06106 F1377
G1 X112.557 Y71.249 E0.05538 F1771
G1 X113.148 Y72.816 E0.02554 F1455
G1 X112.853 Y73.449 E0.05914 F2190
G1 X115.449 Y74.046 E0.06131 F1757
G1 X113.506 Y73.766 E0.02852 F2217
G1 X115.320 Y75.528 E0.05206 F1987
G1 X117.650 Y76.017 E0.05941 F2373
G1 X118.874 Y75.980 E0.06485 F1743
G1 X116.940 Y75.838 E0.05224 F1203
G1 X117.513 Y76.901 E0.02225 F1857
G1 X118.635 Y77.896 E0.05058 F1922
G1 X120.626 Y76.229 E0.03263 F1640
G1 X122.159 Y80.056 E0.07527 F2113
G1 X121.127 Y77.220 E0.07789 F2250
G1 X122.946 Y79.008 E0.02286 F1663
G1 X123.045 Y82.091 E0.03743 F1493
G1 X122.975 Y83.364 E0.02535 F2074
G1 X124.172 Y81.791 E0.02809 F1760
G1 X126.969 Y82.869 E0.02870 F1449
G1 X127.501 Y84.696 E0.05318 F2022
G1 X124.959 Y85.771 E0.02540 F1756
G1 X127.739 Y87.131 E0.07980 F2032
G1 X125.466 Y86.401 E0.03818 F1633
G1 X127.780 Y85.947 E0.07680 F1744
G1 X129.882 Y86.518 E0.03944 F2234
G1 X127.865 Y88.362 E0.04942 F2160
G1 X126.774 Y89.426 E0.04111 F1984
G1 X127.734 Y89.326 E0.04506 F1662
G1 X130.799 Y90.530 E0.07335 F1831
G1 X130.157 Y94.073 E0.05350 F2010
G1 X128.288 Y94.986 E0.02185 F2044
G1 X129.077 Y94.408 E0.07234 F2382
G1 X131.442 Y96.290 E0.03942 F1240
G1 X129.838 Y95.974 E0.05568 F1902
G1 X130.096 Y98.982 E0.07577 F2215
G1 X128.820 Y96.938 E0.03246 F1780
G1 X130.388 Y99.218 E0.03646 F1519
; LAYER:5
G1 Z1.000 F720 ; move to layer height
G1 X130.720 Y98.299 E0.07930 F2383
M104 S215
M106 S189
G1 X131.686 Y99.216 E0.02582 F2219
G1 X129.874 Y101.958 E0.07574 F1995
G1 X132.096 Y103.433 E0.07808 F1394
G1 X129.614 Y104.517 E0.02398 F1517
G1 X128.476 Y105.102 E0.07180 F1263
G1 X130.736 Y106.327 E0.04690 F1986
G1 X129.267 Y108.548 E0.02513 F2079
G1 X130.032 Y109.229 E0.03839 F2177
G1 X128.314 Y110.422 E0.03318 F1324
G1 X128.028 Y111.418 E0.04610 F1293
G1 X127.965 Y110.586 E0.02120 F2031
G1 X127.578 Y110.972 E0.06305 F2395
G1 X127.499 Y112.411 E0.03481 F2152
G1 X129.221 Y112.250 E0.03247 F1786
G1 X126.289 Y111.978 E0.02939 F1683
G1 X126.621 Y112.914 E0.03318 F1487
G1 X125.085 Y114.887 E0.06929 F1945
G1 X125.133 Y115.023 E0.06667 F1209
G1 X126.162 Y116.758 E0.03634 F2120
G1 X124.095 Y119.457 E0.03378 F1805
G1 X122.642 Y118.744 E0.02825 F1521
G1 X125.204 Y120.834 E0.02805 F2027
G1 X124.597 Y120.055 E0.07290 F1971
G1 X120.480 Y120.249 E0.06529 F1680
G1 X119.821 Y122.654 E0.06663 F2374
G1 X122.485 Y122.696 E0.05121 F1413
G1 X120.120 Y122.630 E0.02608 F2241
G1 X120.285 Y121.816 E0.07935 F1341
G1 X119.704 Y122.434 E0.05597 F2246
G1 X119.603 Y122.984 E0.07743 F1487
G1 X118.262 Y124.602 E0.05129 F1716
G1 X117.401 Y125.031 E0.06748 F1654
G1 X114.172 Y127.617 E0.02036 F1893
G1 X116.409 Y125.965 E0.05948 F2116
G1 X112.224 Y126.132 E0.06609 F1753
G1 X111.132 Y127.173 E0.06907 F2288
G1 X110.166 Y128.041 E0.06231 F1293
G1 X112.714 Y128.387 E0.02480 F2198
G1 X109.825 Y130.081 E0.02691 F1401
G1 X111.143 Y127.469 E0.06948 F1552
G1 X106.903 Y129.945 E0.05672 F1220
G1 X109.216 Y131.329 E0.03963 F1533
G1 X107.378 Y131.246 E0.02596 F1499
G1 X106.468 Y130.195 E0.03791 F2331
G1 X105.686 Y128.795 E0.05576 F1989
G1 X105.331 Y128.508 E0.04301 F1717
G1 X102.817 Y128.771 E0.07789 F1324
G1 X101.361 Y128.483 E0.05490 F1226
G1 X102.512 Y132.073 E0.02338 F1670
G1 X98.403 Y129.198 E0.06956 F1447
M104 S219
G1 X98.240 Y132.362 E0.03598 F2158
G1 X98.746 Y131.251 E0.05269 F1737
G1 X96.391 Y130.342 E0.05195 F2173
G1 X98.158 Y128.347 E0.03597 F2371
G1 X96.935 Y128.176 E0.03460 F2257
G1 X93.346 Y130.388 E0.04908 F1714
G1 X92.448 Y128.319 E0.06902 F1454
G1 X93.246 Y128.020 E0.03787 F1268
G1 X89.786 Y130.389 E0.05293 F1958
G1 X89.950 Y128.350 E0.07872 F2022
G1 X90.304 Y127.448 E0.06581 F1767
G1 X90.507 Y127.676 E0.02258 F1268
G1 X88.654 Y128.708 E0.07550 F1748
G1 X88.351 Y125.926 E0.03926 F1223
G1 X85.789 Y125.227 E0.03100 F2140
G1 X86.096 Y127.944 E0.03590 F1415
G1 X83.747 Y125.452 E0.04129 F1931
G1 X82.752 Y123.843 E0.05280 F2043
G1 X82.907 Y123.832 E0.04071 F2157
G1 X81.250 Y126.441 E0.05774 F2208
G1 X80.567 Y123.106 E0.02269 F2156
G1 X82.231 Y122.855 E0.06873 F1623
G1 X80.733 Y123.547 E0.04119 F1209
G1 X77.511 Y123.785 E0.04393 F1603
G1 X80.304 Y121.961 E0.02788 F1572
M106 S189
G1 X76.387 Y122.486 E0.07675 F2176
G1 X77.310 Y120.052 E0.03641 F2349
G1 X75.366 Y118.023 E0.05824 F1925
G1 X75.909 Y117.941 E0.04382 F2105
G1 X74.721 Y118.686 E0.03989 F2400
G1 X74.438 Y118.705 E0.02349 F1647
G1 X76.206 Y116.855 E0.02573 F1401
G1 X72.063 Y117.379 E0.04393 F1854
G1 X72.931 Y114.165 E0.02204 F1295
G1 X71.121 Y114.449 E0.07079 F1678
G1 X71.447 Y113.862 E0.05596 F1482
G1 X70.379 Y114.081 E0.02660 F1964
G1 X71.341 Y111.723 E0.06049 F1206
G1 X70.774 Y110.100 E0.04968 F2000
G1 X71.459 Y111.074 E0.04236 F2292
G1 X70.647 Y107.144 E0.05550 F1320
G1 X70.371 Y106.008 E0.06930 F1788
G1 X69.882 Y104.656 E0.02882 F1384
G1 X69.762 Y105.354 E0.02407 F1224
G1 X68.298 Y103.401 E0.03604 F2028
G1 X68.760 Y105.089 E0.06603 F1917
G1 X70.089 Y104.785 E0.03796 F1755
G1 X70.707 Y102.708 E0.03790 F2277
G1 X70.256 Y99.669 E0.02922 F1761
G1 X70.512 Y98.655 E0.06280 F1386
M104 S216
G1 X67.919 Y99.116 E0.06606 F1460
G1 X71.011 Y96.408 E0.06880 F1674
G1 X70.218 Y95.871 E0.02163 F1705
G1 X70.124 Y95.398 E0.07999 F2270
G1 X68.369 Y93.499 E0.06183 F1818
G1 X70.086 Y95.414 E0.04962 F1521
G1 X68.418 Y94.371 E0.04280 F2389
G1 X71.354 Y92.465 E0.04560 F1673
G1 X70.917 Y90.817 E0.04903 F1251
G1 X69.597 Y92.183 E0.04513 F2385
G1 X72.436 Y90.229 E0.05568 F1381
G1 X70.900 Y90.771 E0.02460 F2346
G1 X70.527 Y87.690 E0.04711 F2380
G1 X73.058 Y85.175 E0.03852 F2144
G1 X71.167 Y84.175 E0.04156 F2353
G1 X71.801 Y85.165 E0.02630 F1699
G1 X74.789 Y82.903 E0.03793 F1425
G1 X75.491 Y83.260 E0.02077 F1999
G1 X76.294 Y82.071 E0.06424 F1445
G1 X75.749 Y82.835 E0.02494 F1643
G1 X76.779 Y79.893 E0.04999 F1547
G1 X74.659 Y79.488 E0.03660 F2176
G1 X75.407 Y79.037 E0.05606 F1823
G1 X79.546 Y77.532 E0.04162 F1261
G1 X76.761 Y77.470 E0.07380 F1571
G1 X79.689 Y76.007 E0.04546 F2225
G1 X81.563 Y77.646 E0.04385 F1740
G1 X81.751 Y75.435 E0.03558 F1555
G1 X81.009 Y77.859 E0.07683 F1370
G1 X83.679 Y77.195 E0.04440 F1385
G1 X82.607 Y72.915 E0.07057 F1994
G1 X82.412 Y74.555 E0.02301 F1964
G1 X82.727 Y74.778 E0.04617 F1934
G1 X86.117 Y73.021 E0.06833 F1902
G1 X86.886 Y74.648 E0.05502 F1958
G1 X85.160 Y73.471 E0.06106 F2143
G1 X87.550 Y71.757 E0.07070 F1966
G1 X87.108 Y71.481 E0.02533 F1599
G1 X89.405 Y70.722 E0.07520 F1483
G1 X89.951 Y69.389 E0.03893 F1543
G1 X90.064 Y70.965 E0.04651 F2359
G1 X91.084 Y69.724 E0.02570 F1777
G1 X92.028 Y70.185 E0.07944 F2316
G1 X95.886 Y71.462 E0.04775 F2228
G1 X94.563 Y70.840 E0.05929 F1576
G1 X94.924 Y69.866 E0.02308 F1507
G1 X98.623 Y68.706 E0.07430 F2132
G1 X98.541 Y70.484 E0.04254 F1407
G1 X97.392 Y71.158 E0.06123 F2081
G1 X99.228 Y68.858 E0.07426 F1467
M104 S216
M106 S25
G1 X102.293 Y70.630 E0.05834 F1504
G1 X102.187 Y70.878 E0.06102 F1924
G1 X101.210 Y67.786 E0.07040 F1789
G1 X103.219 Y71.085 E0.03022 F1334
G1 X104.824 Y71.768 E0.06350 F1662
G1 X104.557 Y69.759 E0.03238 F2065
G1 X107.416 Y68.277 E0.07751 F1484
G1 X107.901 Y69.374 E0.07691 F1436
G1 X108.564 Y70.201 E0.04766 F1761
G1 X108.137 Y69.221 E0.04232 F1624
G1 X110.697 Y71.207 E0.05674 F1729
G1 X110.693 Y72.435 E0.04125 F2196
G1 X110.823 Y73.351 E0.02134 F2194
G1 X111.897 Y70.408 E0.07690 F1927
G1 X111.959 Y72.697 E0.02496 F2220
G1 X112.738 Y75.065 E0.07822 F1506
G1 X115.784 Y75.605 E0.03779 F2275
G1 X115.424 Y75.591 E0.06433 F1947
G1 X118.646 Y73.540 E0.04488 F2115
G1 X119.461 Y76.121 E0.04567 F1888
G1 X118.600 Y77.218 E0.02035 F2322
G1 X119.787 Y77.099 E0.07086 F2123
G1 X121.297 Y78.445 E0.05492 F1581
G1 X122.221 Y76.823 E0.06099 F1736
G1 X120.545 Y77.560 E0.05643 F1653
G1 X121.942 Y79.370 E0.03941 F1586
G1 X124.849 Y81.020 E0.06070 F2277
G1 X123.245 Y82.505 E0.03676 F1787
G1 X123.185 Y82.262 E0.05981 F2013
G1 X123.172 Y82.192 E0.07324 F1822
G1 X125.256 Y83.410 E0.07250 F2329
G1 X127.109 Y82.595 E0.06585 F1963
G1 X128.122 Y85.000 E0.03876 F1800
G1 X127.727 Y84.761 E0.04648 F1961
G1 X127.585 Y86.111 E0.02929 F2242
G1 X128.791 Y85.546 E0.06514 F1971
G1 X127.708 Y88.041 E0.04428 F2018
G1 X126.460 Y87.345 E0.02829 F2265
G1 X126.807 Y91.138 E0.05897 F2051
G1 X129.528 Y89.537 E0.06689 F2330
G1 X129.456 Y89.521 E0.07931 F1534
G1 X128.480 Y91.594 E0.02834 F2185
G1 X129.224 Y95.062 E0.06847 F1739
G1 X128.372 Y95.006 E0.05510 F1822
G1 X130.545 Y95.685 E0.03976 F1674
G1 X129.999 Y97.077 E0.04645 F1366
G1 X128.540 Y96.288 E0.02929 F2112
G1 X131.684 Y96.101 E0.05973 F1726
G1 X131.236 Y99.155 E0.07225 F2241
; LAYER:6
G1 Z1.200 F720 ; move to layer height
G1 X131.247 Y99.020 E0.07162 F1499
M104 S220
M106 S98
G1 X129.128 Y100.573 E0.07983 F2287
G1 X130.206 Y100.737 E0.06844 F1743
G1 X130.313 Y103.799 E0.04977 F2351
G1 X131.431 Y102.357 E0.05124 F1761
G1 X129.920 Y105.092 E0.04012 F2161
G1 X130.246 Y107.205 E0.06321 F1957
G1 X131.330 Y104.872 E0.06454 F2091
G1 X128.945 Y108.056 E0.03686 F1718
G1 X131.035 Y108.107 E0.06735 F2058
G1 X131.022 Y108.805 E0.07703 F1462
G1 X128.225 Y109.123 E0.06640 F2279
G1 X129.989 Y109.613 E0.06274 F1726
G1 X128.518 Y114.042 E0.02458 F2063
G1 X129.130 Y111.420 E0.02675 F2358
G1 X128.732 Y114.572 E0.04666 F1480
G1 X128.343 Y112.939 E0.04485 F2255
G1 X126.258 Y113.624 E0.06410 F1931
G1 X127.166 Y117.070 E0.04218 F1746
G1 X124.541 Y117.202 E0.02403 F1534
G1 X126.208 Y117.669 E0.06991 F1639
G1 X125.578 Y117.992 E0.05326 F2049
G1 X123.866 Y119.534 E0.06113 F1734
G1 X124.278 Y121.641 E0.04181 F1703
G1 X120.403 Y121.246 E0.05745 F1629
G1 X122.529 Y120.586 E0.06571 F1463
G1 X121.215 Y122.148 E0.06558 F1428
G1 X121.754 Y124.070 E0.04192 F2286
G1 X120.242 Y122.278 E0.04346 F2220
G1 X119.648 Y125.657 E0.02202 F1452
G1 X118.559 Y124.290 E0.02743 F2355
G1 X115.342 Y124.051 E0.06648 F1248
G1 X117.801 Y127.385 E0.05969 F2330
G1 X114.841 Y126.762 E0.06951 F1203
G1 X115.747 Y128.563 E0.04857 F1370
G1 X113.647 Y125.945 E0.03097 F1652
G1 X111.424 Y126.482 E0.04123 F1306
G1 X111.898 Y128.571 E0.06911 F2311
G1 X112.348 Y126.592 E0.07139 F1479
G1 X108.666 Y128.962 E0.03616 F1989
G1 X109.304 Y127.811 E0.02553 F1822
G1 X110.507 Y130.381 E0.04716 F1553
G1 X109.182 Y130.604 E0.03153 F1609
G1 X107.680 Y130.101 E0.05533 F1662
G1 X106.106 Y129.403 E0.07376 F1397
G1 X103.136 Y131.841 E0.04872 F1851
G1 X105.097 Y129.885 E0.06757 F1373
G1 X103.434 Y131.361 E0.06007 F1807
G1 X103.402 Y130.332 E0.02975 F1899
G1 X99.652 Y130.254 E0.07036 F1451
G1 X101.040 Y131.415 E0.05815 F2145
M104 S219
G1 X98.602 Y131.119 E0.04577 F1242
G1 X98.193 Y130.312 E0.05282 F2187
G1 X96.073 Y130.610 E0.07354 F2269
G1 X94.939 Y131.436 E0.04166 F1406
G1 X94.006 Y129.671 E0.04180 F1987
G1 X93.467 Y128.208 E0.05504 F1306
G1 X91.914 Y128.449 E0.06612 F1201
G1 X91.350 Y129.502 E0.03251 F1364
G1 X93.014 Y127.462 E0.02707 F2095
G1 X89.789 Y130.339 E0.07087 F2194
G1 X88.211 Y127.958 E0.05505 F1227
G1 X89.527 Y127.690 E0.05361 F2092
G1 X88.259 Y129.520 E0.06719 F1327
G1 X86.069 Y127.844 E0.05074 F1346
G1 X86.736 Y128.957 E0.02689 F1677
G1 X86.159 Y126.763 E0.02188 F2124
G1 X84.335 Y127.424 E0.06836 F1551
G1 X83.356 Y125.877 E0.05950 F2153
G1 X84.754 Y127.173 E0.02032 F1594
G1 X81.615 Y122.801 E0.07945 F2271
G1 X81.326 Y123.265 E0.06953 F1917
G1 X81.539 Y124.933 E0.03226 F2026
G1 X78.279 Y124.688 E0.07282 F1275
G1 X79.581 Y122.339 E0.07641 F1218
G1 X80.272 Y121.541 E0.07141 F1503
M106 S227
G1 X76.953 Y119.952 E0.06312 F1864
G1 X76.219 Y119.071 E0.04464 F1435
G1 X76.368 Y118.744 E0.06036 F1963
G1 X75.885 Y119.688 E0.05597 F2261
G1 X75.109 Y116.403 E0.05163 F1809
G1 X73.061 Y117.815 E0.05127 F1861
G1 X72.573 Y116.158 E0.06944 F1755
G1 X75.410 Y115.795 E0.02406 F1314
G1 X74.625 Y114.574 E0.04991 F2133
G1 X71.211 Y114.428 E0.06147 F1856
G1 X71.120 Y112.429 E0.07336 F1938
G1 X72.046 Y111.848 E0.07314 F1503
G1 X72.549 Y110.195 E0.03461 F2302
G1 X72.137 Y110.454 E0.06939 F2392
G1 X72.361 Y110.827 E0.06148 F1245
G1 X69.029 Y107.346 E0.07865 F2388
G1 X70.339 Y106.705 E0.03124 F2359
G1 X68.215 Y106.532 E0.05347 F2351
G1 X71.939 Y106.900 E0.04316 F1339
G1 X71.274 Y104.709 E0.07075 F2201
G1 X67.896 Y101.873 E0.05071 F2311
G1 X70.646 Y104.088 E0.04235 F2202
G1 X70.415 Y100.212 E0.07083 F1950
G1 X69.239 Y100.344 E0.07804 F2276
G1 X69.728 Y99.026 E0.06168 F2257
M104 S214
G1 X71.351 Y98.885 E0.07161 F2232
G1 X70.291 Y97.518 E0.02537 F2069
G1 X69.216 Y97.330 E0.05292 F2049
G1 X68.840 Y94.279 E0.06209 F1291
G1 X69.494 Y96.185 E0.03122 F1766
G1 X68.901 Y95.800 E0.03146 F1562
G1 X70.272 Y93.863 E0.07926 F1557
G1 X68.876 Y94.099 E0.05735 F1936
G1 X69.263 Y90.574 E0.02164 F1252
G1 X69.615 Y91.019 E0.02045 F1677
G1 X73.067 Y91.598 E0.06712 F1310
G1 X73.311 Y88.583 E0.02235 F1419
G1 X72.718 Y89.150 E0.03985 F2331
G1 X70.614 Y87.886 E0.07170 F2013
G1 X74.377 Y86.242 E0.07381 F1678
G1 X71.363 Y85.600 E0.07027 F2349
G1 X74.716 Y85.046 E0.03940 F1359
G1 X73.079 Y82.992 E0.07126 F1791
G1 X75.213 Y81.531 E0.07905 F1518
G1 X73.879 Y83.654 E0.04561 F1976
G1 X74.181 Y83.044 E0.06729 F1916
G1 X77.417 Y81.780 E0.02718 F1510
G1 X76.784 Y79.754 E0.03850 F2327
G1 X76.306 Y77.408 E0.04779 F1851
G1 X78.656 Y77.301 E0.06490 F2261
G1 X79.015 Y79.332 E0.05564 F1415
G1 X79.997 Y78.029 E0.02536 F1737
G1 X80.681 Y75.724 E0.02000 F2076
G1 X80.964 Y74.173 E0.05990 F1578
G1 X80.954 Y73.749 E0.03581 F1722
G1 X80.991 Y73.016 E0.02104 F1564
G1 X84.607 Y73.394 E0.06445 F1427
G1 X84.598 Y73.320 E0.06889 F2106
G1 X84.754 Y74.716 E0.05492 F1823
G1 X84.566 Y72.792 E0.03920 F2008
G1 X88.783 Y72.404 E0.02185 F1844
G1 X86.429 Y72.920 E0.05708 F1377
G1 X87.363 Y70.316 E0.05394 F2314
G1 X87.691 Y71.262 E0.05026 F1476
G1 X89.224 Y70.337 E0.06652 F1438
G1 X89.909 Y70.300 E0.04270 F1273
G1 X92.733 Y69.638 E0.02781 F1365
G1 X93.414 Y70.715 E0.04097 F1368
G1 X93.667 Y70.755 E0.07973 F2084
G1 X97.046 Y69.173 E0.02235 F1713
G1 X94.854 Y70.814 E0.04254 F1946
G1 X97.199 Y70.132 E0.05901 F1456
G1 X98.868 Y67.880 E0.02612 F1777
G1 X100.791 Y69.349 E0.06547 F2392
G1 X100.754 Y69.966 E0.07107 F2151
M104 S212
M106 S101
G1 X100.479 Y70.671 E0.04812 F2118
G1 X102.259 Y68.842 E0.02345 F2223
G1 X103.347 Y71.441 E0.06519 F1317
G1 X101.895 Y71.429 E0.03523 F1551
G1 X103.914 Y71.581 E0.02346 F1622
G1 X106.608 Y68.184 E0.02866 F1496
G1 X108.418 Y70.651 E0.05750 F1358
G1 X108.277 Y71.105 E0.06706 F1545
G1 X106.818 Y71.420 E0.04971 F1984
G1 X110.398 Y70.830 E0.06906 F2302
G1 X111.763 Y70.260 E0.02123 F2254
G1 X111.346 Y73.451 E0.05952 F2359
G1 X113.827 Y71.801 E0.05504 F1659
G1 X112.923 Y70.822 E0.05234 F2280
G1 X112.789 Y72.792 E0.06980 F2059
G1 X113.209 Y74.773 E0.04495 F1921
G1 X115.211 Y73.219 E0.06920 F1355
G1 X118.021 Y74.031 E0.06638 F1694
G1 X118.893 Y76.090 E0.07154 F2382
G1 X117.225 Y74.898 E0.06998 F1930
G1 X116.887 Y74.282 E0.02689 F2086
G1 X119.954 Y75.700 E0.07790 F2173
G1 X121.209 Y76.477 E0.02614 F2122
G1 X120.532 Y77.453 E0.02468 F2147
G1 X120.952 Y76.420 E0.05668 F1660
G1 X124.148 Y77.847 E0.04530 F1258
G1 X121.092 Y77.858 E0.05169 F2233
G1 X123.621 Y80.380 E0.06780 F2233
G1 X126.092 Y79.762 E0.03871 F2205
G1 X125.021 Y83.239 E0.02054 F2291
G1 X125.637 Y84.693 E0.04634 F1846
G1 X124.680 Y82.794 E0.05892 F1858
G1 X127.872 Y85.358 E0.02015 F2256
G1 X128.022 Y84.796 E0.07488 F1445
G1 X129.234 Y86.232 E0.07275 F2120
G1 X129.287 Y88.171 E0.02080 F1418
G1 X128.985 Y88.379 E0.07681 F1687
G1 X129.836 Y90.536 E0.07199 F2247
G1 X129.058 Y89.481 E0.04549 F1823
G1 X128.960 Y88.576 E0.02316 F1312
G1 X129.939 Y92.837 E0.02705 F1651
G1 X128.845 Y92.610 E0.07005 F2138
G1 X128.456 Y92.151 E0.02172 F1690
G1 X128.877 Y93.629 E0.07166 F1315
G1 X128.541 Y94.400 E0.03677 F2339
G1 X131.705 Y97.720 E0.03998 F1539
G1 X130.009 Y96.352 E0.07992 F1372
G1 X131.878 Y97.021 E0.05848 F1834
G1 X129.285 Y98.461 E0.03884 F1485
; LAYER:7
G1 Z1.400 F720 ; move to layer height
G1 X131.353 Y101.876 E0.05567 F1732
M104 S212
M106 S113
G1 X129.962 Y102.056 E0.05838 F2031
G1 X132.464 Y100.793 E0.04113 F2274
G1 X130.853 Y102.177 E0.04646 F2050
G1 X128.795 Y104.321 E0.07801 F1576
G1 X132.193 Y103.592 E0.07392 F1259
G1 X131.806 Y105.734 E0.04289 F1730
G1 X131.856 Y107.380 E0.04450 F1214
G1 X128.519 Y107.143 E0.06984 F1692
G1 X129.500 Y110.174 E0.07355 F2048
G1 X130.968 Y107.926 E0.07132 F2379
G1 X127.915 Y112.241 E0.03799 F1416
G1 X126.783 Y111.616 E0.07687 F2248
G1 X128.095 Y112.925 E0.07543 F2132
G1 X127.472 Y111.731 E0.06748 F1746
G1 X128.567 Y112.646 E0.05330 F1395
G1 X125.390 Y115.717 E0.04028 F1787
G1 X126.929 Y116.824 E0.05067 F1467
G1 X126.548 Y117.986 E0.03906 F2227
G1 X126.747 Y116.415 E0.03372 F1285
G1 X123.574 Y117.669 E0.05590 F2174
G1 X125.897 Y118.129 E0.05654 F2317
G1 X123.419 Y118.035 E0.03506 F2394
G1 X124.423 Y122.141 E0.06392 F1268
G1 X121.022 Y121.412 E0.07439 F1456
G1 X120.086 Y122.870 E0.07500 F1588
G1 X120.120 Y122.289 E0.02905 F1279
G1 X120.385 Y123.911 E0.07209 F2268
G1 X120.229 Y124.850 E0.04316 F1912
G1 X117.246 Y125.067 E0.04251 F1842
G1 X116.477 Y125.257 E0.05788 F1724
G1 X117.733 Y127.178 E0.04632 F1894
G1 X116.207 Y123.976 E0.02019 F2260
G1 X115.433 Y125.622 E0.07520 F1645
G1 X114.463 Y125.827 E0.03061 F2291
G1 X113.684 Y125.547 E0.02688 F2149
G1 X111.721 Y127.119 E0.05198 F1698
G1 X111.962 Y126.246 E0.03285 F2325
G1 X111.160 Y130.297 E0.06608 F1571
G1 X112.187 Y127.544 E0.03510 F1961
G1 X108.757 Y128.717 E0.06916 F2358
G1 X108.439 Y129.023 E0.03495 F1862
G1 X108.899 Y128.358 E0.05795 F1948
G1 X106.257 Y130.726 E0.05021 F1888
G1 X106.594 Y130.842 E0.07245 F2192
G1 X105.559 Y129.275 E0.03336 F1779
G1 X104.544 Y131.175 E0.06064 F1243
G1 X102.871 Y131.539 E0.03815 F1331
G1 X102.466 Y128.962 E0.02613 F1611
G1 X101.847 Y129.728 E0.05355 F2118
G1 X99.407 Y131.101 E0.04739 F1872
M104 S220
G1 X100.166 Y132.056 E0.03266 F1703
G1 X97.086 Y130.883 E0.03750 F1366
G1 X96.426 Y132.377 E0.05852 F2160
G1 X97.379 Y130.660 E0.05961 F1617
G1 X96.757 Y128.938 E0.02524 F2104
G1 X93.412 Y131.821 E0.03356 F1692
G1 X92.889 Y130.923 E0.02796 F1862
G1 X92.439 Y128.283 E0.07073 F1346
G1 X90.972 Y129.680 E0.05335 F1313
G1 X89.070 Y130.043 E0.05823 F1434
G1 X91.559 Y127.971 E0.03613 F2329
G1 X87.467 Y129.410 E0.06195 F2284
G1 X88.585 Y127.964 E0.06866 F2017
G1 X87.014 Y128.553 E0.06299 F1280
G1 X87.437 Y125.374 E0.06152 F1437
G1 X83.436 Y127.131 E0.05095 F2181
G1 X85.852 Y126.465 E0.06176 F2298
G1 X81.566 Y124.675 E0.04593 F1432
G1 X80.908 Y126.914 E0.05783 F1868
G1 X80.636 Y125.183 E0.03229 F1578
G1 X79.958 Y125.553 E0.04108 F1363
G1 X78.720 Y122.597 E0.06643 F2327
G1 X78.443 Y121.948 E0.06167 F1942
G1 X79.804 Y123.131 E0.05025 F2393
G1 X79.036 Y119.998 E0.06004 F1355
M106 S15
G1 X78.043 Y121.154 E0.04434 F1401
G1 X75.041 Y119.244 E0.06137 F1719
G1 X77.154 Y119.705 E0.05890 F1942
G1 X74.260 Y120.812 E0.04138 F1754
G1 X76.143 Y117.596 E0.05952 F1481
G1 X72.700 Y118.868 E0.02788 F2192
G1 X72.855 Y116.612 E0.03689 F2272
G1 X74.306 Y115.443 E0.07641 F1220
G1 X72.006 Y116.736 E0.04681 F2394
G1 X72.922 Y113.882 E0.04706 F1518
G1 X72.372 Y111.730 E0.03054 F1206
G1 X70.678 Y113.718 E0.02678 F1951
G1 X72.411 Y111.525 E0.05916 F1822
G1 X71.576 Y110.789 E0.04841 F1817
G1 X69.581 Y108.847 E0.05620 F1308
G1 X69.256 Y110.393 E0.07833 F1683
G1 X72.208 Y107.316 E0.03888 F1452
G1 X69.751 Y107.006 E0.06302 F1766
G1 X70.472 Y107.515 E0.03563 F2269
G1 X68.980 Y105.879 E0.02077 F1434
G1 X68.003 Y104.815 E0.05464 F1606
G1 X68.205 Y101.813 E0.02222 F1267
G1 X67.953 Y103.670 E0.05101 F1330
G1 X70.124 Y99.355 E0.06472 F1978
G1 X70.327 Y100.762 E0.03370 F1914
M104 S215
G1 X67.793 Y99.482 E0.05617 F1718
G1 X69.639 Y99.372 E0.04735 F2202
G1 X69.639 Y98.340 E0.02081 F1227
G1 X68.513 Y94.637 E0.06054 F1402
G1 X68.778 Y94.273 E0.03884 F1303
G1 X68.865 Y92.704 E0.06687 F2285
G1 X69.673 Y93.706 E0.05334 F1570
G1 X69.747 Y90.551 E0.02162 F2389
G1 X71.533 Y92.180 E0.06544 F1966
G1 X71.593 Y89.962 E0.06384 F1739
G1 X69.219 Y91.229 E0.04980 F1490
G1 X70.814 Y88.675 E0.07989 F1265
G1 X73.317 Y89.146 E0.03558 F2148
G1 X71.424 Y86.384 E0.07143 F1342
G1 X73.566 Y86.217 E0.04265 F1939
G1 X72.895 Y84.475 E0.07377 F1641
G1 X75.520 Y86.082 E0.07065 F2340
G1 X74.234 Y85.128 E0.07396 F1560
G1 X72.857 Y84.169 E0.07591 F1496
G1 X76.171 Y80.637 E0.06776 F2175
G1 X74.494 Y83.140 E0.07410 F1848
G1 X77.408 Y79.271 E0.03050 F2400
G1 X78.774 Y78.793 E0.06583 F1350
G1 X75.985 Y79.293 E0.05507 F1685
G1 X77.872 Y80.050 E0.04214 F2127
G1 X78.178 Y77.331 E0.03740 F2182
G1 X81.008 Y77.335 E0.04632 F2097
G1 X79.097 Y76.949 E0.03845 F2253
G1 X81.120 Y74.185 E0.07689 F1321
G1 X82.548 Y73.416 E0.03604 F1479
G1 X84.275 Y73.493 E0.05865 F1395
G1 X84.519 Y74.130 E0.03910 F1756
G1 X84.112 Y75.541 E0.07584 F1396
G1 X87.000 Y72.548 E0.02404 F1766
G1 X88.034 Y71.842 E0.05126 F1901
G1 X85.616 Y70.623 E0.02514 F1711
G1 X89.125 Y71.615 E0.05430 F1357
G1 X89.625 Y69.870 E0.05072 F2283
G1 X90.857 Y70.599 E0.02404 F1955
G1 X88.550 Y70.009 E0.02053 F2094
G1 X89.595 Y68.600 E0.04563 F2395
G1 X90.503 Y70.228 E0.04277 F1973
G1 X92.983 Y68.706 E0.04023 F1971
G1 X94.600 Y69.819 E0.05422 F2211
G1 X96.318 Y71.362 E0.07779 F1898
G1 X95.132 Y68.382 E0.03562 F1758
G1 X99.038 Y69.825 E0.03805 F2055
G1 X98.314 Y68.695 E0.03705 F2011
G1 X99.317 Y68.418 E0.05916 F2399
G1 X101.444 Y70.323 E0.06592 F1719
M104 S210
M106 S152
G1 X102.383 Y70.679 E0.02532 F2198
G1 X102.753 Y69.370 E0.07867 F2034
G1 X103.797 Y69.849 E0.07084 F2350
G1 X102.235 Y71.218 E0.07562 F1743
G1 X105.458 Y69.305 E0.07201 F1353
G1 X105.778 Y67.981 E0.07009 F1466
G1 X105.896 Y69.521 E0.05341 F1502
G1 X107.759 Y70.862 E0.05805 F1944
G1 X108.506 Y69.021 E0.02578 F1401
G1 X111.312 Y70.428 E0.03196 F1588
G1 X108.545 Y72.463 E0.03409 F2125
G1 X110.421 Y71.240 E0.03829 F1781
G1 X111.586 Y71.512 E0.06946 F1713
G1 X114.110 Y73.761 E0.03331 F1933
G1 X113.704 Y70.660 E0.07097 F1494
G1 X113.175 Y74.745 E0.07043 F1412
G1 X116.507 Y71.677 E0.04430 F1781
G1 X116.974 Y74.833 E0.04141 F1360
G1 X116.828 Y73.751 E0.06774 F1889
G1 X118.388 Y74.582 E0.04410 F1636
G1 X119.536 Y75.768 E0.02995 F2085
G1 X119.638 Y76.029 E0.03970 F2220
G1 X121.562 Y77.024 E0.05163 F1289
G1 X122.944 Y75.787 E0.02263 F2099
G1 X123.562 Y76.318 E0.05183 F2320
G1 X121.720 Y77.446 E0.07343 F1902
G1 X124.952 Y80.421 E0.02101 F2333
G1 X124.649 Y79.926 E0.05864 F1816
G1 X122.287 Y81.949 E0.04320 F1776
G1 X124.045 Y83.563 E0.07991 F1980
G1 X124.959 Y83.786 E0.02034 F1831
G1 X125.100 Y83.541 E0.04183 F1753
G1 X125.150 Y85.105 E0.02897 F1255
G1 X127.399 Y86.008 E0.04350 F1428
G1 X127.590 Y86.100 E0.02997 F1361
G1 X128.332 Y88.223 E0.03805 F1921
G1 X126.588 Y87.978 E0.06506 F1983
G1 X127.808 Y88.153 E0.02440 F2046
G1 X129.230 Y88.183 E0.06734 F2370
G1 X129.537 Y89.319 E0.06264 F1711
G1 X127.902 Y91.116 E0.04796 F1868
G1 X129.443 Y90.738 E0.05003 F1320
G1 X131.130 Y93.317 E0.03467 F1475
G1 X130.288 Y92.263 E0.06913 F1928
G1 X129.863 Y93.684 E0.05208 F1451
G1 X129.247 Y97.179 E0.05453 F2165
G1 X129.877 Y95.343 E0.06279 F1492
G1 X132.506 Y97.195 E0.03924 F1908
G1 X129.689 Y99.032 E0.02767 F1537
; LAYER:8
G1 Z1.600 F720 ; move to layer height
G1 X129.152 Y100.641 E0.04939 F1535
M104 S219
M106 S67
G1 X129.115 Y102.921 E0.04712 F1392
G1 X131.050 Y101.426 E0.05629 F1824
G1 X132.301 Y103.767 E0.02024 F1710
G1 X132.531 Y103.247 E0.06632 F1831
G1 X132.088 Y105.004 E0.04476 F1684
G1 X131.125 Y104.181 E0.02885 F1281
G1 X130.393 Y106.754 E0.03004 F2055
G1 X128.686 Y107.060 E0.05768 F1322
G1 X128.628 Y109.281 E0.05723 F1297
G1 X129.701 Y108.779 E0.05231 F2064
G1 X129.474 Y108.611 E0.07604 F1612
G1 X129.044 Y112.070 E0.05832 F1229
G1 X128.654 Y110.829 E0.03217 F2131
G1 X128.688 Y114.484 E0.04536 F2112
G1 X125.585 Y113.884 E0.02764 F1755
G1 X128.959 Y114.962 E0.03347 F2308
G1 X126.907 Y114.118 E0.04953 F2189
G1 X127.215 Y116.204 E0.04172 F2230
G1 X125.341 Y118.737 E0.03368 F2395
G1 X124.468 Y116.791 E0.04759 F2270
G1 X123.655 Y117.893 E0.04403 F1858
G1 X124.541 Y118.111 E0.03629 F1909
G1 X122.371 Y119.112 E0.03052 F1975
G1 X120.558 Y121.186 E0.06356 F1962
G1 X122.144 Y120.917 E0.03558 F2231
G1 X121.926 Y120.601 E0.05903 F1581
G1 X121.698 Y121.436 E0.04997 F2240
G1 X121.262 Y123.675 E0.05106 F1589
G1 X119.149 Y123.815 E0.05949 F2007
G1 X120.059 Y126.774 E0.06668 F1776
G1 X116.897 Y125.133 E0.07693 F1255
G1 X115.802 Y124.986 E0.07377 F1375
G1 X115.198 Y127.553 E0.05189 F1275
G1 X116.254 Y126.935 E0.04229 F1971
G1 X115.846 Y126.104 E0.02084 F1220
G1 X113.113 Y125.908 E0.05284 F1324
G1 X112.795 Y128.682 E0.05150 F1211
G1 X109.723 Y127.593 E0.04973 F2262
G1 X110.908 Y129.639 E0.02679 F2098
G1 X109.864 Y130.615 E0.03680 F2303
G1 X109.249 Y129.106 E0.04789 F1373
G1 X109.355 Y131.134 E0.04764 F1385
G1 X107.811 Y130.952 E0.07479 F1412
G1 X107.718 Y129.033 E0.04363 F1404
G1 X106.387 Y131.893 E0.03210 F1326
G1 X101.988 Y132.183 E0.06286 F1853
G1 X103.484 Y130.457 E0.04442 F1713
G1 X100.607 Y129.436 E0.06927 F1213
G1 X99.835 Y129.664 E0.06892 F1771
G1 X101.335 Y131.428 E0.04021 F2151
M104 S215
G1 X97.242 Y129.913 E0.03514 F1493
G1 X97.335 Y129.814 E0.05847 F1492
G1 X98.022 Y130.176 E0.03678 F2305
G1 X97.734 Y130.145 E0.04299 F2089
G1 X95.348 Y129.706 E0.07653 F1280
G1 X96.187 Y131.936 E0.02261 F1335
G1 X91.680 Y130.929 E0.07887 F2190
G1 X93.512 Y129.433 E0.02137 F2104
G1 X93.005 Y130.248 E0.05066 F1307
G1 X89.819 Y127.362 E0.03327 F1618
G1 X87.640 Y128.184 E0.03594 F1609
G1 X89.247 Y129.879 E0.03937 F2384
G1 X88.611 Y127.985 E0.06300 F1716
G1 X86.249 Y127.068 E0.05182 F1634
G1 X86.015 Y125.822 E0.05559 F1213
G1 X84.984 Y127.419 E0.04864 F1558
G1 X82.408 Y127.558 E0.02028 F1748
G1 X84.843 Y125.721 E0.02417 F1392
G1 X84.662 Y124.161 E0.03833 F1889
G1 X83.492 Y124.097 E0.04371 F2097
G1 X80.136 Y123.899 E0.05418 F2321
G1 X78.619 Y124.882 E0.03499 F1785
G1 X80.831 Y123.230 E0.06538 F1668
G1 X77.493 Y122.689 E0.03580 F1425
G1 X77.151 Y120.200 E0.07387 F1337
M106 S96
G1 X78.865 Y122.067 E0.06332 F1655
G1 X78.667 Y119.771 E0.03116 F1284
G1 X77.478 Y117.891 E0.07651 F1506
G1 X76.868 Y117.160 E0.02894 F1447
G1 X75.550 Y118.320 E0.04729 F2354
G1 X72.707 Y117.463 E0.07331 F2256
G1 X73.066 Y115.591 E0.03435 F1793
G1 X72.759 Y116.213 E0.05492 F1518
G1 X72.325 Y114.255 E0.04874 F1797
G1 X73.764 Y115.897 E0.02498 F2213
G1 X71.214 Y112.750 E0.03822 F2263
G1 X71.564 Y112.971 E0.05672 F2030
G1 X73.315 Y113.165 E0.05869 F1800
G1 X71.548 Y109.404 E0.03701 F2322
G1 X72.023 Y107.962 E0.06230 F1568
G1 X70.387 Y108.702 E0.06446 F1928
G1 X70.029 Y106.582 E0.04660 F1743
G1 X69.173 Y105.970 E0.07897 F1603
G1 X70.990 Y104.153 E0.07194 F2221
G1 X69.823 Y104.132 E0.04524 F1677
G1 X69.534 Y102.876 E0.03409 F2323
G1 X68.775 Y101.658 E0.04862 F2130
G1 X70.072 Y103.363 E0.03342 F1527
G1 X67.425 Y99.546 E0.03255 F1460
G1 X70.319 Y100.914 E0.05763 F2345
M104 S220
G1 X68.572 Y99.193 E0.06004 F2261
G1 X69.595 Y99.590 E0.05676 F1934
G1 X69.823 Y98.043 E0.06591 F1703
G1 X70.209 Y96.480 E0.05016 F1360
G1 X67.743 Y94.769 E0.05584 F1349
G1 X71.574 Y94.397 E0.07964 F1301
G1 X70.813 Y91.584 E0.04036 F1489
G1 X70.927 Y90.406 E0.03342 F1439
G1 X71.835 Y90.969 E0.06622 F2113
G1 X70.905 Y89.868 E0.05040 F1628
G1 X69.465 Y89.964 E0.04420 F1685
G1 X69.595 Y87.834 E0.04831 F1955
G1 X70.019 Y88.581 E0.02073 F1990
G1 X72.449 Y87.916 E0.03923 F2171
G1 X73.658 Y85.207 E0.05592 F1784
G1 X74.872 Y84.154 E0.02838 F2149
G1 X72.849 Y84.911 E0.03967 F1439
G1 X73.054 Y82.329 E0.04895 F1778
G1 X73.059 Y82.384 E0.07438 F1946
G1 X75.565 Y83.398 E0.07911 F2298
G1 X73.819 Y82.389 E0.02985 F1835
G1 X75.310 Y79.239 E0.02403 F2033
G1 X77.129 Y79.634 E0.04287 F1358
G1 X79.393 Y77.402 E0.07941 F1455
G1 X76.490 Y76.645 E0.02392 F1790
G1 X79.861 Y78.440 E0.05038 F2315
G1 X81.212 Y77.519 E0.06009 F1370
G1 X78.637 Y77.367 E0.07968 F2339
G1 X81.803 Y73.730 E0.02015 F2050
G1 X81.654 Y75.890 E0.03163 F2233
G1 X81.059 Y74.344 E0.05330 F2381
G1 X84.763 Y73.041 E0.05878 F1617
G1 X85.323 Y71.802 E0.04307 F2060
G1 X83.976 Y71.396 E0.02881 F1426
G1 X85.274 Y72.550 E0.03569 F2217
G1 X87.448 Y73.339 E0.03174 F1918
G1 X88.912 Y73.255 E0.04787 F2374
G1 X88.937 Y72.856 E0.03317 F2216
G1 X90.468 Y70.213 E0.03279 F2174
G1 X90.337 Y69.945 E0.02954 F1404
G1 X93.307 Y71.526 E0.02693 F1847
G1 X91.614 Y70.284 E0.05514 F1811
G1 X94.426 Y70.309 E0.04887 F2081
G1 X94.721 Y68.710 E0.04381 F1789
G1 X96.058 Y70.203 E0.06719 F2366
G1 X94.842 Y70.020 E0.03118 F1220
G1 X95.793 Y67.848 E0.05471 F1769
G1 X97.429 Y69.334 E0.07790 F1225
G1 X101.000 Y68.139 E0.07069 F1691
G1 X99.521 Y70.473 E0.03711 F2299
M104 S211
M106 S147
G1 X100.133 Y70.978 E0.06672 F1224
G1 X100.938 Y70.527 E0.03665 F2273
G1 X104.273 Y67.681 E0.04725 F1410
G1 X104.608 Y69.662 E0.06252 F1270
G1 X103.222 Y67.997 E0.07086 F1534
G1 X104.914 Y68.575 E0.02541 F2178
G1 X105.382 Y70.765 E0.03123 F2109
G1 X108.170 Y68.941 E0.06932 F1789
G1 X107.492 Y69.016 E0.02546 F1533
G1 X109.163 Y72.493 E0.07332 F1385
G1 X108.479 Y71.170 E0.04622 F1263
G1 X110.111 Y70.033 E0.04165 F1568
G1 X110.837 Y70.064 E0.04061 F2195
G1 X112.395 Y72.961 E0.03432 F1652
G1 X115.519 Y71.856 E0.03312 F1795
G1 X116.415 Y72.605 E0.04198 F1487
G1 X115.030 Y71.939 E0.06343 F1258
G1 X117.417 Y74.432 E0.02694 F1595
G1 X119.029 Y76.215 E0.07765 F1595
G1 X117.734 Y76.143 E0.03878 F2302
G1 X118.005 Y76.551 E0.05408 F1346
G1 X119.543 Y76.249 E0.02037 F1231
G1 X120.400 Y76.606 E0.06597 F2067
G1 X119.961 Y76.114 E0.04768 F2251
G1 X121.079 Y77.165 E0.07093 F1582
G1 X122.604 Y78.734 E0.03336 F1281
G1 X124.187 Y79.902 E0.03540 F2166
G1 X124.176 Y80.893 E0.05739 F1631
G1 X124.271 Y81.519 E0.04627 F1927
G1 X125.817 Y81.888 E0.03839 F2240
G1 X124.464 Y83.352 E0.07564 F2377
G1 X126.859 Y82.160 E0.05611 F1506
G1 X125.266 Y85.823 E0.07726 F1207
G1 X128.072 Y85.835 E0.05263 F1844
G1 X129.034 Y87.660 E0.02316 F1343
G1 X129.027 Y85.280 E0.03083 F1266
G1 X127.051 Y87.563 E0.05033 F2243
G1 X127.217 Y87.785 E0.07274 F1932
G1 X127.820 Y91.299 E0.06855 F2350
G1 X131.076 Y89.207 E0.03551 F1624
G1 X131.403 Y90.240 E0.04274 F1977
G1 X128.899 Y91.774 E0.07481 F1370
G1 X131.519 Y93.850 E0.06647 F1680
G1 X131.638 Y94.095 E0.04945 F1689
G1 X129.488 Y96.088 E0.05262 F2387
G1 X131.534 Y95.174 E0.02967 F1636
G1 X129.517 Y96.049 E0.04960 F1490
G1 X128.833 Y97.328 E0.05507 F1977
G1 X132.314 Y97.396 E0.04648 F1643
; LAYER:9
G1 Z1.800 F720 ; move to layer height
G1 X129.862 Y99.757 E0.05414 F1510
M104 S217
M106 S155
G1 X131.895 Y100.013 E0.05742 F2148
G1 X132.781 Y101.125 E0.04617 F1781
G1 X129.376 Y102.909 E0.05987 F1765
G1 X129.905 Y105.719 E0.06894 F1542
G1 X131.660 Y102.979 E0.05275 F1679
G1 X128.627 Y105.289 E0.04870 F2044
G1 X131.465 Y106.729 E0.06933 F2221
G1 X128.749 Y108.668 E0.03241 F1941
G1 X129.708 Y110.186 E0.04055 F1578
G1 X128.368 Y110.566 E0.06211 F1244
G1 X128.587 Y108.835 E0.05980 F1230
G1 X128.523 Y110.283 E0.04452 F1685
G1 X128.562 Y114.066 E0.05579 F2005
G1 X128.597 Y111.643 E0.05039 F1343
G1 X125.707 Y114.796 E0.03841 F1775
G1 X127.327 Y115.255 E0.03405 F1721
G1 X125.069 Y116.519 E0.07112 F2177
G1 X124.990 Y118.225 E0.02663 F1651
G1 X125.565 Y118.266 E0.07700 F2163
G1 X125.452 Y117.293 E0.06009 F2335
G1 X123.188 Y118.628 E0.07350 F1307
G1 X123.005 Y120.117 E0.06761 F1286
G1 X123.267 Y120.749 E0.03352 F2047
G1 X122.983 Y119.238 E0.02903 F1249
G1 X121.372 Y120.409 E0.02250 F2001
G1 X122.915 Y122.004 E0.02729 F1432
G1 X121.537 Y122.580 E0.02977 F2222
G1 X119.107 Y124.437 E0.04792 F1371
G1 X119.757 Y126.279 E0.07150 F1997
G1 X117.810 Y126.870 E0.02205 F1266
G1 X116.899 Y125.381 E0.05762 F2368
G1 X116.643 Y125.057 E0.03596 F1897
G1 X113.888 Y125.785 E0.04749 F1266
G1 X115.360 Y126.187 E0.02444 F1892
G1 X115.040 Y128.108 E0.06203 F1575
G1 X111.811 Y127.566 E0.04111 F1838
G1 X110.455 Y129.298 E0.05824 F1214
G1 X110.948 Y129.568 E0.03352 F1821
G1 X111.782 Y128.388 E0.07715 F1715
G1 X110.910 Y130.699 E0.02821 F2334
G1 X108.860 Y131.260 E0.02151 F1407
G1 X105.941 Y128.961 E0.07068 F1634
G1 X105.876 Y128.910 E0.02663 F1668
G1 X105.657 Y130.818 E0.06264 F2388
G1 X104.341 Y128.611 E0.04272 F1549
G1 X104.688 Y129.431 E0.06485 F1244
G1 X103.271 Y132.633 E0.02111 F1990
G1 X101.418 Y132.583 E0.07566 F1664
G1 X100.226 Y130.115 E0.04542 F1973
G1 X98.301 Y130.772 E0.07252 F2301
M104 S220
G1 X97.606 Y129.340 E0.05725 F1552
G1 X97.605 Y130.811 E0.03294 F1487
G1 X96.384 Y130.287 E0.05856 F1746
G1 X95.590 Y130.947 E0.05815 F1604
G1 X96.438 Y129.976 E0.05366 F1227
G1 X95.916 Y128.436 E0.06036 F1912
G1 X94.010 Y131.831 E0.06363 F2029
G1 X91.420 Y129.620 E0.05914 F2087
G1 X89.580 Y128.318 E0.04950 F1977
G1 X90.444 Y129.496 E0.06697 F1306
G1 X88.720 Y127.343 E0.02472 F1391
G1 X89.203 Y127.747 E0.06186 F2232
G1 X89.114 Y128.123 E0.03287 F1876
G1 X88.013 Y129.443 E0.03190 F1586
G1 X86.448 Y126.470 E0.03557 F2379
G1 X86.898 Y126.907 E0.04430 F1548
G1 X82.350 Y126.505 E0.06954 F2114
G1 X81.936 Y127.255 E0.06464 F2336
G1 X82.778 Y123.850 E0.06451 F2374
G1 X80.716 Y123.099 E0.03862 F2282
G1 X79.626 Y124.490 E0.07186 F1678
G1 X82.272 Y125.028 E0.07671 F2388
G1 X78.448 Y121.495 E0.06385 F2116
G1 X80.502 Y123.004 E0.06156 F1383
G1 X79.381 Y120.808 E0.07446 F2383
M106 S107
G1 X78.982 Y122.134 E0.07916 F1881
G1 X77.795 Y118.520 E0.02088 F1220
G1 X78.067 Y118.939 E0.02486 F1538
G1 X75.072 Y118.169 E0.03954 F2190
G1 X73.746 Y117.898 E0.07698 F1846
G1 X74.679 Y116.975 E0.06354 F1690
G1 X74.123 Y117.909 E0.06037 F2354
G1 X73.180 Y115.616 E0.05910 F1722
G1 X72.335 Y113.016 E0.03730 F1743
G1 X71.355 Y112.938 E0.04242 F1906
G1 X73.966 Y114.374 E0.02268 F1494
G1 X71.917 Y113.572 E0.04994 F1555
G1 X70.323 Y113.159 E0.07982 F2331
G1 X69.646 Y110.443 E0.03242 F1496
G1 X72.069 Y109.409 E0.07065 F1774
G1 X71.912 Y107.087 E0.04339 F2168
G1 X68.924 Y109.353 E0.07211 F1583
G1 X70.880 Y108.007 E0.03553 F1316
G1 X68.097 Y107.109 E0.07406 F1276
G1 X68.552 Y105.393 E0.04771 F2259
G1 X68.912 Y105.762 E0.02805 F1813
G1 X70.558 Y101.341 E0.06391 F2059
G1 X68.355 Y101.988 E0.02490 F1291
G1 X67.495 Y100.361 E0.07607 F1993
G1 X68.989 Y100.028 E0.07644 F1606
M104 S210
G1 X68.327 Y98.699 E0.06123 F2011
G1 X68.597 Y99.726 E0.06171 F1773
G1 X70.766 Y96.397 E0.06270 F1520
G1 X69.967 Y97.806 E0.03606 F1469
G1 X70.886 Y96.571 E0.04049 F1646
G1 X71.101 Y95.707 E0.05186 F1940
G1 X69.290 Y91.263 E0.03997 F2324
G1 X71.803 Y93.649 E0.02649 F1965
G1 X68.523 Y90.462 E0.05356 F1852
G1 X69.279 Y89.308 E0.02817 F2063
G1 X71.299 Y87.792 E0.02740 F1945
G1 X69.686 Y88.632 E0.06713 F1374
G1 X69.699 Y88.607 E0.07296 F1953
G1 X71.088 Y86.053 E0.06085 F2159
G1 X73.721 Y85.588 E0.05619 F2186
G1 X74.392 Y85.165 E0.07561 F2289
G1 X73.461 Y86.125 E0.03610 F1292
G1 X75.081 Y83.022 E0.07385 F2287
G1 X74.379 Y80.715 E0.05578 F1770
G1 X74.185 Y81.899 E0.07120 F1321
G1 X74.049 Y82.602 E0.04829 F1489
G1 X77.950 Y81.728 E0.04162 F1731
G1 X75.307 Y77.978 E0.03768 F1905
G1 X78.155 Y77.829 E0.03791 F1975
G1 X76.619 Y78.850 E0.03468 F2220
G1 X79.189 Y78.423 E0.07709 F2124
G1 X78.556 Y75.441 E0.02689 F2229
G1 X79.534 Y77.298 E0.05471 F2113
G1 X79.540 Y73.909 E0.04902 F1673
G1 X80.682 Y74.605 E0.03822 F1397
G1 X84.478 Y75.131 E0.03781 F1391
G1 X82.239 Y72.482 E0.03462 F1984
G1 X85.058 Y73.182 E0.03461 F2237
G1 X84.429 Y71.720 E0.04952 F1368
G1 X84.636 Y70.478 E0.07156 F1277
G1 X87.035 Y72.348 E0.03690 F2064
G1 X85.879 Y72.050 E0.05149 F1370
G1 X88.050 Y72.787 E0.03244 F1497
G1 X88.080 Y71.519 E0.04361 F2146
G1 X90.789 Y69.171 E0.02465 F1266
G1 X93.047 Y71.756 E0.03876 F1729
G1 X91.827 Y71.544 E0.06591 F1555
G1 X94.252 Y68.645 E0.06096 F2229
G1 X93.175 Y70.336 E0.07561 F1317
G1 X96.510 Y68.161 E0.04190 F2311
G1 X96.377 Y69.006 E0.04401 F1614
G1 X95.992 Y67.632 E0.02172 F1354
G1 X98.226 Y67.589 E0.04139 F1395
G1 X99.792 Y68.485 E0.04853 F1243
G1 X99.568 Y69.358 E0.02273 F1509
M104 S215
M106 S4
G1 X102.070 Y69.282 E0.06949 F2334
G1 X100.286 Y70.143 E0.03401 F1982
G1 X102.072 Y69.555 E0.04034 F1732
G1 X102.981 Y71.141 E0.06182 F2269
G1 X103.422 Y68.195 E0.07261 F2281
G1 X104.785 Y71.069 E0.07248 F2120
G1 X107.113 Y70.019 E0.04053 F1291
G1 X108.177 Y70.050 E0.06582 F1637
G1 X107.079 Y69.508 E0.03448 F2211
G1 X111.074 Y71.442 E0.06642 F2003
G1 X111.806 Y71.042 E0.03229 F2055
G1 X113.198 Y72.260 E0.06176 F1978
G1 X110.603 Y72.784 E0.05525 F2242
G1 X113.520 Y70.592 E0.05314 F1953
G1 X114.456 Y70.650 E0.05441 F1587
G1 X114.140 Y74.018 E0.02322 F2150
G1 X117.426 Y73.184 E0.06724 F1834
G1 X116.181 Y72.795 E0.07408 F1338
G1 X118.836 Y76.113 E0.03836 F2172
G1 X118.550 Y74.353 E0.07668 F2246
G1 X117.696 Y73.688 E0.02164 F1479
G1 X119.157 Y74.990 E0.02529 F1294
G1 X120.920 Y76.837 E0.07017 F1901
G1 X121.814 Y76.610 E0.07921 F1684
G1 X120.176 Y77.160 E0.02536 F1979
G1 X120.960 Y80.133 E0.06938 F1505
G1 X123.938 Y78.321 E0.05793 F1590
G1 X125.327 Y79.623 E0.03843 F1849
G1 X124.245 Y79.596 E0.02027 F1380
G1 X125.882 Y80.384 E0.07043 F1337
G1 X126.348 Y81.442 E0.05217 F1558
G1 X127.973 Y84.018 E0.06678 F1993
G1 X128.072 Y83.847 E0.03106 F1824
G1 X126.709 Y86.736 E0.07070 F1771
G1 X126.688 Y87.014 E0.07648 F2326
G1 X129.420 Y86.211 E0.05252 F2237
G1 X127.910 Y89.678 E0.02697 F2284
G1 X129.743 Y88.241 E0.05104 F1581
G1 X130.669 Y89.343 E0.04430 F2270
G1 X130.239 Y90.609 E0.05835 F2368
G1 X129.265 Y89.612 E0.06119 F1562
G1 X128.266 Y91.040 E0.06168 F1914
G1 X130.898 Y94.458 E0.04046 F2234
G1 X131.222 Y95.807 E0.02331 F1868
G1 X129.471 Y93.992 E0.02497 F2067
G1 X131.788 Y97.828 E0.07482 F1619
G1 X132.638 Y97.805 E0.02252 F1667
G1 X132.255 Y96.128 E0.05804 F1793
G1 X131.673 Y97.201 E0.06528 F2380
; LAYER:10
G1 Z2.000 F720 ; move to layer height
G1 X132.156 Y98.560 E0.04772 F1479
M104 S211
M106 S189
G1 X129.896 Y100.221 E0.07125 F1606
G1 X128.971 Y100.670 E0.03625 F2277
G1 X129.415 Y103.515 E0.07199 F2164
G1 X131.230 Y103.411 E0.04057 F1520
G1 X129.104 Y104.350 E0.02500 F2352
G1 X131.115 Y103.853 E0.06654 F1695
G1 X130.293 Y107.078 E0.02411 F1455
G1 X131.860 Y109.193 E0.04406 F2033
G1 X129.873 Y108.769 E0.04610 F2233
G1 X129.100 Y107.923 E0.05407 F1522
G1 X130.610 Y108.569 E0.07441 F2226
G1 X129.795 Y109.838 E0.06801 F1358
G1 X128.136 Y111.634 E0.05439 F2318
G1 X127.243 Y112.954 E0.07791 F1940
G1 X128.140 Y114.630 E0.04073 F1475
G1 X125.762 Y116.095 E0.03502 F2063
G1 X126.575 Y114.184 E0.06983 F1881
G1 X125.064 Y114.741 E0.06356 F2179
G1 X126.567 Y118.666 E0.06287 F1612
G1 X126.556 Y116.978 E0.07707 F1338
G1 X123.458 Y117.557 E0.06945 F2189
G1 X122.891 Y120.822 E0.07742 F1394
G1 X125.063 Y120.006 E0.05296 F2052
G1 X121.598 Y120.511 E0.05573 F1432
G1 X120.682 Y120.455 E0.02624 F2178
G1 X120.190 Y121.070 E0.05606 F1958
G1 X122.453 Y121.963 E0.05350 F1603
G1 X118.027 Y125.293 E0.07846 F2296
G1 X118.694 Y125.645 E0.04285 F2331
G1 X117.468 Y125.233 E0.05902 F1859
G1 X117.331 Y124.640 E0.05648 F1989
G1 X116.169 Y124.444 E0.04322 F1237
G1 X116.671 Y127.616 E0.07354 F1253
G1 X116.850 Y128.621 E0.03716 F1947
G1 X112.519 Y129.449 E0.02824 F2145
G1 X113.486 Y129.867 E0.07448 F2147
G1 X113.091 Y128.797 E0.06818 F1489
G1 X109.561 Y126.975 E0.07006 F2400
G1 X109.711 Y127.326 E0.02672 F1445
G1 X109.375 Y129.334 E0.02379 F1310
G1 X108.617 Y129.842 E0.07483 F1733
G1 X108.624 Y130.996 E0.05281 F1687
G1 X104.944 Y128.686 E0.03470 F2349
G1 X103.957 Y131.772 E0.07267 F1216
G1 X104.919 Y130.361 E0.04011 F1618
G1 X103.922 Y129.854 E0.04832 F1462
G1 X103.807 Y131.316 E0.03786 F2373
G1 X101.270 Y131.826 E0.04725 F1828
G1 X102.857 Y130.631 E0.06913 F1404
G1 X98.294 Y132.101 E0.05658 F1444
M104 S213
G1 X100.321 Y131.148 E0.06617 F2319
G1 X97.174 Y129.165 E0.05886 F1804
G1 X95.729 Y131.931 E0.07124 F2383
G1 X94.187 Y131.976 E0.06559 F2038
G1 X93.592 Y128.710 E0.03106 F1321
G1 X92.783 Y131.502 E0.03041 F2359
G1 X94.934 Y130.155 E0.07142 F2014
G1 X92.697 Y130.783 E0.05180 F1281
G1 X93.331 Y130.032 E0.02176 F1980
G1 X90.112 Y128.816 E0.05187 F1200
G1 X88.750 Y130.483 E0.06496 F1491
G1 X90.356 Y126.985 E0.04065 F1780
G1 X87.474 Y127.867 E0.04163 F1386
G1 X87.435 Y129.711 E0.06862 F1572
G1 X87.701 Y128.329 E0.03978 F1578
G1 X83.398 Y126.170 E0.07127 F2237
G1 X83.337 Y125.342 E0.05657 F1373
G1 X83.036 Y125.345 E0.05965 F2025
G1 X83.051 Y124.604 E0.03273 F1776
G1 X81.874 Y124.412 E0.06051 F1254
G1 X79.657 Y125.762 E0.04787 F2263
G1 X81.461 Y125.462 E0.03608 F2213
G1 X81.466 Y124.034 E0.05913 F1917
G1 X79.754 Y121.319 E0.06063 F1471
G1 X76.150 Y121.009 E0.02332 F2165
M106 S228
G1 X79.208 Y120.501 E0.05304 F2176
G1 X77.209 Y118.956 E0.04578 F2015
G1 X74.987 Y117.837 E0.06324 F1451
G1 X75.747 Y118.906 E0.05545 F2159
G1 X75.231 Y118.004 E0.07470 F1422
G1 X74.542 Y115.617 E0.04420 F1667
G1 X72.185 Y117.741 E0.05858 F2300
G1 X72.441 Y114.232 E0.03417 F1271
G1 X74.037 Y114.183 E0.04796 F1236
G1 X73.733 Y112.690 E0.07620 F1686
G1 X72.622 Y112.748 E0.07419 F2380
G1 X71.710 Y111.516 E0.07133 F2365
G1 X70.643 Y111.740 E0.05634 F1712
G1 X70.566 Y111.150 E0.07394 F2000
G1 X70.542 Y109.188 E0.04692 F1564
G1 X70.728 Y109.540 E0.05866 F1638
G1 X71.270 Y109.190 E0.03593 F1818
G1 X68.680 Y107.684 E0.02600 F2124
G1 X71.345 Y104.586 E0.03545 F1951
G1 X67.533 Y103.505 E0.05747 F1388
G1 X68.800 Y103.592 E0.05879 F1970
G1 X70.460 Y102.607 E0.02955 F1482
G1 X69.744 Y102.490 E0.06524 F1361
G1 X69.824 Y101.102 E0.07221 F1932
G1 X70.723 Y101.197 E0.04726 F1374
M104 S217
G1 X70.815 Y97.557 E0.03936 F2037
G1 X67.997 Y97.328 E0.06682 F1356
G1 X67.493 Y98.666 E0.06122 F1574
G1 X71.018 Y98.011 E0.02892 F2319
G1 X69.109 Y97.067 E0.02036 F1457
G1 X71.465 Y94.432 E0.03669 F1283
G1 X67.778 Y94.148 E0.06912 F2131
G1 X71.293 Y93.140 E0.02347 F1385
G1 X68.877 Y91.348 E0.06745 F1981
G1 X68.549 Y88.492 E0.03300 F1912
G1 X71.408 Y89.936 E0.07435 F1911
G1 X72.397 Y88.960 E0.07357 F1898
G1 X70.200 Y88.740 E0.07409 F2169
G1 X71.135 Y85.770 E0.07797 F1811
G1 X72.924 Y86.732 E0.04002 F1903
G1 X72.548 Y83.329 E0.03174 F1432
G1 X73.231 Y82.802 E0.03746 F1551
G1 X74.580 Y83.780 E0.03955 F1512
G1 X74.249 Y81.638 E0.07340 F2293
G1 X74.901 Y79.785 E0.06815 F2252
G1 X74.694 Y82.625 E0.06532 F1618
G1 X75.881 Y82.063 E0.07364 F1684
G1 X76.899 Y80.167 E0.03081 F1607
G1 X76.900 Y78.939 E0.04145 F2269
G1 X76.083 Y76.971 E0.07413 F1507
G1 X78.058 Y76.119 E0.06061 F1424
G1 X79.911 Y77.846 E0.05608 F1349
G1 X81.737 Y74.441 E0.05108 F1369
G1 X79.577 Y75.193 E0.05130 F1898
G1 X80.514 Y74.496 E0.04612 F1447
G1 X83.241 Y73.017 E0.04834 F2066
G1 X85.289 Y74.115 E0.07466 F2395
G1 X82.865 Y73.438 E0.02172 F1981
G1 X85.957 Y71.874 E0.07428 F2369
G1 X86.050 Y70.635 E0.07323 F1583
G1 X86.344 Y70.948 E0.05450 F1664
G1 X86.236 Y70.157 E0.03457 F2399
G1 X88.800 Y73.001 E0.07806 F1463
G1 X89.910 Y72.518 E0.03352 F1806
G1 X91.834 Y69.813 E0.04056 F1740
G1 X91.057 Y70.021 E0.06646 F2394
G1 X93.432 Y71.330 E0.05192 F2149
G1 X91.338 Y69.003 E0.04077 F1759
G1 X94.876 Y70.101 E0.05360 F2302
G1 X96.272 Y68.496 E0.06562 F1257
G1 X96.082 Y67.305 E0.07071 F2121
G1 X98.318 Y70.363 E0.02841 F1521
G1 X99.819 Y69.776 E0.02341 F1751
G1 X100.841 Y67.785 E0.05231 F1356
G1 X98.563 Y70.922 E0.06123 F1556
M104 S219
M106 S241
G1 X100.448 Y67.357 E0.06811 F1583
G1 X102.432 Y71.017 E0.05262 F2217
G1 X102.679 Y67.585 E0.07614 F2052
G1 X102.357 Y68.728 E0.02470 F1927
G1 X103.280 Y67.783 E0.02061 F2385
G1 X105.105 Y67.662 E0.02851 F1251
G1 X107.858 Y68.011 E0.06543 F1854
G1 X107.122 Y71.178 E0.05675 F1785
G1 X108.294 Y69.085 E0.06194 F2091
G1 X107.682 Y71.227 E0.07983 F1950
G1 X109.705 Y70.813 E0.07001 F1474
G1 X109.759 Y72.056 E0.05334 F1497
G1 X112.441 Y70.090 E0.04570 F1723
G1 X111.482 Y69.954 E0.04956 F1306
G1 X115.883 Y74.306 E0.06293 F2029
G1 X114.330 Y71.679 E0.03175 F1519
G1 X117.241 Y73.692 E0.04428 F2302
G1 X117.092 Y74.037 E0.06017 F1910
G1 X115.762 Y72.775 E0.07779 F2036
G1 X119.039 Y72.927 E0.05375 F1345
G1 X120.544 Y75.898 E0.07113 F2381
G1 X119.781 Y74.463 E0.02690 F2299
G1 X120.897 Y78.304 E0.02212 F1778
G1 X120.478 Y77.484 E0.05255 F1992
G1 X123.298 Y77.404 E0.03087 F2053
G1 X124.290 Y78.186 E0.03587 F2351
G1 X123.962 Y78.268 E0.03650 F1932
G1 X125.553 Y79.666 E0.02645 F1508
G1 X126.148 Y81.487 E0.06241 F1852
G1 X126.166 Y79.903 E0.06644 F1618
G1 X123.796 Y84.538 E0.03399 F2142
G1 X127.293 Y85.002 E0.06056 F1675
G1 X125.689 Y82.295 E0.03364 F2300
G1 X127.506 Y84.168 E0.07284 F2283
G1 X128.861 Y87.487 E0.06836 F2156
G1 X129.524 Y85.727 E0.06838 F1388
G1 X126.462 Y86.346 E0.07455 F2150
G1 X129.078 Y89.582 E0.02604 F1403
G1 X128.346 Y88.321 E0.03472 F1761
G1 X127.600 Y89.111 E0.02216 F1222
G1 X130.469 Y90.132 E0.06149 F1819
G1 X130.729 Y93.138 E0.03673 F1891
G1 X130.170 Y93.373 E0.02450 F1582
G1 X129.159 Y93.260 E0.05786 F2333
G1 X130.810 Y93.708 E0.07277 F2026
G1 X129.718 Y95.563 E0.05098 F1809
G1 X132.093 Y96.677 E0.06661 F1376
G1 X128.975 Y96.184 E0.03822 F1383
G1 X129.897 Y97.272 E0.07092 F1490
; LAYER:11
G1 Z2.200 F720 ; move to layer height
G1 X129.850 Y100.215 E0.04087 F2384
M104 S210
M106 S23
G1 X129.892 Y100.957 E0.06117 F1916
G1 X129.240 Y103.503 E0.05790 F1398
G1 X132.542 Y104.814 E0.03415 F2276
G1 X131.188 Y104.008 E0.03328 F1487
G1 X129.206 Y103.567 E0.06553 F2321
G1 X129.862 Y107.549 E0.05167 F1608
G1 X132.300 Y106.485 E0.02370 F1574
G1 X129.925 Y107.904 E0.03373 F2130
G1 X129.353 Y108.342 E0.02175 F2199
G1 X127.908 Y111.550 E0.04322 F2342
G1 X130.090 Y111.422 E0.04400 F1820
G1 X130.311 Y113.063 E0.02403 F1238
G1 X126.796 Y113.142 E0.07293 F1852
G1 X127.405 Y112.352 E0.05999 F1446
G1 X127.523 Y114.067 E0.07428 F1896
G1 X128.174 Y115.924 E0.04428 F1377
G1 X127.928 Y115.731 E0.05402 F1887
G1 X124.383 Y116.646 E0.04042 F2107
G1 X125.032 Y116.881 E0.06298 F1921
G1 X123.478 Y116.513 E0.07096 F1307
G1 X124.255 Y117.544 E0.07603 F1703
G1 X125.801 Y119.794 E0.04389 F1406
G1 X122.808 Y120.645 E0.06767 F1597
G1 X121.981 Y122.737 E0.06876 F1220
G1 X123.482 Y123.751 E0.04443 F2152
G1 X120.328 Y124.029 E0.07176 F1623
G1 X121.635 Y123.119 E0.05845 F2192
G1 X120.304 Y123.534 E0.07919 F2263
G1 X118.342 Y123.129 E0.07518 F2397
G1 X117.216 Y123.253 E0.04616 F2305
G1 X119.426 Y127.006 E0.03173 F1524
G1 X117.123 Y127.987 E0.04560 F2084
G1 X117.317 Y126.649 E0.07616 F2195
G1 X115.674 Y127.589 E0.07584 F1530
G1 X113.212 Y125.910 E0.07431 F1804
G1 X112.951 Y127.758 E0.06194 F2093
G1 X113.162 Y128.370 E0.04492 F2392
G1 X110.604 Y130.874 E0.07894 F1511
G1 X108.763 Y127.778 E0.05280 F2308
G1 X108.270 Y128.208 E0.03962 F1828
G1 X108.722 Y129.273 E0.04564 F1904
G1 X105.889 Y130.584 E0.03060 F1891
G1 X106.583 Y129.925 E0.06478 F2337
G1 X106.374 Y131.931 E0.02923 F1482
G1 X104.776 Y129.831 E0.02064 F1220
G1 X102.980 Y129.070 E0.05431 F2186
G1 X103.147 Y132.274 E0.05012 F1999
G1 X100.629 Y130.858 E0.07848 F2192
G1 X102.931 Y130.137 E0.02948 F2020
G1 X101.799 Y130.818 E0.06625 F1810
M104 S214
G1 X99.583 Y130.748 E0.04452 F2306
G1 X96.058 Y130.270 E0.03323 F1638
G1 X97.547 Y131.262 E0.03611 F1796
G1 X94.785 Y132.075 E0.03939 F1849
G1 X93.479 Y129.174 E0.06891 F1644
G1 X93.594 Y131.981 E0.04469 F2337
G1 X91.786 Y132.188 E0.04077 F2219
G1 X92.712 Y130.107 E0.04153 F2315
G1 X93.252 Y128.166 E0.05771 F2191
G1 X90.037 Y128.344 E0.02696 F1953
G1 X88.322 Y130.793 E0.02621 F1523
G1 X88.073 Y129.963 E0.07987 F2056
G1 X89.069 Y129.830 E0.04199 F2189
G1 X88.550 Y128.944 E0.02503 F2085
G1 X86.295 Y125.854 E0.06444 F1715
G1 X85.424 Y126.650 E0.02337 F1279
G1 X84.041 Y126.338 E0.06983 F2191
G1 X84.188 Y127.936 E0.05563 F1314
G1 X80.630 Y125.694 E0.02950 F1557
G1 X82.490 Y123.725 E0.04885 F1770
G1 X81.925 Y124.575 E0.05069 F2048
G1 X78.364 Y124.134 E0.05369 F1986
G1 X78.276 Y121.977 E0.07854 F1940
G1 X77.271 Y124.475 E0.07552 F1339
G1 X78.872 Y123.001 E0.02205 F1844
M106 S48
G1 X75.429 Y121.332 E0.05566 F1889
G1 X78.336 Y119.632 E0.02671 F2055
G1 X76.642 Y118.881 E0.07909 F2147
G1 X74.818 Y118.962 E0.07127 F1277
G1 X76.144 Y117.048 E0.02546 F1526
G1 X73.780 Y119.172 E0.07271 F1724
G1 X74.317 Y117.210 E0.03884 F2056
G1 X71.590 Y116.626 E0.07075 F1696
G1 X71.707 Y114.349 E0.06955 F1915
G1 X71.513 Y112.517 E0.03786 F1363
G1 X73.605 Y113.872 E0.07212 F1923
G1 X70.982 Y110.353 E0.03998 F1671
G1 X69.696 Y111.746 E0.06032 F2146
G1 X71.297 Y108.568 E0.04283 F2224
G1 X70.380 Y107.853 E0.02385 F1235
G1 X70.406 Y109.686 E0.03156 F2136
G1 X70.322 Y109.462 E0.04142 F1464
G1 X70.897 Y107.054 E0.03916 F1618
G1 X69.483 Y105.683 E0.07993 F1447
G1 X70.433 Y106.221 E0.04097 F1248
G1 X67.751 Y102.554 E0.05532 F1499
G1 X68.731 Y101.641 E0.03188 F2219
G1 X69.025 Y103.537 E0.05592 F1806
G1 X69.540 Y99.543 E0.03671 F1335
G1 X68.818 Y100.037 E0.02557 F1508
M104 S215
G1 X70.385 Y98.606 E0.05866 F1265
G1 X68.774 Y98.659 E0.03485 F1861
G1 X68.893 Y97.705 E0.07240 F1842
G1 X68.266 Y97.066 E0.05184 F1683
G1 X70.139 Y95.076 E0.05758 F1300
G1 X67.925 Y95.820 E0.03234 F1899
G1 X71.242 Y93.037 E0.04011 F1639
G1 X69.317 Y94.227 E0.03755 F1341
G1 X70.394 Y92.635 E0.06203 F2126
G1 X69.386 Y88.742 E0.04667 F2255
G1 X70.920 Y90.475 E0.04907 F1416
G1 X72.555 Y87.459 E0.06056 F1860
G1 X72.497 Y88.861 E0.02420 F1450
G1 X72.649 Y87.378 E0.06440 F1415
G1 X73.472 Y83.985 E0.06034 F1613
G1 X72.231 Y83.920 E0.05182 F1987
G1 X72.231 Y85.984 E0.05068 F1934
G1 X73.245 Y81.452 E0.03039 F1896
G1 X74.456 Y83.384 E0.07307 F2223
G1 X75.707 Y82.612 E0.03535 F1815
G1 X77.005 Y80.389 E0.06466 F1602
G1 X76.443 Y80.268 E0.05024 F2383
G1 X78.442 Y81.105 E0.04048 F2299
G1 X75.329 Y77.363 E0.05335 F1665
G1 X79.068 Y78.311 E0.05737 F1611
G1 X80.474 Y77.433 E0.05748 F1282
G1 X80.126 Y76.726 E0.04665 F2030
G1 X82.036 Y75.775 E0.06727 F1444
G1 X80.234 Y74.091 E0.02955 F2390
G1 X79.802 Y74.415 E0.06658 F1259
G1 X80.686 Y75.319 E0.02336 F2202
G1 X83.997 Y72.358 E0.04881 F1968
G1 X84.621 Y74.978 E0.03211 F2201
G1 X83.334 Y71.574 E0.05811 F1726
G1 X84.029 Y73.104 E0.06765 F1827
G1 X85.136 Y73.051 E0.03073 F1858
G1 X86.333 Y70.970 E0.03509 F1871
G1 X90.263 Y72.555 E0.05980 F1250
G1 X89.487 Y71.587 E0.06678 F1797
G1 X90.858 Y72.129 E0.05926 F1388
G1 X92.037 Y71.631 E0.02142 F1603
G1 X93.213 Y70.290 E0.05067 F1731
G1 X94.604 Y68.760 E0.02380 F2314
G1 X94.382 Y69.619 E0.07904 F2249
G1 X93.592 Y67.309 E0.04310 F1831
G1 X95.833 Y69.574 E0.07087 F1822
G1 X97.034 Y68.154 E0.05403 F2245
G1 X97.246 Y67.725 E0.04034 F2297
G1 X97.023 Y68.397 E0.04252 F2358
G1 X98.594 Y70.365 E0.07416 F2279
M104 S214
M106 S84
G1 X102.764 Y67.755 E0.03668 F1884
G1 X102.354 Y68.740 E0.03482 F1207
G1 X101.273 Y68.121 E0.02027 F1504
G1 X105.161 Y70.437 E0.06944 F1427
G1 X104.986 Y68.349 E0.04252 F1474
G1 X105.393 Y68.714 E0.02071 F1664
G1 X108.756 Y68.549 E0.07254 F2360
G1 X107.893 Y70.954 E0.07198 F1604
G1 X108.488 Y69.746 E0.04741 F1772
G1 X108.816 Y71.012 E0.07552 F1283
G1 X110.476 Y70.787 E0.06944 F1605
G1 X112.799 Y72.121 E0.03728 F2270
G1 X113.827 Y72.200 E0.06194 F1638
G1 X113.912 Y73.662 E0.07725 F2253
G1 X115.972 Y70.712 E0.05182 F1501
G1 X113.740 Y71.996 E0.02801 F1662
G1 X114.732 Y72.577 E0.07808 F1861
G1 X117.722 Y72.213 E0.04968 F1610
G1 X117.331 Y73.988 E0.06787 F2168
G1 X118.724 Y75.989 E0.03097 F2265
G1 X117.945 Y76.665 E0.04427 F1493
G1 X120.167 Y75.992 E0.06057 F1746
G1 X121.964 Y76.235 E0.05444 F1896
G1 X121.154 Y78.847 E0.05475 F2094
G1 X121.140 Y77.724 E0.06524 F1620
G1 X124.013 Y79.269 E0.05908 F2334
G1 X122.323 Y79.550 E0.07919 F2003
G1 X122.762 Y80.324 E0.02916 F1272
G1 X124.541 Y80.331 E0.03860 F1730
G1 X124.574 Y80.340 E0.06401 F1601
G1 X124.846 Y82.145 E0.05943 F2279
G1 X127.212 Y84.676 E0.03087 F1382
G1 X126.747 Y83.801 E0.06679 F1308
G1 X126.232 Y84.420 E0.07441 F1237
G1 X125.727 Y85.913 E0.07003 F2282
G1 X128.081 Y86.096 E0.03480 F1630
G1 X129.191 Y85.816 E0.02926 F1933
G1 X129.925 Y87.771 E0.06008 F1468
G1 X128.328 Y91.193 E0.07852 F1421
G1 X128.503 Y90.631 E0.02023 F1403
G1 X130.092 Y92.912 E0.03267 F2232
G1 X129.783 Y91.442 E0.07660 F1334
G1 X130.244 Y92.897 E0.04287 F2051
G1 X132.473 Y94.501 E0.05231 F1763
G1 X130.948 Y95.345 E0.04694 F1773
G1 X129.178 Y94.831 E0.02257 F1638
G1 X132.012 Y96.515 E0.06698 F2100
G1 X129.407 Y99.864 E0.05313 F1992
G1 X130.785 Y100.770 E0.04814 F2124
; LAYER:12
G1 Z2.400 F720 ; move to layer height
G1 X131.065 Y99.337 E0.02831 F1901
M104 S210
M106 S70
G1 X129.337 Y102.603 E0.03292 F1526
G1 X130.053 Y102.047 E0.07331 F2012
G1 X132.040 Y102.634 E0.03769 F1707
G1 X130.697 Y101.947 E0.06680 F1650
G1 X129.828 Y105.586 E0.06535 F1630
G1 X129.885 Y105.742 E0.03289 F1759
G1 X130.769 Y108.103 E0.06135 F1248
G1 X129.275 Y109.663 E0.02026 F1304
G1 X128.251 Y107.256 E0.07632 F1655
G1 X129.478 Y109.308 E0.02165 F1667
G1 X127.940 Y111.991 E0.04130 F1673
G1 X128.691 Y110.008 E0.06012 F1352
G1 X128.390 Y113.372 E0.07860 F2292
G1 X126.557 Y114.434 E0.03684 F1376
G1 X127.296 Y112.716 E0.05590 F1422
G1 X125.572 Y114.869 E0.03303 F1633
G1 X128.183 Y117.423 E0.04001 F2324
G1 X128.238 Y118.674 E0.04824 F1326
G1 X126.415 Y115.714 E0.06652 F1405
G1 X127.214 Y118.902 E0.05972 F2293
G1 X125.332 Y117.992 E0.06742 F1569
G1 X123.932 Y118.607 E0.04756 F1457
G1 X122.225 Y120.455 E0.05832 F1229
G1 X124.050 Y121.409 E0.02593 F1603
G1 X123.092 Y120.753 E0.07302 F1516
G1 X120.723 Y121.135 E0.04105 F1994
G1 X119.830 Y123.390 E0.02606 F1799
G1 X121.415 Y122.892 E0.07055 F1731
G1 X120.400 Y122.874 E0.03827 F1694
G1 X119.318 Y123.266 E0.05109 F1879
G1 X116.078 Y124.252 E0.07848 F1389
G1 X118.532 Y126.049 E0.06136 F1961
G1 X116.486 Y125.434 E0.05359 F2037
G1 X115.087 Y128.734 E0.06585 F1477
G1 X114.183 Y127.514 E0.02928 F2346
G1 X112.099 Y129.681 E0.07375 F1345
G1 X114.219 Y127.275 E0.03797 F1822
G1 X112.825 Y130.604 E0.02092 F1960
G1 X108.692 Y130.442 E0.02490 F1645
G1 X108.939 Y128.763 E0.06952 F1277
G1 X108.170 Y131.861 E0.07656 F1883
G1 X109.240 Y131.454 E0.05264 F2065
G1 X107.450 Y130.133 E0.06065 F1899
G1 X105.627 Y132.081 E0.02235 F1474
G1 X103.913 Y132.262 E0.02009 F1519
G1 X102.755 Y132.201 E0.03162 F1884
G1 X103.443 Y129.917 E0.07251 F1594
G1 X100.972 Y131.807 E0.04390 F1703
G1 X99.622 Y131.381 E0.02412 F1481
G1 X98.508 Y129.386 E0.02986 F1809
M104 S219
G1 X97.100 Y132.755 E0.02454 F2359
G1 X97.556 Y132.258 E0.03404 F1629
G1 X98.223 Y132.049 E0.04998 F1867
G1 X97.844 Y131.851 E0.03532 F1423
G1 X96.728 Y130.454 E0.06221 F2133
G1 X93.719 Y131.134 E0.06203 F1667
G1 X94.997 Y131.629 E0.04786 F1589
G1 X91.297 Y132.177 E0.04750 F1494
G1 X91.536 Y128.734 E0.02278 F1210
G1 X90.701 Y131.590 E0.02418 F2292
G1 X89.910 Y128.104 E0.05031 F1708
G1 X87.526 Y130.787 E0.02881 F2161
G1 X89.403 Y129.813 E0.02120 F1821
G1 X87.333 Y129.821 E0.04624 F1799
G1 X86.299 Y128.200 E0.06837 F2179
G1 X83.168 Y127.430 E0.06910 F1806
G1 X82.731 Y126.734 E0.02459 F2143
G1 X81.931 Y124.388 E0.07255 F1791
G1 X81.909 Y127.023 E0.07377 F1502
G1 X81.301 Y126.159 E0.03224 F1298
G1 X79.014 Y125.404 E0.05016 F2154
G1 X81.888 Y124.865 E0.04213 F1577
G1 X78.727 Y122.135 E0.04141 F1560
G1 X79.562 Y122.557 E0.04466 F1868
G1 X79.687 Y122.537 E0.05131 F1896
M106 S248
G1 X79.220 Y122.454 E0.03491 F1647
G1 X77.628 Y118.718 E0.07528 F1213
G1 X77.781 Y118.483 E0.06016 F2305
G1 X74.393 Y117.865 E0.03241 F2139
G1 X74.795 Y119.830 E0.06888 F1922
G1 X74.989 Y118.423 E0.02668 F1218
G1 X73.519 Y118.047 E0.05732 F1644
G1 X74.795 Y115.525 E0.05647 F1747
G1 X71.921 Y116.647 E0.07062 F1812
G1 X73.491 Y114.130 E0.07650 F1221
G1 X72.601 Y113.990 E0.02531 F1755
G1 X70.328 Y113.776 E0.03320 F2160
G1 X70.863 Y112.430 E0.04420 F1677
G1 X69.908 Y111.684 E0.04338 F1380
G1 X72.154 Y110.770 E0.07576 F1431
G1 X69.784 Y108.058 E0.06291 F2002
G1 X68.336 Y106.127 E0.07802 F2333
G1 X71.276 Y106.738 E0.04148 F1428
G1 X68.509 Y107.828 E0.05884 F1954
G1 X69.138 Y103.490 E0.03941 F2342
G1 X69.678 Y105.718 E0.02375 F1379
G1 X67.784 Y104.926 E0.05359 F1736
G1 X67.487 Y102.989 E0.05203 F1915
G1 X69.148 Y101.164 E0.06428 F1623
G1 X67.765 Y99.297 E0.05418 F2060
M104 S220
G1 X69.932 Y100.546 E0.02170 F2065
G1 X67.780 Y99.818 E0.03776 F2315
G1 X70.125 Y97.636 E0.03755 F2138
G1 X70.383 Y97.417 E0.06288 F2285
G1 X69.565 Y94.568 E0.02062 F1230
G1 X71.151 Y92.954 E0.07455 F1710
G1 X70.742 Y92.996 E0.03614 F1713
G1 X68.466 Y93.566 E0.03474 F1325
G1 X71.866 Y91.814 E0.02385 F1850
G1 X70.208 Y89.740 E0.07433 F2331
G1 X71.777 Y90.154 E0.06157 F1967
G1 X69.112 Y87.091 E0.03543 F1639
G1 X70.236 Y89.399 E0.03173 F1894
G1 X70.495 Y87.044 E0.02469 F2276
G1 X72.648 Y86.765 E0.06235 F1581
G1 X71.143 Y84.251 E0.02494 F1630
G1 X73.645 Y82.220 E0.02609 F2293
G1 X73.035 Y82.519 E0.04905 F2341
G1 X75.923 Y83.786 E0.05497 F1657
G1 X73.900 Y81.051 E0.07150 F1962
G1 X75.810 Y80.645 E0.06519 F2319
G1 X75.877 Y81.963 E0.04413 F2361
G1 X75.897 Y77.399 E0.03652 F1811
G1 X77.883 Y80.018 E0.04874 F2392
G1 X77.429 Y76.443 E0.04594 F1821
G1 X80.452 Y79.114 E0.05947 F1807
G1 X78.038 Y77.815 E0.06858 F1666
G1 X78.160 Y77.432 E0.05416 F1868
G1 X78.934 Y74.353 E0.07274 F1525
G1 X82.381 Y76.298 E0.02655 F1590
G1 X82.626 Y73.905 E0.02492 F2190
G1 X82.840 Y72.797 E0.03246 F2069
G1 X82.917 Y71.694 E0.05806 F1829
G1 X85.694 Y73.310 E0.04406 F2169
G1 X87.301 Y73.908 E0.07781 F2248
G1 X84.968 Y72.398 E0.05625 F1451
G1 X87.108 Y72.642 E0.04428 F1892
G1 X89.248 Y69.707 E0.07793 F2271
G1 X88.367 Y69.355 E0.02372 F1227
G1 X89.207 Y70.251 E0.05444 F1673
G1 X89.565 Y69.846 E0.02168 F1566
G1 X92.329 Y69.590 E0.04587 F1823
G1 X94.845 Y70.703 E0.05721 F1732
G1 X92.221 Y69.832 E0.07980 F1587
G1 X94.519 Y70.878 E0.06033 F2056
G1 X96.906 Y69.913 E0.05177 F2010
G1 X95.586 Y70.001 E0.07620 F1285
G1 X96.966 Y70.514 E0.04196 F1203
G1 X97.410 Y67.044 E0.03641 F1836
G1 X100.355 Y68.710 E0.06688 F1815
M104 S215
M106 S47
G1 X98.999 Y66.854 E0.07100 F1405
G1 X101.075 Y68.821 E0.03461 F1667
G1 X102.161 Y68.812 E0.05532 F2395
G1 X102.286 Y69.096 E0.06350 F1327
G1 X104.972 Y68.516 E0.03211 F2348
G1 X104.368 Y70.916 E0.03960 F1476
G1 X105.458 Y69.068 E0.03779 F2186
G1 X106.007 Y69.250 E0.03447 F1679
G1 X108.843 Y71.795 E0.04185 F1269
G1 X111.629 Y70.818 E0.07372 F1213
G1 X110.326 Y69.855 E0.04570 F2311
G1 X110.600 Y72.128 E0.03490 F2164
G1 X110.711 Y73.194 E0.02973 F2288
G1 X113.314 Y71.510 E0.07092 F1432
G1 X116.072 Y73.392 E0.02518 F2337
G1 X115.422 Y73.580 E0.07928 F2173
G1 X114.243 Y71.877 E0.07357 F1959
G1 X115.063 Y72.124 E0.02719 F2290
G1 X119.024 Y75.949 E0.04538 F1446
G1 X118.764 Y74.010 E0.07468 F1389
G1 X119.643 Y76.436 E0.05035 F2304
G1 X118.160 Y74.051 E0.04820 F1460
G1 X120.024 Y77.869 E0.07485 F1447
G1 X123.244 Y75.789 E0.05912 F2149
G1 X124.023 Y77.126 E0.03546 F2203
G1 X123.362 Y78.486 E0.07849 F1635
G1 X123.479 Y80.007 E0.06968 F1714
G1 X122.750 Y79.471 E0.03881 F2218
G1 X124.120 Y80.055 E0.04249 F2028
G1 X127.103 Y82.993 E0.05167 F1504
G1 X124.073 Y81.490 E0.07866 F2276
G1 X127.313 Y82.492 E0.06570 F2036
G1 X127.976 Y83.601 E0.05134 F1416
G1 X125.419 Y86.011 E0.02874 F1346
G1 X126.990 Y85.942 E0.05944 F1802
G1 X129.494 Y88.627 E0.07040 F1639
G1 X129.013 Y89.535 E0.04277 F1809
G1 X130.432 Y89.969 E0.03078 F1512
G1 X127.966 Y87.922 E0.04829 F1509
G1 X128.306 Y88.480 E0.07617 F1502
G1 X131.085 Y92.789 E0.03802 F1661
G1 X129.072 Y93.669 E0.07871 F2022
G1 X129.454 Y93.451 E0.04900 F1311
G1 X130.553 Y93.951 E0.03131 F1483
G1 X131.746 Y93.393 E0.02956 F1822
G1 X130.768 Y97.279 E0.04157 F2240
G1 X129.083 Y95.980 E0.06622 F1928
G1 X130.959 Y97.044 E0.03984 F1214
G1 X131.581 Y100.332 E0.02448 F1681
; LAYER:13
G1 Z2.600 F720 ; move to layer height
G1 X130.041 Y98.424 E0.07938 F1851
M104 S213
M106 S49
G1 X131.248 Y100.733 E0.03043 F2262
G1 X129.365 Y101.875 E0.07725 F1439
G1 X132.087 Y101.844 E0.07160 F2231
G1 X132.822 Y103.795 E0.05283 F2091
G1 X130.141 Y104.163 E0.03652 F1589
G1 X129.171 Y105.472 E0.03232 F1623
G1 X130.668 Y105.882 E0.02448 F1583
G1 X131.978 Y107.333 E0.05684 F2330
G1 X129.490 Y109.225 E0.04930 F1466
G1 X128.729 Y108.840 E0.02128 F1795
G1 X129.102 Y110.142 E0.03032 F2059
G1 X128.821 Y113.473 E0.06534 F2056
G1 X127.316 Y110.964 E0.03650 F2028
G1 X127.406 Y113.423 E0.04373 F1788
G1 X126.809 Y114.639 E0.05359 F1946
G1 X127.821 Y115.866 E0.07691 F1218
G1 X126.464 Y114.189 E0.05013 F1227
G1 X127.973 Y115.163 E0.03957 F1404
G1 X126.248 Y116.386 E0.06563 F2041
G1 X124.424 Y118.281 E0.06157 F1676
G1 X124.547 Y118.612 E0.05089 F2121
G1 X123.685 Y120.114 E0.05491 F1986
G1 X125.400 Y122.396 E0.07622 F1799
G1 X124.196 Y121.955 E0.06612 F2074
G1 X121.790 Y120.146 E0.07983 F1919
G1 X121.360 Y120.959 E0.03433 F1947
G1 X118.760 Y124.627 E0.06612 F1616
G1 X120.770 Y124.988 E0.06333 F1507
G1 X117.480 Y125.855 E0.06829 F1276
G1 X120.368 Y125.933 E0.02921 F1681
G1 X117.220 Y124.104 E0.07312 F1527
G1 X118.113 Y126.395 E0.07056 F1287
G1 X115.869 Y126.576 E0.04570 F1217
G1 X114.780 Y127.034 E0.05856 F2362
G1 X114.227 Y129.875 E0.07238 F2220
G1 X115.170 Y128.279 E0.03419 F1550
G1 X113.510 Y130.371 E0.03701 F2278
G1 X110.751 Y127.383 E0.02915 F1941
G1 X111.457 Y129.907 E0.04154 F2256
G1 X111.409 Y129.262 E0.07117 F2371
G1 X110.263 Y131.531 E0.05209 F1961
G1 X106.871 Y128.957 E0.02232 F2082
G1 X105.094 Y131.871 E0.03626 F1645
G1 X107.504 Y131.435 E0.05223 F2298
G1 X104.737 Y128.919 E0.06852 F2161
G1 X104.995 Y132.146 E0.04793 F1299
G1 X101.763 Y132.652 E0.07194 F1824
G1 X101.551 Y129.523 E0.02213 F1890
G1 X99.904 Y130.651 E0.02948 F2137
G1 X101.460 Y132.459 E0.03662 F1332
M104 S211
G1 X98.447 Y131.526 E0.06331 F1961
G1 X98.665 Y131.340 E0.02571 F1678
G1 X97.992 Y131.503 E0.03488 F2161
G1 X95.032 Y131.300 E0.07633 F1426
G1 X95.674 Y129.320 E0.06432 F1963
G1 X92.240 Y132.616 E0.04747 F1779
G1 X94.924 Y131.748 E0.03810 F1439
G1 X92.859 Y132.300 E0.07796 F2085
G1 X90.890 Y131.231 E0.05817 F2152
G1 X91.738 Y130.138 E0.04016 F2207
G1 X87.685 Y127.996 E0.04300 F1425
G1 X86.848 Y127.907 E0.02844 F2221
G1 X89.129 Y129.082 E0.07549 F1803
G1 X84.840 Y126.874 E0.07534 F1487
G1 X86.689 Y129.470 E0.02956 F1225
G1 X84.988 Y126.845 E0.03915 F1910
G1 X85.179 Y125.764 E0.04668 F2372
G1 X83.410 Y126.691 E0.03434 F2153
G1 X82.960 Y127.518 E0.07824 F1216
G1 X80.812 Y125.451 E0.05848 F2266
G1 X82.767 Y124.983 E0.06432 F1241
G1 X79.612 Y122.591 E0.03620 F1851
G1 X79.417 Y123.119 E0.05861 F2062
G1 X77.179 Y123.399 E0.06427 F2312
G1 X75.907 Y120.477 E0.07577 F2047
M106 S60
G1 X78.070 Y121.403 E0.05489 F1482
G1 X76.144 Y121.853 E0.03869 F1215
G1 X75.565 Y121.463 E0.05147 F2329
G1 X76.290 Y121.094 E0.06873 F2335
G1 X74.575 Y119.790 E0.06195 F1571
G1 X73.478 Y118.424 E0.04862 F2046
G1 X74.193 Y116.435 E0.04321 F1611
G1 X75.057 Y114.359 E0.07287 F1867
G1 X71.840 Y114.014 E0.07633 F1788
G1 X70.328 Y113.224 E0.02986 F2178
G1 X69.953 Y112.134 E0.07347 F2221
G1 X72.785 Y112.717 E0.07089 F2363
G1 X72.147 Y110.222 E0.04160 F1610
G1 X68.582 Y110.811 E0.04489 F2293
G1 X70.975 Y111.476 E0.04594 F1754
G1 X68.990 Y106.817 E0.05040 F1700
G1 X68.293 Y107.224 E0.05327 F1434
G1 X69.943 Y108.603 E0.03353 F2280
G1 X70.835 Y106.590 E0.03850 F2279
G1 X70.160 Y103.846 E0.03477 F2354
G1 X68.872 Y104.258 E0.07721 F1560
G1 X66.927 Y103.187 E0.07572 F1678
G1 X68.889 Y101.749 E0.06107 F1240
G1 X69.663 Y100.138 E0.02240 F2120
G1 X67.382 Y98.421 E0.02397 F1204
M104 S217
G1 X70.687 Y100.860 E0.04553 F1983
G1 X68.682 Y98.746 E0.02614 F2161
G1 X70.151 Y98.464 E0.03970 F1562
G1 X67.332 Y95.175 E0.06310 F1281
G1 X70.078 Y96.521 E0.04744 F1835
G1 X68.122 Y92.593 E0.02756 F1550
G1 X67.621 Y94.096 E0.05458 F1795
G1 X68.871 Y93.740 E0.04231 F2049
G1 X69.171 Y89.397 E0.04783 F1791
G1 X71.908 Y89.155 E0.05346 F1212
G1 X69.939 Y90.774 E0.03016 F1758
G1 X71.013 Y89.429 E0.04316 F2365
G1 X70.068 Y89.270 E0.03162 F1364
G1 X71.198 Y86.474 E0.07678 F2325
G1 X73.801 Y84.817 E0.04009 F2249
G1 X71.789 Y85.247 E0.03487 F1565
G1 X72.486 Y82.421 E0.03895 F1475
G1 X73.303 Y84.506 E0.02066 F2148
G1 X74.481 Y84.063 E0.07292 F1519
G1 X75.839 Y79.900 E0.04836 F1681
G1 X76.367 Y81.674 E0.02772 F1565
G1 X75.826 Y78.147 E0.04931 F2057
G1 X74.675 Y78.117 E0.05008 F2306
G1 X78.676 Y78.352 E0.02273 F2304
G1 X76.364 Y78.568 E0.02292 F2233
G1 X78.678 Y78.656 E0.03899 F1736
G1 X79.826 Y74.889 E0.04508 F1252
G1 X79.322 Y74.087 E0.03261 F1585
G1 X80.669 Y75.196 E0.02171 F2379
G1 X82.242 Y72.686 E0.06563 F1678
G1 X83.213 Y74.019 E0.05470 F1597
G1 X84.524 Y71.689 E0.04208 F1715
G1 X84.821 Y71.139 E0.07501 F2323
G1 X84.775 Y71.326 E0.05526 F2260
G1 X85.886 Y70.563 E0.06737 F1475
G1 X86.234 Y73.363 E0.07140 F2290
G1 X89.068 Y71.080 E0.02409 F2114
G1 X88.505 Y72.055 E0.04689 F1587
G1 X89.692 Y69.320 E0.04421 F1655
G1 X89.776 Y70.170 E0.04790 F1848
G1 X92.300 Y70.237 E0.04535 F2152
G1 X91.052 Y69.995 E0.02648 F1517
G1 X93.323 Y67.574 E0.03900 F1827
G1 X95.386 Y69.510 E0.06522 F1737
G1 X94.991 Y69.055 E0.07994 F2248
G1 X96.043 Y69.606 E0.05594 F1869
G1 X96.790 Y66.963 E0.03182 F1387
G1 X96.295 Y67.590 E0.07362 F2074
G1 X99.722 Y67.174 E0.03523 F1806
G1 X101.942 Y66.954 E0.07410 F1282
M104 S212
M106 S77
G1 X99.331 Y69.313 E0.02674 F2048
G1 X101.902 Y67.748 E0.06997 F1740
G1 X102.139 Y69.065 E0.04311 F2364
G1 X104.490 Y69.193 E0.04723 F2125
G1 X104.948 Y68.313 E0.06103 F2145
G1 X105.922 Y68.408 E0.04122 F2387
G1 X106.008 Y71.199 E0.03280 F1859
G1 X108.371 Y68.054 E0.03089 F1400
G1 X107.424 Y70.173 E0.05300 F1314
G1 X111.047 Y70.199 E0.06614 F1558
G1 X108.690 Y68.784 E0.05160 F2300
G1 X110.787 Y72.782 E0.03312 F1569
G1 X112.232 Y72.947 E0.07979 F1698
G1 X114.063 Y71.375 E0.07629 F2124
G1 X114.562 Y71.342 E0.07023 F1895
G1 X115.851 Y72.876 E0.07836 F1797
G1 X114.651 Y72.760 E0.04137 F1228
G1 X118.390 Y73.277 E0.02461 F1525
G1 X116.826 Y75.400 E0.03016 F1609
G1 X117.862 Y75.363 E0.04814 F1743
G1 X119.495 Y76.408 E0.07788 F2373
G1 X120.351 Y75.267 E0.06430 F1519
G1 X121.589 Y78.365 E0.04109 F1498
G1 X122.233 Y77.650 E0.07964 F1612
G1 X120.236 Y78.490 E0.05963 F1323
G1 X122.998 Y77.189 E0.03121 F1336
G1 X121.774 Y77.866 E0.07882 F1542
G1 X122.708 Y78.750 E0.05275 F1578
G1 X126.393 Y79.237 E0.04460 F2284
G1 X125.844 Y80.696 E0.02847 F2391
G1 X125.054 Y80.497 E0.07405 F2044
G1 X125.931 Y84.311 E0.03995 F1936
G1 X125.765 Y85.012 E0.03747 F1489
G1 X128.134 Y84.422 E0.05908 F1868
G1 X128.400 Y87.259 E0.05838 F1306
G1 X128.966 Y87.326 E0.02782 F1717
G1 X127.470 Y87.984 E0.03069 F2147
G1 X127.365 Y87.498 E0.03835 F1425
G1 X128.646 Y88.121 E0.02127 F1915
G1 X130.023 Y91.516 E0.03638 F1629
G1 X129.781 Y93.013 E0.05042 F1982
G1 X130.533 Y93.832 E0.07697 F1527
G1 X130.481 Y93.672 E0.03431 F1794
