; Generated test file for benchmarking
; Simulates a typical 3D print with 200 layers
; PrusaSlicer compatible
;
M115 U3.9.0 ; tell printer latest fw version
M83  ; extruder relative mode
M104 S215 ; set extruder temp
M140 S60 ; set bed temp
M190 S60 ; wait for bed temp
M109 S215 ; wait for extruder temp
G28 W ; home all without mesh bed level
G80 ; mesh bed leveling
G1 Y-3.0 F1000.0 ; go outside print area
G92 E0.0 ; reset extrusion distance
G1 X60.0 E9.0 F1000.0 ; intro line
G1 X100.0 E12.5 F1000.0 ; intro line
G92 E0.0 ; reset extrusion distance

; LAYER:0
G1 Z0.000 F720 ; move to layer height
G1 X130.115 Y101.506 E0.04975 F1636
M104 S210
M106 S230
G1 X130.654 Y101.456 E0.05173 F1653
G1 X131.935 Y100.032 E0.03637 F2035
G1 X128.977 Y102.278 E0.07014 F1359
G1 X130.208 Y103.182 E0.03204 F1966
G1 X129.150 Y102.440 E0.06875 F2352
G1 X128.278 Y104.830 E0.04928 F2146
G1 X128.653 Y104.539 E0.07167 F1326
G1 X130.348 Y104.936 E0.07391 F2280
G1 X130.543 Y104.961 E0.07163 F1968
G1 X127.888 Y105.959 E0.04924 F2373
G1 X129.865 Y108.799 E0.06063 F1485
G1 X126.924 Y109.195 E0.06898 F2216
G1 X127.472 Y107.728 E0.04899 F1233
G1 X127.740 Y109.905 E0.04033 F1400
G1 X129.085 Y110.343 E0.02766 F1722
G1 X125.905 Y113.066 E0.07355 F1333
G1 X125.591 Y113.000 E0.06127 F1762
G1 X128.875 Y111.874 E0.03808 F1580
G1 X124.870 Y114.603 E0.03560 F2179
G1 X126.060 Y114.584 E0.02222 F1663
G1 X125.963 Y116.671 E0.04147 F1882
G1 X123.759 Y115.460 E0.06551 F1569
G1 X127.106 Y117.216 E0.03640 F2354
G1 X126.344 Y118.138 E0.04504 F1419
G1 X123.792 Y117.338 E0.06618 F1340
G1 X121.941 Y117.241 E0.06573 F1605
G1 X121.812 Y120.443 E0.02554 F1222
G1 X122.783 Y118.008 E0.05444 F1480
G1 X121.122 Y121.665 E0.04909 F2060
G1 X122.458 Y120.906 E0.03737 F1622
G1 X121.032 Y121.996 E0.06443 F1746
G1 X122.064 Y122.261 E0.05592 F2072
G1 X122.185 Y122.815 E0.06796 F2050
G1 X119.435 Y121.342 E0.03494 F1884
G1 X118.990 Y124.686 E0.02824 F1703
G1 X118.681 Y122.086 E0.02552 F1411
G1 X119.720 Y122.898 E0.02098 F2274
G1 X116.945 Y124.284 E0.05513 F1557
G1 X117.021 Y125.957 E0.02594 F1959
G1 X117.671 Y125.557 E0.06929 F1816
G1 X116.928 Y123.766 E0.02110 F2212
G1 X113.425 Y124.368 E0.05179 F1443
G1 X115.401 Y126.209 E0.04483 F2368
G1 X113.509 Y126.642 E0.03092 F2095
G1 X113.388 Y127.570 E0.06064 F1635
G1 X113.505 Y127.593 E0.06686 F1384
G1 X112.758 Y127.843 E0.02543 F1995
G1 X112.269 Y127.511 E0.05885 F2230
G1 X111.027 Y128.170 E0.03574 F1978
G1 X109.544 Y130.457 E0.07117 F1775
M104 S220
G1 X108.902 Y128.633 E0.06649 F1226
G1 X106.763 Y129.826 E0.02266 F1525
G1 X106.171 Y129.239 E0.02264 F1570
G1 X105.696 Y129.203 E0.03108 F1394
G1 X107.123 Y129.657 E0.03610 F2196
G1 X104.164 Y130.115 E0.04491 F1497
G1 X102.843 Y129.474 E0.03116 F1548
G1 X102.939 Y130.203 E0.04978 F2173
G1 X102.727 Y129.429 E0.04643 F2201
G1 X102.337 Y131.738 E0.04393 F2369
G1 X102.099 Y130.129 E0.05726 F2309
G1 X100.517 Y128.847 E0.02530 F1386
G1 X101.086 Y131.501 E0.07714 F1784
G1 X98.752 Y130.348 E0.07387 F1224
G1 X99.133 Y128.909 E0.06079 F1358
G1 X97.467 Y128.085 E0.07888 F2112
G1 X95.580 Y129.609 E0.03722 F1819
G1 X94.139 Y129.199 E0.03480 F1398
G1 X96.501 Y127.913 E0.06595 F1635
G1 X96.081 Y128.958 E0.03601 F2294
G1 X92.461 Y128.426 E0.02928 F1620
G1 X94.581 Y128.278 E0.05345 F1727
G1 X92.723 Y129.138 E0.02823 F2364
G1 X91.173 Y127.952 E0.05755 F1210
G1 X91.377 Y126.680 E0.06749 F1979
M106 S213
G1 X92.007 Y127.143 E0.07807 F1487
G1 X90.597 Y128.207 E0.06762 F1841
G1 X89.074 Y127.723 E0.04988 F1804
G1 X89.734 Y126.833 E0.07742 F1397
G1 X86.803 Y126.108 E0.05094 F2340
G1 X85.585 Y125.859 E0.04414 F2313
G1 X85.317 Y128.157 E0.04631 F1328
G1 X85.095 Y126.065 E0.07802 F1917
G1 X83.643 Y123.746 E0.06911 F1735
G1 X83.068 Y124.601 E0.07429 F1251
G1 X82.615 Y125.348 E0.05386 F1526
G1 X81.743 Y123.101 E0.03389 F1257
G1 X80.140 Y125.960 E0.02616 F1799
G1 X80.887 Y121.812 E0.03424 F1544
G1 X82.717 Y124.349 E0.07954 F1281
G1 X79.008 Y123.474 E0.07628 F2031
G1 X79.069 Y121.752 E0.04154 F2206
G1 X80.492 Y122.925 E0.05512 F2306
G1 X78.198 Y120.477 E0.05511 F1726
G1 X79.556 Y118.678 E0.03118 F1637
G1 X75.953 Y120.603 E0.06302 F1667
G1 X78.481 Y118.357 E0.07740 F1771
G1 X75.207 Y117.601 E0.04724 F1788
G1 X76.766 Y119.137 E0.02763 F1325
G1 X73.761 Y116.199 E0.06306 F1724
M104 S214
G1 X74.436 Y115.069 E0.03220 F1341
G1 X74.301 Y116.375 E0.04843 F1867
G1 X73.350 Y114.465 E0.03383 F1405
G1 X73.533 Y114.145 E0.03188 F2190
G1 X73.236 Y116.289 E0.06773 F1517
G1 X74.101 Y115.781 E0.04716 F2301
G1 X73.630 Y113.356 E0.03290 F2265
G1 X73.019 Y110.652 E0.02550 F2000
G1 X71.631 Y111.610 E0.02091 F1894
G1 X71.627 Y110.535 E0.04858 F2047
G1 X72.735 Y111.650 E0.06910 F2135
G1 X70.132 Y110.760 E0.07231 F2076
G1 X72.505 Y107.514 E0.05729 F1954
G1 X70.973 Y108.331 E0.04106 F1921
G1 X70.485 Y108.339 E0.03945 F2198
G1 X70.358 Y106.476 E0.02277 F1889
G1 X71.002 Y105.020 E0.02638 F1769
G1 X68.492 Y103.570 E0.04638 F1762
G1 X69.351 Y105.138 E0.06134 F1335
G1 X68.268 Y105.601 E0.06218 F1932
G1 X69.148 Y102.595 E0.03452 F1660
G1 X69.068 Y102.515 E0.02907 F1390
G1 X70.697 Y102.163 E0.02269 F1750
G1 X69.959 Y99.124 E0.04102 F1686
G1 X71.276 Y100.033 E0.05192 F1865
G1 X69.415 Y97.989 E0.02894 F1866
G1 X71.558 Y96.776 E0.05659 F1423
G1 X71.177 Y98.121 E0.02814 F1236
G1 X70.385 Y97.517 E0.06831 F2272
G1 X69.048 Y95.941 E0.02406 F1694
G1 X71.606 Y95.004 E0.04767 F2101
G1 X70.387 Y94.809 E0.07070 F2123
G1 X70.391 Y95.909 E0.03011 F1928
G1 X70.519 Y92.512 E0.03321 F1520
G1 X70.171 Y92.925 E0.05048 F1423
G1 X70.509 Y93.010 E0.04701 F2190
G1 X72.905 Y89.239 E0.06529 F1830
G1 X70.317 Y90.292 E0.02290 F1517
G1 X72.927 Y88.999 E0.06454 F1803
G1 X70.283 Y88.253 E0.07310 F1337
G1 X70.811 Y87.933 E0.04036 F1375
G1 X71.719 Y88.126 E0.07228 F2222
G1 X72.112 Y85.927 E0.02040 F1720
G1 X74.896 Y85.101 E0.06724 F1205
G1 X75.370 Y84.301 E0.03633 F1231
G1 X75.079 Y86.522 E0.03681 F1798
G1 X75.526 Y83.926 E0.05522 F2004
G1 X73.066 Y84.716 E0.02434 F1953
G1 X76.091 Y82.643 E0.05997 F2142
G1 X76.703 Y81.124 E0.06485 F1392
M104 S216
M106 S109
G1 X77.299 Y81.154 E0.03324 F1838
G1 X74.721 Y81.115 E0.03137 F1960
G1 X75.477 Y82.503 E0.04236 F1884
G1 X79.621 Y78.262 E0.06755 F2109
G1 X76.400 Y78.928 E0.02781 F1563
G1 X78.238 Y79.430 E0.05477 F1573
G1 X77.635 Y76.575 E0.06001 F2075
G1 X78.302 Y78.059 E0.07932 F1660
G1 X81.821 Y79.104 E0.02768 F2100
G1 X79.225 Y75.922 E0.06303 F1258
G1 X82.951 Y75.053 E0.06256 F2276
G1 X80.854 Y75.588 E0.04194 F1909
G1 X82.380 Y74.257 E0.05548 F1899
G1 X84.915 Y73.612 E0.06537 F1978
G1 X82.962 Y75.709 E0.02993 F1679
G1 X85.984 Y74.946 E0.06813 F1741
G1 X84.559 Y74.146 E0.07825 F1526
G1 X86.608 Y73.524 E0.02689 F1994
G1 X85.084 Y74.248 E0.05874 F1672
G1 X85.874 Y72.732 E0.04107 F2143
G1 X89.627 Y72.223 E0.03562 F1667
G1 X86.788 Y70.985 E0.06283 F2011
G1 X90.353 Y73.238 E0.05325 F2267
G1 X88.947 Y70.115 E0.02863 F1692
G1 X91.431 Y70.449 E0.07562 F1818
G1 X93.346 Y73.033 E0.03093 F2109
G1 X94.170 Y72.710 E0.02786 F1373
G1 X92.341 Y72.203 E0.02843 F1380
G1 X94.368 Y70.988 E0.07678 F2328
G1 X92.725 Y72.500 E0.02142 F1319
G1 X94.835 Y69.168 E0.06346 F1983
G1 X94.013 Y68.873 E0.07034 F2263
G1 X97.656 Y69.419 E0.06777 F2324
G1 X98.319 Y70.260 E0.03379 F2044
G1 X97.400 Y68.243 E0.06291 F2012
G1 X97.562 Y70.153 E0.02497 F1520
G1 X99.009 Y71.496 E0.05516 F2299
G1 X100.464 Y70.488 E0.05393 F1778
G1 X100.397 Y70.747 E0.07872 F1621
G1 X100.113 Y70.524 E0.04070 F1779
G1 X102.311 Y69.071 E0.02626 F2275
G1 X102.439 Y68.595 E0.06057 F2066
G1 X104.591 Y68.402 E0.03645 F2332
G1 X104.521 Y69.343 E0.04722 F2107
G1 X106.891 Y70.599 E0.07482 F2189
G1 X106.586 Y71.692 E0.07878 F2324
G1 X108.143 Y69.436 E0.07802 F2089
G1 X106.679 Y72.058 E0.07836 F1949
G1 X108.689 Y73.154 E0.03490 F1256
G1 X109.322 Y70.321 E0.06770 F1445
M104 S216
G1 X111.246 Y71.353 E0.04392 F1972
G1 X111.401 Y72.329 E0.02628 F2212
G1 X111.744 Y72.481 E0.02510 F2355
G1 X113.378 Y71.484 E0.05646 F1695
G1 X112.149 Y72.388 E0.02731 F2093
G1 X113.234 Y72.882 E0.02738 F1223
G1 X113.646 Y72.145 E0.04622 F1806
G1 X113.111 Y75.040 E0.05854 F1484
G1 X116.026 Y74.930 E0.04591 F1996
G1 X117.186 Y75.218 E0.07748 F1700
G1 X115.955 Y73.995 E0.02178 F1469
G1 X117.020 Y76.636 E0.07776 F1312
G1 X116.553 Y75.993 E0.06902 F1236
G1 X117.111 Y75.530 E0.04993 F1617
G1 X120.425 Y77.513 E0.05941 F1290
G1 X120.642 Y77.215 E0.03391 F1815
G1 X119.285 Y77.251 E0.05995 F1392
G1 X119.664 Y78.494 E0.05102 F1203
G1 X119.530 Y78.852 E0.07711 F1931
G1 X121.673 Y79.071 E0.07195 F1380
G1 X122.693 Y78.072 E0.06048 F1477
G1 X121.711 Y80.352 E0.07551 F2273
G1 X125.238 Y80.979 E0.03027 F1660
G1 X123.278 Y81.726 E0.05491 F2246
G1 X122.458 Y81.095 E0.05394 F1560
M106 S17
G1 X123.072 Y84.161 E0.06303 F2300
G1 X125.859 Y85.526 E0.06617 F1283
G1 X126.950 Y84.615 E0.02421 F1799
G1 X124.814 Y84.374 E0.05935 F1595
G1 X127.315 Y86.065 E0.06057 F1289
G1 X127.824 Y87.813 E0.03138 F1926
G1 X128.443 Y86.948 E0.06725 F2392
G1 X126.483 Y85.774 E0.04394 F2153
G1 X126.356 Y87.356 E0.02423 F1658
G1 X128.212 Y89.053 E0.03843 F1329
G1 X128.772 Y88.533 E0.04889 F1201
G1 X128.672 Y89.487 E0.02335 F1323
G1 X129.331 Y92.136 E0.07925 F1543
G1 X129.085 Y92.668 E0.04352 F2262
G1 X129.356 Y93.227 E0.07239 F1942
G1 X128.580 Y92.616 E0.06938 F1488
G1 X128.308 Y94.037 E0.04198 F1833
G1 X129.186 Y93.210 E0.05728 F1729
G1 X128.935 Y97.336 E0.03040 F1800
G1 X130.333 Y94.297 E0.07598 F2226
G1 X128.622 Y98.787 E0.05812 F1325
G1 X130.908 Y98.067 E0.06023 F1433
G1 X129.521 Y98.980 E0.05539 F1552
G1 X128.843 Y97.740 E0.04878 F2107
; LAYER:1
G1 Z0.200 F720 ; move to layer height
G1 X128.651 Y101.232 E0.07957 F2139
M104 S219
M106 S100
G1 X130.058 Y100.064 E0.04252 F1951
G1 X129.787 Y101.541 E0.02847 F1522
G1 X130.725 Y102.700 E0.07313 F1842
G1 X129.764 Y104.241 E0.04961 F1872
G1 X130.821 Y105.279 E0.05846 F1563
G1 X128.263 Y105.043 E0.04984 F1835
G1 X130.960 Y105.887 E0.04179 F1438
G1 X129.149 Y105.690 E0.03220 F1692
G1 X130.871 Y107.133 E0.07732 F2110
G1 X131.046 Y109.188 E0.02019 F1617
G1 X129.952 Y108.389 E0.03177 F1773
G1 X129.243 Y109.201 E0.05909 F1811
G1 X128.509 Y107.812 E0.07108 F1351
G1 X127.207 Y108.915 E0.07497 F1985
G1 X128.740 Y109.393 E0.03098 F1439
G1 X127.941 Y112.665 E0.04871 F1272
G1 X129.016 Y113.857 E0.02965 F1699
G1 X127.706 Y114.323 E0.02968 F1314
G1 X126.141 Y112.976 E0.07471 F1302
G1 X125.290 Y113.947 E0.03912 F2006
G1 X127.534 Y114.124 E0.04059 F1788
G1 X123.912 Y116.002 E0.04993 F2007
G1 X126.460 Y117.195 E0.05388 F1449
G1 X126.640 Y115.441 E0.06679 F2174
G1 X126.277 Y118.571 E0.07785 F1953
G1 X124.648 Y120.129 E0.02001 F1448
G1 X121.861 Y118.726 E0.02624 F2310
G1 X121.248 Y120.987 E0.02590 F1380
G1 X121.798 Y118.474 E0.07633 F1607
G1 X120.131 Y118.995 E0.06476 F1430
G1 X120.240 Y119.840 E0.03141 F2192
G1 X119.657 Y122.013 E0.05397 F1957
G1 X121.757 Y121.374 E0.04151 F2368
G1 X119.832 Y123.938 E0.04875 F2174
G1 X119.698 Y123.675 E0.07321 F1375
G1 X117.095 Y122.498 E0.06981 F1319
G1 X118.003 Y123.715 E0.07620 F1971
G1 X115.712 Y123.480 E0.07133 F2351
G1 X117.861 Y124.746 E0.05695 F2023
G1 X116.520 Y124.971 E0.03391 F2228
G1 X114.558 Y125.529 E0.06112 F2182
G1 X116.675 Y125.049 E0.03949 F1760
G1 X112.454 Y126.520 E0.03277 F1855
G1 X112.722 Y125.845 E0.03502 F2233
G1 X111.524 Y128.632 E0.03215 F1478
G1 X113.589 Y127.388 E0.04199 F1743
G1 X111.705 Y125.943 E0.04801 F1282
G1 X109.580 Y126.709 E0.02686 F1291
G1 X109.114 Y128.288 E0.05062 F1775
G1 X111.226 Y130.449 E0.03474 F1668
M104 S212
G1 X108.190 Y127.857 E0.07803 F1561
G1 X106.150 Y127.208 E0.05682 F1508
G1 X108.247 Y130.486 E0.03398 F1351
G1 X104.996 Y130.452 E0.03546 F1589
G1 X105.192 Y128.266 E0.03331 F1538
G1 X103.069 Y128.497 E0.06261 F1602
G1 X104.586 Y130.482 E0.06857 F1281
G1 X105.227 Y128.221 E0.04249 F1218
G1 X102.819 Y129.728 E0.04399 F1406
G1 X102.314 Y131.915 E0.06595 F1564
G1 X101.485 Y129.369 E0.02785 F2120
G1 X102.055 Y131.105 E0.02682 F2302
G1 X100.325 Y129.006 E0.03762 F1862
G1 X100.832 Y130.358 E0.02245 F1339
G1 X99.095 Y128.605 E0.07554 F2239
G1 X96.000 Y129.533 E0.04892 F1857
G1 X97.608 Y131.747 E0.02770 F1545
G1 X97.294 Y131.388 E0.04195 F2390
G1 X94.873 Y131.383 E0.03614 F1714
G1 X95.578 Y130.463 E0.03483 F2292
G1 X91.803 Y129.816 E0.06025 F1926
G1 X93.022 Y128.221 E0.03802 F2016
G1 X91.637 Y131.006 E0.02084 F1699
G1 X89.675 Y129.176 E0.05789 F1992
G1 X91.843 Y126.882 E0.04172 F2002
M106 S47
G1 X88.195 Y126.924 E0.07086 F1256
G1 X87.769 Y128.763 E0.05229 F1707
G1 X88.323 Y126.076 E0.07949 F1280
G1 X88.375 Y125.672 E0.02836 F1304
G1 X87.129 Y127.109 E0.06581 F2019
G1 X86.144 Y127.162 E0.03037 F1739
G1 X84.793 Y126.780 E0.04800 F2235
G1 X86.215 Y127.544 E0.03300 F1971
G1 X85.658 Y125.457 E0.05460 F1865
G1 X82.968 Y125.856 E0.02618 F1924
G1 X82.438 Y125.926 E0.04445 F2334
G1 X81.104 Y124.725 E0.06246 F1575
G1 X83.966 Y124.800 E0.03230 F1547
G1 X82.256 Y125.464 E0.07894 F1774
G1 X81.730 Y122.157 E0.07671 F1216
G1 X78.619 Y121.052 E0.04431 F1633
G1 X81.293 Y120.443 E0.06130 F1282
G1 X77.995 Y121.760 E0.06569 F1732
G1 X77.291 Y120.254 E0.04256 F1943
G1 X76.832 Y121.558 E0.06429 F1290
G1 X77.910 Y121.021 E0.03350 F2058
G1 X77.709 Y120.440 E0.02889 F1772
G1 X76.950 Y118.879 E0.03836 F1462
G1 X75.937 Y118.225 E0.03153 F2104
G1 X76.904 Y116.089 E0.04735 F2008
M104 S213
G1 X76.431 Y115.163 E0.06932 F2303
G1 X73.734 Y117.317 E0.03948 F1347
G1 X73.096 Y117.379 E0.02662 F2299
G1 X75.316 Y114.941 E0.02470 F2384
G1 X72.916 Y114.654 E0.05431 F1613
G1 X75.063 Y115.106 E0.05205 F1793
G1 X70.938 Y114.425 E0.06029 F1998
G1 X72.214 Y114.128 E0.03432 F2128
G1 X71.566 Y112.338 E0.06491 F1959
G1 X73.997 Y110.884 E0.04135 F2104
G1 X72.612 Y110.868 E0.02319 F2253
G1 X72.533 Y110.767 E0.06389 F1980
G1 X71.705 Y110.012 E0.05503 F1406
G1 X69.061 Y109.493 E0.06897 F2310
G1 X69.202 Y108.117 E0.06246 F1964
G1 X69.329 Y106.091 E0.04182 F1364
G1 X72.065 Y106.095 E0.05942 F1383
G1 X70.247 Y103.273 E0.06476 F2141
G1 X70.870 Y105.874 E0.07522 F2060
G1 X69.958 Y103.497 E0.07961 F1749
G1 X71.514 Y103.269 E0.05643 F1297
G1 X71.208 Y101.567 E0.05069 F1257
G1 X68.665 Y100.327 E0.07888 F1443
G1 X70.412 Y101.186 E0.02642 F2009
G1 X69.290 Y98.567 E0.07710 F1599
G1 X69.017 Y100.145 E0.07262 F2003
G1 X69.320 Y98.836 E0.02228 F1501
G1 X68.907 Y99.670 E0.07251 F2251
G1 X69.620 Y98.081 E0.05785 F1795
G1 X68.727 Y95.370 E0.05532 F1601
G1 X68.777 Y93.663 E0.02529 F1224
G1 X68.913 Y93.738 E0.05443 F2251
G1 X70.302 Y95.272 E0.03106 F1494
G1 X71.055 Y93.069 E0.06199 F2169
G1 X68.886 Y94.478 E0.03026 F1461
G1 X70.697 Y89.865 E0.04148 F2346
G1 X72.679 Y89.615 E0.04585 F1448
G1 X71.932 Y90.160 E0.03927 F1643
G1 X71.096 Y89.847 E0.02773 F2287
G1 X70.792 Y87.179 E0.05314 F2376
G1 X70.871 Y86.940 E0.02968 F1630
G1 X72.475 Y89.281 E0.06032 F1974
G1 X72.779 Y85.418 E0.06974 F1743
G1 X71.589 Y87.781 E0.03392 F1553
G1 X72.372 Y85.217 E0.05761 F1839
G1 X73.074 Y84.251 E0.02253 F2248
G1 X72.580 Y84.345 E0.04869 F2114
G1 X76.674 Y83.860 E0.02973 F1308
G1 X73.522 Y81.913 E0.05065 F1361
G1 X75.739 Y84.292 E0.06982 F1960
M104 S220
M106 S44
G1 X77.417 Y80.676 E0.07479 F1986
G1 X76.089 Y81.234 E0.02024 F2250
G1 X77.679 Y78.758 E0.06255 F1454
G1 X76.395 Y78.435 E0.05645 F1972
G1 X76.283 Y80.158 E0.07842 F1823
G1 X79.406 Y78.011 E0.02695 F1766
G1 X77.282 Y80.294 E0.05292 F1875
G1 X81.114 Y75.803 E0.06887 F1519
G1 X80.957 Y76.009 E0.02425 F2299
G1 X82.322 Y75.637 E0.04681 F2282
G1 X80.816 Y77.927 E0.04518 F1257
G1 X82.803 Y76.336 E0.06389 F2323
G1 X83.022 Y73.574 E0.06239 F1905
G1 X82.185 Y73.761 E0.05520 F2265
G1 X82.117 Y76.059 E0.05991 F1588
G1 X86.428 Y76.057 E0.04175 F2228
G1 X86.890 Y72.798 E0.05735 F2060
G1 X87.413 Y75.318 E0.06478 F2130
G1 X84.898 Y72.866 E0.02115 F1838
G1 X85.333 Y73.722 E0.03333 F2272
G1 X86.816 Y72.796 E0.02498 F1456
G1 X88.828 Y72.649 E0.06871 F2170
G1 X89.181 Y73.265 E0.07283 F1466
G1 X90.790 Y70.983 E0.05803 F2002
G1 X91.740 Y72.634 E0.05887 F1576
G1 X93.012 Y70.435 E0.05242 F1802
G1 X91.651 Y70.260 E0.04274 F1361
G1 X94.383 Y69.609 E0.07384 F2064
G1 X93.279 Y68.637 E0.02416 F1260
G1 X94.500 Y69.536 E0.04120 F2060
G1 X94.086 Y68.327 E0.07324 F1629
G1 X94.826 Y71.193 E0.06352 F1295
G1 X98.528 Y70.662 E0.03536 F1775
G1 X98.801 Y70.313 E0.03787 F2308
G1 X96.827 Y70.305 E0.05570 F1346
G1 X99.091 Y70.389 E0.03301 F1313
G1 X98.403 Y68.856 E0.02469 F1899
G1 X98.501 Y71.691 E0.06296 F1655
G1 X101.020 Y71.413 E0.07071 F2119
G1 X103.127 Y69.366 E0.07933 F2339
G1 X102.108 Y69.885 E0.05392 F1275
G1 X103.249 Y68.447 E0.02048 F1842
G1 X106.074 Y69.555 E0.04018 F1249
G1 X106.491 Y69.743 E0.07020 F2264
G1 X106.921 Y69.889 E0.02217 F1286
G1 X104.559 Y70.069 E0.02063 F2345
G1 X105.685 Y72.637 E0.06432 F1242
G1 X109.210 Y70.460 E0.05811 F2207
G1 X108.649 Y71.717 E0.05592 F2094
G1 X110.459 Y70.849 E0.03080 F1389
M104 S213
G1 X109.670 Y70.464 E0.07709 F1516
G1 X112.716 Y70.586 E0.02216 F2071
G1 X111.169 Y72.024 E0.02887 F2211
G1 X111.261 Y74.348 E0.07417 F1647
G1 X114.045 Y70.778 E0.05877 F2305
G1 X111.934 Y73.407 E0.05498 F1409
G1 X115.258 Y73.280 E0.05518 F2378
G1 X115.959 Y72.115 E0.02553 F1410
G1 X113.916 Y73.093 E0.02099 F1649
G1 X114.874 Y74.899 E0.05620 F1757
G1 X116.275 Y73.654 E0.07312 F1887
G1 X119.030 Y74.751 E0.05596 F2034
G1 X116.126 Y76.319 E0.07139 F1625
G1 X118.869 Y76.428 E0.06480 F1358
G1 X117.343 Y76.491 E0.04488 F1258
G1 X120.854 Y78.151 E0.06794 F1824
G1 X122.138 Y78.827 E0.04836 F2398
G1 X121.842 Y77.393 E0.07995 F2166
G1 X120.576 Y80.005 E0.05487 F1804
G1 X121.700 Y78.330 E0.06622 F2297
G1 X122.133 Y79.700 E0.05851 F1614
G1 X123.956 Y80.810 E0.07104 F1415
G1 X123.418 Y81.748 E0.05180 F2009
G1 X125.592 Y83.562 E0.06895 F1748
G1 X122.842 Y82.197 E0.06172 F1578
M106 S60
G1 X125.007 Y82.461 E0.07302 F1662
G1 X124.627 Y83.602 E0.06652 F2307
G1 X124.968 Y83.644 E0.06745 F1232
G1 X124.379 Y83.452 E0.05431 F2299
G1 X126.502 Y85.184 E0.02718 F2093
G1 X126.582 Y84.853 E0.03248 F2273
G1 X125.207 Y86.848 E0.03525 F2082
G1 X128.117 Y86.106 E0.04730 F2242
G1 X128.996 Y87.985 E0.05054 F2320
G1 X128.547 Y90.875 E0.06511 F1353
G1 X128.798 Y90.216 E0.06979 F2370
G1 X128.696 Y91.488 E0.06177 F1335
G1 X130.553 Y89.993 E0.07527 F1922
G1 X128.149 Y93.761 E0.04546 F1654
G1 X129.547 Y94.144 E0.05803 F2060
G1 X129.040 Y91.595 E0.02840 F1993
G1 X130.232 Y94.429 E0.06068 F1626
G1 X130.653 Y95.544 E0.02464 F1372
G1 X130.609 Y93.645 E0.07736 F1853
G1 X131.217 Y94.714 E0.05328 F1317
G1 X131.138 Y98.716 E0.05168 F1477
G1 X130.977 Y98.346 E0.02400 F2042
G1 X131.297 Y97.393 E0.07725 F1984
G1 X131.682 Y99.282 E0.06606 F1514
; LAYER:2
G1 Z0.400 F720 ; move to layer height
G1 X131.918 Y98.671 E0.03716 F1494
M104 S210
M106 S180
G1 X131.928 Y100.320 E0.02016 F1440
G1 X129.241 Y102.060 E0.02613 F1485
G1 X129.130 Y103.441 E0.03839 F1737
G1 X130.321 Y104.991 E0.07108 F1689
G1 X128.787 Y102.778 E0.06816 F1817
G1 X129.936 Y104.592 E0.06974 F2171
G1 X130.176 Y103.996 E0.02630 F2185
G1 X128.220 Y106.452 E0.04625 F1527
G1 X128.582 Y108.742 E0.07281 F1320
G1 X130.988 Y106.563 E0.03758 F2024
G1 X130.429 Y109.946 E0.05542 F2232
G1 X130.254 Y108.521 E0.04280 F1805
G1 X128.718 Y109.009 E0.07185 F1274
G1 X127.069 Y110.279 E0.06898 F1829
G1 X127.921 Y111.369 E0.05183 F1486
G1 X128.595 Y110.180 E0.04749 F1351
G1 X129.313 Y113.439 E0.02759 F1378
G1 X126.438 Y113.202 E0.04755 F1644
G1 X125.069 Y114.057 E0.07038 F2367
G1 X126.595 Y115.138 E0.03364 F2389
G1 X126.312 Y113.569 E0.05253 F2332
G1 X124.106 Y115.134 E0.03235 F1894
G1 X126.928 Y118.142 E0.07126 F2065
G1 X123.351 Y117.618 E0.03765 F1814
G1 X124.216 Y117.234 E0.05266 F1983
G1 X124.633 Y120.056 E0.06304 F1890
G1 X121.907 Y119.702 E0.06670 F2186
G1 X122.149 Y120.035 E0.05551 F1378
G1 X121.342 Y120.080 E0.06674 F1224
G1 X122.927 Y119.283 E0.02719 F1738
G1 X120.696 Y120.511 E0.06158 F1590
G1 X120.827 Y123.233 E0.04431 F1405
G1 X120.975 Y123.757 E0.05246 F1826
G1 X119.934 Y123.648 E0.02708 F1890
G1 X120.325 Y122.041 E0.05970 F2213
G1 X117.421 Y125.245 E0.05116 F1268
G1 X118.133 Y124.356 E0.07216 F2153
G1 X119.232 Y123.896 E0.05330 F1389
G1 X116.511 Y126.989 E0.07122 F2333
G1 X114.517 Y126.767 E0.07682 F2213
G1 X115.755 Y124.048 E0.05474 F1342
G1 X116.378 Y124.959 E0.02269 F1318
G1 X115.716 Y125.605 E0.02249 F1847
G1 X114.139 Y125.786 E0.07054 F1924
G1 X112.208 Y127.109 E0.02607 F1892
G1 X111.617 Y128.717 E0.04149 F1777
G1 X110.813 Y127.193 E0.04295 F1951
G1 X111.265 Y127.324 E0.07460 F1812
G1 X108.796 Y126.665 E0.06352 F2258
G1 X108.251 Y127.553 E0.07848 F1205
M104 S218
G1 X108.018 Y130.073 E0.06242 F2200
G1 X108.300 Y127.428 E0.07349 F1836
G1 X106.625 Y130.048 E0.04513 F2055
G1 X106.574 Y130.422 E0.06498 F1824
G1 X106.696 Y131.052 E0.03027 F2169
G1 X104.779 Y128.866 E0.03322 F2357
G1 X102.552 Y129.403 E0.02054 F1523
G1 X102.375 Y131.206 E0.02880 F1569
G1 X101.657 Y129.564 E0.03348 F1284
G1 X102.608 Y129.055 E0.02570 F1204
G1 X100.336 Y130.296 E0.02674 F1805
G1 X101.306 Y129.648 E0.06797 F1555
G1 X100.070 Y128.748 E0.04704 F1348
G1 X97.398 Y128.730 E0.02440 F1327
G1 X98.460 Y128.518 E0.06190 F1885
G1 X96.763 Y130.943 E0.06199 F1809
G1 X96.535 Y128.905 E0.05716 F2211
G1 X96.132 Y129.616 E0.03164 F2248
G1 X94.795 Y130.930 E0.02133 F1992
G1 X94.592 Y127.807 E0.02973 F1939
G1 X93.714 Y130.016 E0.08000 F1485
G1 X91.219 Y130.958 E0.07432 F2317
G1 X90.832 Y130.223 E0.02958 F1894
G1 X90.995 Y128.884 E0.04300 F2239
G1 X91.200 Y129.275 E0.05781 F1477
M106 S103
G1 X91.534 Y127.033 E0.02150 F1686
G1 X90.002 Y129.159 E0.02501 F2158
G1 X88.242 Y126.715 E0.03416 F1245
G1 X86.656 Y129.397 E0.05823 F1270
G1 X87.699 Y127.208 E0.05741 F2099
G1 X86.337 Y128.693 E0.04614 F2379
G1 X85.252 Y125.582 E0.02058 F2374
G1 X86.332 Y126.557 E0.07211 F2362
G1 X82.919 Y124.199 E0.03081 F1592
G1 X83.153 Y124.670 E0.07200 F1389
G1 X81.945 Y126.489 E0.02665 F1999
G1 X81.774 Y126.296 E0.05660 F1247
G1 X82.791 Y123.277 E0.06760 F1742
G1 X82.441 Y124.500 E0.05159 F1476
G1 X81.026 Y121.691 E0.05648 F1629
G1 X80.503 Y122.766 E0.04246 F2318
G1 X79.541 Y123.532 E0.04071 F2051
G1 X78.046 Y121.696 E0.06305 F1527
G1 X77.612 Y121.887 E0.06392 F1258
G1 X79.631 Y120.643 E0.07328 F2265
G1 X75.538 Y121.816 E0.06309 F1905
G1 X78.569 Y120.827 E0.05787 F1850
G1 X74.580 Y120.160 E0.06330 F2147
G1 X77.561 Y118.524 E0.04646 F2089
G1 X74.900 Y116.732 E0.07177 F2057
M104 S210
G1 X76.417 Y119.030 E0.04036 F2232
G1 X74.452 Y117.049 E0.04195 F1545
G1 X72.546 Y116.823 E0.05707 F1727
G1 X74.799 Y115.755 E0.03046 F2335
G1 X73.399 Y115.149 E0.03432 F2244
G1 X73.427 Y113.823 E0.06738 F1516
G1 X72.467 Y114.358 E0.06060 F1277
G1 X72.645 Y110.532 E0.06857 F1285
G1 X72.635 Y111.554 E0.06893 F1349
G1 X71.989 Y109.575 E0.05176 F1286
G1 X71.530 Y111.971 E0.06182 F1660
G1 X72.747 Y110.770 E0.06173 F1480
G1 X71.372 Y108.200 E0.04235 F2128
G1 X69.358 Y108.863 E0.07979 F1623
G1 X70.701 Y106.341 E0.04376 F1499
G1 X69.085 Y107.690 E0.05495 F2335
G1 X70.380 Y107.817 E0.07714 F1538
G1 X72.160 Y103.435 E0.05898 F1776
G1 X70.061 Y103.303 E0.06136 F1253
G1 X70.688 Y104.484 E0.05906 F2346
G1 X71.672 Y104.965 E0.02913 F1529
G1 X68.469 Y104.090 E0.05213 F2289
G1 X71.296 Y100.903 E0.07676 F1487
G1 X68.840 Y100.982 E0.06918 F1707
G1 X70.430 Y98.207 E0.03523 F1920
G1 X70.861 Y100.027 E0.03320 F1356
G1 X68.545 Y99.425 E0.06816 F1891
G1 X71.508 Y96.265 E0.04239 F2263
G1 X68.879 Y94.980 E0.07599 F1326
G1 X71.283 Y96.184 E0.07383 F1299
G1 X70.467 Y97.286 E0.07480 F2045
G1 X68.767 Y95.345 E0.04334 F1897
G1 X69.729 Y92.626 E0.03912 F1420
G1 X72.158 Y92.341 E0.04122 F1502
G1 X70.502 Y93.991 E0.06458 F1658
G1 X71.296 Y92.713 E0.02773 F1963
G1 X69.989 Y92.576 E0.02401 F2366
G1 X71.265 Y91.277 E0.07396 F1453
G1 X70.230 Y89.027 E0.02445 F2342
G1 X70.885 Y88.229 E0.04050 F2201
G1 X72.144 Y87.259 E0.04859 F2306
G1 X72.521 Y88.939 E0.07764 F1571
G1 X72.728 Y87.832 E0.05112 F1508
G1 X74.843 Y87.155 E0.03276 F2141
G1 X73.210 Y85.675 E0.07151 F1411
G1 X75.065 Y85.095 E0.03416 F2002
G1 X75.006 Y82.231 E0.03242 F1428
G1 X73.885 Y84.454 E0.05491 F1685
G1 X74.265 Y84.433 E0.07207 F1995
G1 X74.794 Y81.747 E0.07180 F1937
M104 S216
M106 S171
G1 X76.683 Y81.052 E0.02850 F1667
G1 X77.198 Y81.220 E0.03538 F2188
G1 X77.681 Y80.707 E0.07465 F1568
G1 X78.879 Y78.680 E0.07254 F1589
G1 X79.246 Y77.943 E0.02170 F1963
G1 X77.307 Y78.072 E0.06335 F1530
G1 X77.077 Y77.927 E0.07133 F1575
G1 X79.278 Y79.422 E0.05026 F1503
G1 X79.158 Y76.884 E0.02768 F1761
G1 X80.824 Y76.501 E0.07598 F2149
G1 X81.997 Y76.753 E0.06939 F1843
G1 X82.230 Y75.860 E0.07660 F1692
G1 X83.548 Y74.101 E0.06537 F2398
G1 X82.785 Y73.274 E0.07466 F1898
G1 X82.786 Y73.287 E0.03772 F1991
G1 X83.749 Y74.800 E0.04049 F1590
G1 X86.209 Y72.974 E0.04466 F1285
G1 X84.601 Y73.307 E0.03024 F1418
G1 X86.819 Y74.271 E0.06136 F1253
G1 X89.027 Y74.104 E0.06839 F1487
G1 X87.037 Y72.641 E0.03503 F1351
G1 X89.036 Y70.085 E0.03715 F1970
G1 X90.046 Y71.024 E0.05586 F1836
G1 X91.449 Y71.272 E0.05666 F1981
G1 X90.772 Y71.202 E0.02808 F2185
G1 X91.110 Y72.746 E0.04733 F1770
G1 X91.535 Y71.188 E0.03113 F2169
G1 X91.366 Y69.897 E0.02101 F2111
G1 X92.978 Y70.284 E0.05910 F1617
G1 X95.756 Y71.147 E0.02564 F1539
G1 X93.938 Y71.627 E0.06666 F2313
G1 X97.355 Y69.238 E0.07455 F2236
G1 X94.906 Y68.473 E0.03637 F1755
G1 X97.967 Y68.109 E0.06994 F1966
G1 X100.071 Y69.621 E0.02725 F2064
G1 X98.169 Y70.012 E0.03031 F1531
G1 X98.497 Y70.285 E0.06444 F1295
G1 X98.506 Y70.833 E0.03678 F1435
G1 X100.928 Y69.470 E0.03002 F2161
G1 X102.867 Y70.581 E0.02404 F1852
G1 X100.979 Y68.379 E0.05336 F1299
G1 X101.871 Y70.042 E0.05635 F2054
G1 X104.979 Y71.285 E0.02937 F1754
G1 X103.102 Y71.662 E0.03203 F1775
G1 X104.921 Y68.671 E0.03977 F1418
G1 X107.812 Y69.953 E0.05241 F1360
G1 X108.577 Y70.036 E0.04705 F2039
G1 X107.670 Y69.536 E0.06212 F1628
G1 X109.684 Y69.431 E0.03699 F2266
G1 X109.261 Y72.406 E0.05606 F2384
M104 S218
G1 X111.295 Y72.958 E0.07384 F2196
G1 X111.067 Y70.001 E0.03902 F1417
G1 X113.039 Y73.000 E0.05794 F1273
G1 X110.849 Y72.750 E0.02287 F2017
G1 X113.552 Y71.880 E0.04275 F1400
G1 X113.031 Y71.211 E0.03177 F2163
G1 X112.606 Y74.722 E0.03331 F1419
G1 X115.039 Y72.710 E0.07131 F2095
G1 X116.699 Y73.318 E0.05957 F2164
G1 X116.403 Y76.290 E0.02549 F1245
G1 X117.616 Y76.479 E0.02820 F1840
G1 X118.173 Y73.611 E0.02553 F1394
G1 X118.372 Y73.829 E0.07624 F2044
G1 X120.389 Y74.369 E0.02184 F1833
G1 X120.517 Y78.323 E0.04809 F1958
G1 X120.589 Y77.680 E0.02243 F2284
G1 X118.668 Y77.288 E0.06880 F1987
G1 X119.331 Y79.753 E0.07317 F2021
G1 X123.461 Y78.046 E0.06602 F1256
G1 X120.384 Y78.963 E0.04483 F2041
G1 X121.723 Y81.364 E0.07278 F1209
G1 X121.627 Y82.230 E0.06429 F2170
G1 X123.267 Y80.825 E0.04639 F1368
G1 X124.086 Y82.821 E0.04571 F1879
G1 X124.968 Y82.352 E0.07930 F1912
M106 S212
G1 X124.967 Y82.851 E0.03371 F1870
G1 X123.990 Y82.419 E0.07226 F1216
G1 X125.517 Y82.596 E0.02202 F1402
G1 X126.399 Y85.072 E0.06438 F1394
G1 X127.201 Y85.223 E0.07750 F2173
G1 X125.459 Y86.702 E0.02053 F1809
G1 X128.296 Y87.150 E0.04496 F2290
G1 X127.822 Y85.651 E0.06098 F1579
G1 X128.772 Y89.733 E0.06927 F1891
G1 X126.945 Y88.130 E0.04574 F2378
G1 X127.341 Y90.717 E0.06698 F1314
G1 X130.307 Y91.946 E0.03142 F2128
G1 X129.014 Y92.199 E0.03352 F1824
G1 X128.559 Y91.587 E0.07692 F2013
G1 X127.551 Y91.643 E0.02795 F2346
G1 X129.394 Y91.502 E0.04198 F1332
G1 X131.358 Y93.420 E0.06648 F1236
G1 X131.550 Y94.711 E0.07896 F1209
G1 X128.851 Y94.639 E0.02928 F2379
G1 X130.224 Y95.799 E0.05039 F1700
G1 X131.742 Y96.228 E0.03352 F2069
G1 X129.717 Y99.669 E0.06709 F1913
G1 X128.629 Y100.295 E0.02672 F1882
G1 X131.527 Y99.919 E0.04119 F1902
; LAYER:3
G1 Z0.600 F720 ; move to layer height
G1 X129.019 Y99.309 E0.06251 F1845
M104 S219
M106 S37
G1 X131.920 Y100.775 E0.03969 F2350
G1 X131.078 Y102.160 E0.02882 F1634
G1 X129.261 Y102.422 E0.05354 F1373
G1 X128.181 Y104.771 E0.05234 F2214
G1 X130.414 Y102.006 E0.05708 F1886
G1 X131.718 Y102.647 E0.04827 F1534
G1 X130.794 Y105.605 E0.07374 F2155
G1 X129.206 Y105.429 E0.03563 F1738
G1 X130.957 Y105.903 E0.04594 F1275
G1 X129.436 Y106.702 E0.04533 F1914
G1 X127.167 Y107.145 E0.03946 F1754
G1 X127.010 Y107.784 E0.03730 F1351
G1 X130.229 Y108.155 E0.02616 F1215
G1 X129.135 Y110.117 E0.04299 F1502
G1 X128.545 Y113.049 E0.02641 F1214
G1 X126.189 Y110.823 E0.07982 F2141
G1 X127.583 Y111.513 E0.04526 F2262
G1 X126.149 Y114.162 E0.06204 F1608
G1 X126.084 Y112.329 E0.06139 F1806
G1 X125.975 Y112.760 E0.07764 F1877
G1 X124.450 Y116.366 E0.07663 F1412
G1 X126.639 Y117.572 E0.03331 F2324
G1 X124.974 Y118.342 E0.06423 F1959
G1 X125.229 Y117.179 E0.07754 F1607
G1 X123.504 Y116.583 E0.06555 F1784
G1 X125.671 Y117.192 E0.05497 F1440
G1 X123.987 Y117.947 E0.04318 F1627
G1 X124.531 Y121.183 E0.06052 F1947
G1 X121.296 Y119.014 E0.04499 F2138
G1 X120.964 Y119.274 E0.06076 F2170
G1 X120.419 Y122.497 E0.03805 F1441
G1 X121.693 Y120.536 E0.02143 F1883
G1 X119.110 Y123.516 E0.04252 F1419
G1 X121.382 Y121.972 E0.02150 F1610
G1 X120.757 Y124.078 E0.05526 F2317
G1 X119.261 Y124.041 E0.02373 F1750
G1 X117.545 Y122.648 E0.04780 F1441
G1 X117.796 Y124.380 E0.05464 F2154
G1 X118.649 Y123.955 E0.07059 F1827
G1 X116.614 Y127.198 E0.02516 F1952
G1 X113.811 Y127.063 E0.04693 F1670
G1 X115.852 Y125.875 E0.05749 F1450
G1 X115.053 Y126.769 E0.07462 F1341
G1 X115.181 Y128.722 E0.06508 F1868
G1 X113.651 Y128.166 E0.06380 F1715
G1 X112.660 Y127.811 E0.05250 F1668
G1 X113.358 Y130.023 E0.02833 F1895
G1 X109.078 Y128.972 E0.04892 F1787
G1 X108.454 Y127.535 E0.05068 F1255
G1 X108.514 Y130.037 E0.02824 F1503
M104 S217
G1 X110.401 Y129.257 E0.05649 F1377
G1 X106.905 Y130.623 E0.05562 F1671
G1 X105.609 Y130.074 E0.04464 F1247
G1 X108.090 Y128.124 E0.03269 F2085
G1 X106.731 Y130.504 E0.07084 F2110
G1 X103.295 Y129.363 E0.03496 F2397
G1 X102.597 Y128.823 E0.05665 F1553
G1 X101.699 Y130.214 E0.02691 F2290
G1 X101.739 Y131.627 E0.03877 F2293
G1 X103.643 Y129.783 E0.03540 F1784
G1 X101.491 Y131.218 E0.04396 F1375
G1 X101.087 Y131.830 E0.02450 F1874
G1 X101.036 Y132.233 E0.04516 F1317
G1 X98.686 Y131.120 E0.07055 F2174
G1 X97.361 Y130.875 E0.06312 F2091
G1 X98.713 Y131.054 E0.07711 F1485
G1 X96.851 Y131.870 E0.04704 F1940
G1 X96.686 Y131.840 E0.03041 F1333
G1 X96.948 Y131.211 E0.03234 F1449
G1 X93.698 Y131.456 E0.07119 F1244
G1 X94.105 Y128.334 E0.02322 F1307
G1 X91.494 Y130.629 E0.03865 F1689
G1 X94.019 Y128.185 E0.06629 F1302
G1 X92.209 Y130.075 E0.04516 F2071
G1 X89.006 Y130.313 E0.03167 F2227
M106 S109
G1 X89.798 Y130.250 E0.05275 F2146
G1 X91.128 Y128.721 E0.04701 F1624
G1 X88.072 Y128.515 E0.04533 F1800
G1 X85.930 Y128.565 E0.04609 F1872
G1 X85.184 Y127.368 E0.06139 F2199
G1 X87.349 Y126.235 E0.04204 F1615
G1 X86.467 Y126.711 E0.03723 F2354
G1 X86.477 Y126.692 E0.03422 F1961
G1 X84.773 Y124.075 E0.07057 F1745
G1 X83.720 Y126.349 E0.02965 F2339
G1 X83.180 Y124.703 E0.06721 F2286
G1 X83.104 Y126.396 E0.04819 F2090
G1 X81.918 Y124.629 E0.04470 F1607
G1 X82.228 Y122.460 E0.07774 F2181
G1 X78.918 Y121.642 E0.02234 F1528
G1 X80.798 Y124.573 E0.02620 F1468
G1 X78.349 Y124.199 E0.03418 F1755
G1 X78.312 Y122.946 E0.07074 F2053
G1 X79.804 Y119.973 E0.06643 F1687
G1 X76.605 Y119.901 E0.02946 F2167
G1 X76.207 Y121.263 E0.02252 F1570
G1 X76.708 Y119.541 E0.07645 F1356
G1 X77.157 Y119.265 E0.05036 F2336
G1 X76.925 Y119.377 E0.05335 F1736
G1 X76.803 Y118.744 E0.06446 F1403
M104 S219
G1 X74.233 Y118.955 E0.02196 F2085
G1 X74.282 Y117.478 E0.07866 F2102
G1 X75.742 Y115.183 E0.02301 F1639
G1 X71.850 Y116.040 E0.04637 F1519
G1 X72.355 Y115.052 E0.05823 F2273
G1 X72.921 Y113.033 E0.02695 F1967
G1 X70.867 Y113.654 E0.05416 F1615
G1 X70.839 Y113.152 E0.02911 F2256
G1 X70.700 Y110.933 E0.05285 F2377
G1 X72.070 Y112.475 E0.03885 F1626
G1 X70.332 Y108.928 E0.03487 F2037
G1 X69.414 Y109.105 E0.02887 F2091
G1 X69.476 Y110.892 E0.04210 F2392
G1 X72.373 Y108.489 E0.03680 F1923
G1 X71.048 Y108.280 E0.02502 F1299
G1 X70.929 Y106.850 E0.02891 F1889
G1 X69.279 Y106.228 E0.05959 F1919
G1 X71.597 Y105.344 E0.03459 F1632
G1 X71.982 Y104.519 E0.05397 F1499
G1 X69.218 Y104.801 E0.02197 F2146
G1 X71.475 Y101.811 E0.02431 F1939
G1 X70.726 Y103.562 E0.06436 F1297
G1 X71.343 Y101.621 E0.07779 F1662
G1 X70.725 Y102.755 E0.04770 F1930
G1 X69.780 Y98.686 E0.07811 F1432
G1 X70.229 Y99.396 E0.07537 F1750
G1 X69.520 Y98.661 E0.05607 F2258
G1 X70.001 Y97.532 E0.03318 F1258
G1 X67.902 Y98.230 E0.06650 F2104
G1 X68.825 Y94.582 E0.04122 F1482
G1 X70.063 Y94.266 E0.05263 F1222
G1 X71.529 Y93.620 E0.03501 F2261
G1 X72.152 Y92.014 E0.03321 F2286
G1 X71.777 Y93.580 E0.02002 F1426
G1 X69.899 Y91.603 E0.06045 F1838
G1 X71.020 Y90.362 E0.05425 F1253
G1 X71.347 Y89.683 E0.05147 F1499
G1 X69.807 Y90.583 E0.07729 F1314
G1 X71.126 Y87.815 E0.07875 F2006
G1 X70.913 Y90.470 E0.02062 F1793
G1 X72.738 Y86.762 E0.05442 F1900
G1 X73.132 Y87.239 E0.06217 F1561
G1 X73.516 Y85.488 E0.02986 F2158
G1 X71.306 Y84.197 E0.04104 F1276
G1 X72.229 Y87.192 E0.03550 F2298
G1 X73.185 Y84.742 E0.06888 F2164
G1 X75.799 Y82.095 E0.07624 F2282
G1 X72.888 Y82.906 E0.05752 F1239
G1 X75.141 Y82.928 E0.05576 F2212
G1 X75.473 Y82.128 E0.02623 F1331
M104 S216
M106 S248
G1 X75.479 Y80.510 E0.04909 F1940
G1 X75.403 Y82.294 E0.03602 F1322
G1 X75.996 Y81.241 E0.03361 F1604
G1 X75.995 Y80.488 E0.03273 F1599
G1 X77.345 Y80.124 E0.03177 F1476
G1 X78.714 Y78.960 E0.04377 F2300
G1 X78.293 Y77.119 E0.02678 F2049
G1 X79.222 Y75.776 E0.06151 F1471
G1 X80.262 Y78.436 E0.04177 F2391
G1 X79.738 Y77.050 E0.02547 F2222
G1 X81.228 Y77.955 E0.05141 F1946
G1 X81.369 Y75.093 E0.05403 F1706
G1 X83.933 Y73.907 E0.05169 F1564
G1 X83.381 Y73.652 E0.02825 F1277
G1 X81.991 Y72.524 E0.06572 F1226
G1 X86.345 Y73.908 E0.03674 F1705
G1 X86.588 Y72.328 E0.05300 F1704
G1 X85.405 Y72.152 E0.02977 F1680
G1 X87.326 Y74.893 E0.05611 F2318
G1 X88.170 Y70.700 E0.02492 F1271
G1 X87.082 Y73.480 E0.07514 F1904
G1 X88.247 Y73.019 E0.03957 F1634
G1 X90.051 Y70.490 E0.05505 F1380
G1 X90.286 Y69.770 E0.06841 F2225
G1 X90.962 Y69.956 E0.05903 F1667
G1 X93.209 Y71.492 E0.07742 F1855
G1 X90.239 Y71.517 E0.07640 F1213
G1 X93.609 Y69.870 E0.06737 F2200
G1 X95.260 Y68.596 E0.07598 F2333
G1 X93.317 Y71.761 E0.03833 F1908
G1 X94.290 Y68.537 E0.06242 F2133
G1 X97.336 Y68.684 E0.03025 F1729
G1 X96.596 Y70.155 E0.06698 F1342
G1 X95.439 Y71.758 E0.07124 F2343
G1 X97.482 Y67.862 E0.07729 F1506
G1 X100.046 Y69.796 E0.04982 F1313
G1 X100.084 Y68.986 E0.02174 F2386
G1 X102.190 Y70.660 E0.05983 F2202
G1 X99.569 Y70.364 E0.02314 F2350
G1 X103.140 Y68.503 E0.05284 F2034
G1 X104.549 Y68.887 E0.06688 F1329
G1 X103.573 Y70.106 E0.06841 F1443
G1 X103.595 Y71.324 E0.07006 F2263
G1 X105.426 Y68.856 E0.04593 F1639
G1 X107.506 Y69.441 E0.07805 F1419
G1 X108.281 Y69.164 E0.07494 F1984
G1 X105.966 Y70.037 E0.04807 F2196
G1 X107.497 Y70.890 E0.05213 F1358
G1 X108.806 Y70.455 E0.06969 F2018
G1 X110.577 Y70.892 E0.03968 F1367
M104 S213
G1 X109.143 Y69.431 E0.07583 F2034
G1 X112.683 Y73.373 E0.04569 F2399
G1 X111.233 Y71.599 E0.02370 F1587
G1 X110.547 Y72.753 E0.03049 F2298
G1 X112.662 Y71.160 E0.03397 F2385
G1 X114.077 Y73.563 E0.05375 F1307
G1 X114.573 Y73.753 E0.04761 F1506
G1 X113.797 Y72.451 E0.05709 F1716
G1 X115.914 Y75.830 E0.06591 F1573
G1 X117.931 Y75.051 E0.05200 F1894
G1 X115.354 Y76.412 E0.07066 F1582
G1 X115.524 Y73.346 E0.02175 F2318
G1 X116.284 Y74.752 E0.04116 F1219
G1 X119.178 Y76.851 E0.06428 F1226
G1 X120.008 Y75.896 E0.07330 F2202
G1 X120.712 Y78.381 E0.05250 F2325
G1 X121.345 Y76.771 E0.07228 F1365
G1 X120.689 Y78.666 E0.02424 F1773
G1 X119.813 Y79.692 E0.03744 F1823
G1 X121.843 Y80.978 E0.05062 F2089
G1 X120.911 Y78.456 E0.05883 F1984
G1 X123.085 Y80.243 E0.06580 F2240
G1 X125.344 Y80.051 E0.07473 F1868
G1 X122.721 Y82.131 E0.05004 F2314
G1 X125.993 Y81.183 E0.04779 F1828
M106 S228
G1 X123.287 Y81.095 E0.05701 F1992
G1 X126.668 Y84.959 E0.04570 F1740
G1 X125.207 Y82.909 E0.06218 F1234
G1 X127.687 Y84.596 E0.05534 F2253
G1 X125.607 Y85.401 E0.06032 F2195
G1 X125.910 Y85.892 E0.03714 F1590
G1 X127.502 Y87.189 E0.04941 F2047
G1 X126.671 Y88.412 E0.02307 F1396
G1 X127.421 Y86.712 E0.02584 F1277
G1 X130.080 Y90.395 E0.04544 F1600
G1 X129.123 Y88.982 E0.05713 F1649
G1 X129.056 Y92.073 E0.06534 F1702
G1 X127.940 Y90.603 E0.07167 F1955
G1 X128.506 Y93.094 E0.03076 F2349
G1 X127.433 Y92.975 E0.06924 F2195
G1 X130.361 Y95.101 E0.05563 F1622
G1 X131.514 Y91.965 E0.07637 F1508
G1 X130.682 Y93.065 E0.03007 F1359
G1 X131.148 Y93.812 E0.02764 F1712
G1 X129.269 Y95.227 E0.03928 F1602
G1 X131.830 Y96.959 E0.05978 F2316
G1 X129.530 Y96.753 E0.05905 F1780
G1 X131.164 Y96.527 E0.04148 F2001
G1 X128.801 Y97.715 E0.05799 F1466
; LAYER:4
G1 Z0.800 F720 ; move to layer height
G1 X129.028 Y100.110 E0.06604 F1878
M104 S218
M106 S8
G1 X131.548 Y101.248 E0.07418 F2107
G1 X131.217 Y103.301 E0.06287 F2198
G1 X129.816 Y102.088 E0.07478 F2217
G1 X131.545 Y103.158 E0.03574 F1608
G1 X131.842 Y104.705 E0.04850 F1853
G1 X128.363 Y103.621 E0.04481 F2379
G1 X129.361 Y106.526 E0.03650 F1434
G1 X130.927 Y107.459 E0.02896 F1800
G1 X131.172 Y106.168 E0.07421 F1468
G1 X128.902 Y108.592 E0.04612 F1834
G1 X127.898 Y106.885 E0.05023 F1346
G1 X129.091 Y108.668 E0.06523 F1729
G1 X127.925 Y111.605 E0.04914 F1233
G1 X128.974 Y112.474 E0.06276 F1270
G1 X128.225 Y109.376 E0.07753 F1415
G1 X128.106 Y111.804 E0.02948 F2377
G1 X127.541 Y112.049 E0.05298 F1782
G1 X126.940 Y114.547 E0.06175 F1266
G1 X127.789 Y115.900 E0.04131 F1803
G1 X128.131 Y114.456 E0.02501 F1696
G1 X125.673 Y117.026 E0.07912 F2381
G1 X126.250 Y116.132 E0.04995 F1208
G1 X126.779 Y115.582 E0.03127 F2263
G1 X123.437 Y115.651 E0.05370 F1635
G1 X123.714 Y116.373 E0.02054 F1925
G1 X124.530 Y118.537 E0.03431 F1408
G1 X123.393 Y120.680 E0.05409 F1730
G1 X122.374 Y121.628 E0.03248 F2242
G1 X123.727 Y119.518 E0.05698 F2360
G1 X123.190 Y121.337 E0.02027 F2267
G1 X123.099 Y121.140 E0.05862 F2281
G1 X121.239 Y123.540 E0.04022 F2024
G1 X121.914 Y120.785 E0.05600 F2185
G1 X119.780 Y122.684 E0.06577 F1444
G1 X121.001 Y124.110 E0.03944 F1514
G1 X120.008 Y125.565 E0.05429 F1219
G1 X119.867 Y122.411 E0.03033 F1561
G1 X116.780 Y124.553 E0.03740 F1255
G1 X117.022 Y125.428 E0.06502 F1640
G1 X115.992 Y124.024 E0.04032 F2142
G1 X114.541 Y127.969 E0.02607 F1352
G1 X113.833 Y126.319 E0.02034 F1607
G1 X115.886 Y127.481 E0.02347 F1951
G1 X111.636 Y128.300 E0.04353 F2092
G1 X114.429 Y125.899 E0.04329 F1680
G1 X113.525 Y127.313 E0.05032 F1343
G1 X110.173 Y129.976 E0.05586 F1285
G1 X110.178 Y126.994 E0.03555 F2240
G1 X112.020 Y127.738 E0.03432 F1850
G1 X110.677 Y129.801 E0.05570 F1947
M104 S217
G1 X108.290 Y129.440 E0.05503 F2310
G1 X107.644 Y128.120 E0.04489 F2263
G1 X107.712 Y129.716 E0.04210 F1382
G1 X106.973 Y131.339 E0.02120 F1633
G1 X104.150 Y129.878 E0.05546 F2098
G1 X105.302 Y130.367 E0.04667 F2163
G1 X105.235 Y130.105 E0.07046 F2259
G1 X103.324 Y128.567 E0.05335 F1866
G1 X101.264 Y130.527 E0.07994 F2294
G1 X102.141 Y129.160 E0.05129 F2381
G1 X101.804 Y131.275 E0.05047 F1675
G1 X99.111 Y129.101 E0.04328 F1563
G1 X98.990 Y131.469 E0.04170 F1639
G1 X99.658 Y128.896 E0.02506 F1557
G1 X98.151 Y128.708 E0.04542 F1960
G1 X98.767 Y128.834 E0.03177 F1469
G1 X97.635 Y131.352 E0.04858 F1441
G1 X95.981 Y131.456 E0.07033 F1653
G1 X96.183 Y128.156 E0.06962 F2039
G1 X94.193 Y128.836 E0.02241 F1481
G1 X93.009 Y131.166 E0.06391 F2181
G1 X91.631 Y128.981 E0.06490 F1535
G1 X92.235 Y130.265 E0.04698 F1548
G1 X91.415 Y127.807 E0.04443 F2104
G1 X91.924 Y128.311 E0.02460 F2026
M106 S50
G1 X88.713 Y127.300 E0.04975 F1552
G1 X88.382 Y127.035 E0.02380 F2334
G1 X89.128 Y126.589 E0.07545 F1685
G1 X88.362 Y128.561 E0.06779 F2240
G1 X86.673 Y127.520 E0.06067 F2344
G1 X86.794 Y129.035 E0.02745 F2043
G1 X85.565 Y125.093 E0.02937 F1769
G1 X86.298 Y127.926 E0.07284 F1691
G1 X84.806 Y126.467 E0.02022 F1299
G1 X83.587 Y127.581 E0.07318 F1985
G1 X84.699 Y125.277 E0.04902 F1960
G1 X81.618 Y124.977 E0.05445 F2288
G1 X81.029 Y124.540 E0.04436 F1421
G1 X80.015 Y123.346 E0.04331 F1880
G1 X81.091 Y121.866 E0.07020 F2154
G1 X81.209 Y123.427 E0.02793 F1496
G1 X79.982 Y123.200 E0.02287 F1661
G1 X77.575 Y120.855 E0.05357 F1432
G1 X77.304 Y120.253 E0.05614 F2296
G1 X75.949 Y119.406 E0.03814 F1674
G1 X78.976 Y121.157 E0.03387 F1746
G1 X78.364 Y121.566 E0.04653 F1811
G1 X77.592 Y120.189 E0.04284 F2144
G1 X74.494 Y120.426 E0.02827 F1475
G1 X75.924 Y116.191 E0.07872 F1920
M104 S217
G1 X76.716 Y115.671 E0.07939 F1870
G1 X76.096 Y118.020 E0.06598 F1670
G1 X75.343 Y114.755 E0.04179 F2289
G1 X71.914 Y114.623 E0.06314 F2326
G1 X75.299 Y115.361 E0.03926 F1780
G1 X74.972 Y112.767 E0.02381 F2243
G1 X70.962 Y114.460 E0.04872 F1317
G1 X71.599 Y111.778 E0.04816 F1966
G1 X72.705 Y113.775 E0.07299 F1944
G1 X70.238 Y112.145 E0.05182 F1489
G1 X71.076 Y110.462 E0.07601 F1944
G1 X72.716 Y111.704 E0.04719 F1761
G1 X71.451 Y110.122 E0.02178 F1342
G1 X70.532 Y108.841 E0.04325 F1327
G1 X72.231 Y107.251 E0.05346 F1867
G1 X72.044 Y107.249 E0.07785 F2273
G1 X70.834 Y106.350 E0.07429 F1748
G1 X70.578 Y105.318 E0.07232 F1770
G1 X70.778 Y103.954 E0.07785 F1573
G1 X70.763 Y103.003 E0.04560 F2353
G1 X68.853 Y101.289 E0.05381 F2343
G1 X70.070 Y102.303 E0.04160 F1778
G1 X70.680 Y100.700 E0.03002 F1545
G1 X69.586 Y99.173 E0.04593 F1892
G1 X70.276 Y101.522 E0.03663 F1271
G1 X68.379 Y99.039 E0.04394 F2009
G1 X69.373 Y98.131 E0.02482 F1597
G1 X69.084 Y98.964 E0.04527 F2150
G1 X69.605 Y96.363 E0.05126 F1864
G1 X69.455 Y97.033 E0.05457 F1270
G1 X70.007 Y96.759 E0.03715 F1804
G1 X69.187 Y92.977 E0.06391 F2253
G1 X71.018 Y94.708 E0.06884 F1941
G1 X71.380 Y92.131 E0.04145 F1637
G1 X71.720 Y92.953 E0.02778 F1481
G1 X72.568 Y93.335 E0.05659 F1878
G1 X71.920 Y89.077 E0.02330 F2286
G1 X69.310 Y89.424 E0.06113 F1828
G1 X71.208 Y87.677 E0.03958 F1996
G1 X72.525 Y87.179 E0.02990 F2394
G1 X72.105 Y87.570 E0.02860 F1626
G1 X71.790 Y88.449 E0.02702 F1489
G1 X73.700 Y85.541 E0.03555 F1764
G1 X71.321 Y85.925 E0.03526 F1545
G1 X72.088 Y86.182 E0.02049 F2316
G1 X72.064 Y84.568 E0.07479 F1954
G1 X74.920 Y83.514 E0.05394 F2088
G1 X74.413 Y83.789 E0.06691 F1934
G1 X74.126 Y83.616 E0.02575 F1793
G1 X75.694 Y83.483 E0.06640 F1578
M104 S213
M106 S156
G1 X74.319 Y81.170 E0.02155 F1860
G1 X77.648 Y82.197 E0.05216 F1436
G1 X76.572 Y78.369 E0.04651 F1428
G1 X78.977 Y78.815 E0.03105 F1752
G1 X77.733 Y80.754 E0.06103 F1730
G1 X77.699 Y77.299 E0.03349 F1784
G1 X77.156 Y79.755 E0.04207 F1496
G1 X78.662 Y77.661 E0.03755 F2376
G1 X81.829 Y77.570 E0.07616 F1717
G1 X82.219 Y76.261 E0.06708 F1882
G1 X83.031 Y75.802 E0.06607 F1977
G1 X80.207 Y76.682 E0.04178 F1725
G1 X83.732 Y76.598 E0.02058 F1380
G1 X84.588 Y75.013 E0.04383 F1406
G1 X84.912 Y74.652 E0.05589 F2098
G1 X82.530 Y74.152 E0.06503 F1986
G1 X84.717 Y73.931 E0.07928 F2189
G1 X86.014 Y74.157 E0.06833 F1410
G1 X84.502 Y74.381 E0.03554 F2267
G1 X87.913 Y71.240 E0.06328 F2101
G1 X89.685 Y73.643 E0.07898 F1983
G1 X89.395 Y71.325 E0.04924 F1668
G1 X90.553 Y70.512 E0.07534 F1454
G1 X91.621 Y72.032 E0.03141 F1777
G1 X90.355 Y69.310 E0.05114 F1667
G1 X89.958 Y72.580 E0.04346 F1771
G1 X93.771 Y72.412 E0.03564 F1570
G1 X94.735 Y72.235 E0.02260 F2137
G1 X92.109 Y69.301 E0.07695 F2311
G1 X93.248 Y68.245 E0.03695 F2065
G1 X93.628 Y68.999 E0.07855 F2178
G1 X94.814 Y68.702 E0.05354 F2169
G1 X95.696 Y70.780 E0.03069 F1651
G1 X98.296 Y68.879 E0.04605 F2161
G1 X96.498 Y71.173 E0.06341 F1635
G1 X98.120 Y71.141 E0.04250 F1326
G1 X97.792 Y69.501 E0.07404 F1600
G1 X102.131 Y68.996 E0.03308 F1965
G1 X103.095 Y70.446 E0.06373 F1262
G1 X103.235 Y71.598 E0.05952 F2018
G1 X103.025 Y68.815 E0.04300 F1924
G1 X104.979 Y68.645 E0.05064 F1712
G1 X105.898 Y71.148 E0.02546 F1263
G1 X103.821 Y68.034 E0.06140 F1910
G1 X104.781 Y71.049 E0.06329 F1822
G1 X105.327 Y69.919 E0.07756 F1887
G1 X107.259 Y69.300 E0.02773 F1613
G1 X106.734 Y71.549 E0.03332 F2294
G1 X109.986 Y71.168 E0.04013 F2330
G1 X107.873 Y70.768 E0.03091 F2333
M104 S211
G1 X111.781 Y72.924 E0.02870 F1796
G1 X109.978 Y70.972 E0.06198 F2147
G1 X112.452 Y70.913 E0.06836 F1770
G1 X110.764 Y73.549 E0.04715 F1959
G1 X112.776 Y73.814 E0.05529 F1960
G1 X111.684 Y71.273 E0.02474 F1593
G1 X113.008 Y72.332 E0.06872 F1307
G1 X113.350 Y75.306 E0.07417 F1408
G1 X114.092 Y72.450 E0.02156 F1858
G1 X114.985 Y73.588 E0.02015 F1484
G1 X118.548 Y75.328 E0.04467 F2009
G1 X115.787 Y74.328 E0.03146 F1932
G1 X117.573 Y75.648 E0.04066 F2050
G1 X119.264 Y76.977 E0.03300 F1648
G1 X120.280 Y75.885 E0.02452 F2011
G1 X118.758 Y77.370 E0.06709 F1479
G1 X121.700 Y76.538 E0.03657 F1596
G1 X122.686 Y76.996 E0.04989 F1458
G1 X120.161 Y79.541 E0.05173 F2172
G1 X121.741 Y79.800 E0.04113 F1573
G1 X122.259 Y80.015 E0.04743 F1381
G1 X123.145 Y81.766 E0.07302 F1355
G1 X121.883 Y81.707 E0.07703 F1303
G1 X125.077 Y81.289 E0.07407 F2101
G1 X124.875 Y83.711 E0.06649 F1218
M106 S111
G1 X124.804 Y80.913 E0.04890 F2104
G1 X124.135 Y81.421 E0.06367 F1823
G1 X126.394 Y84.287 E0.03217 F1201
G1 X127.882 Y86.280 E0.03625 F1740
G1 X127.208 Y85.252 E0.06119 F1934
G1 X125.862 Y84.330 E0.05389 F1370
G1 X128.304 Y85.945 E0.04983 F2119
G1 X125.946 Y88.074 E0.05288 F2266
G1 X126.818 Y88.990 E0.05089 F1751
G1 X126.343 Y87.110 E0.06479 F2008
G1 X128.937 Y88.738 E0.04868 F1685
G1 X127.604 Y92.051 E0.03839 F1831
G1 X130.653 Y91.972 E0.03973 F1435
G1 X128.667 Y91.370 E0.02693 F1989
G1 X127.587 Y94.278 E0.02950 F2209
G1 X129.126 Y94.907 E0.06803 F1635
G1 X129.884 Y93.984 E0.04959 F1420
G1 X131.174 Y94.960 E0.04756 F2209
G1 X131.575 Y94.831 E0.07556 F1220
G1 X129.775 Y94.921 E0.02223 F1898
G1 X129.741 Y97.692 E0.05222 F1778
G1 X129.033 Y97.803 E0.06836 F1536
G1 X129.387 Y98.316 E0.02594 F2336
G1 X130.219 Y100.384 E0.06276 F1358
; LAYER:5
G1 Z1.000 F720 ; move to layer height
G1 X131.681 Y98.709 E0.05891 F1623
M104 S213
M106 S216
G1 X129.640 Y102.725 E0.06433 F1852
G1 X130.979 Y99.878 E0.06208 F2345
G1 X129.020 Y103.709 E0.03466 F1612
G1 X130.365 Y103.607 E0.07904 F1941
G1 X128.401 Y104.695 E0.03258 F1889
G1 X130.109 Y105.284 E0.02524 F2123
G1 X131.180 Y103.901 E0.04444 F1650
G1 X130.696 Y105.216 E0.04570 F1297
G1 X130.306 Y108.039 E0.02582 F1534
G1 X129.948 Y109.193 E0.07246 F1500
G1 X127.816 Y106.835 E0.05566 F1679
G1 X127.747 Y108.014 E0.07024 F1277
G1 X127.830 Y107.829 E0.04876 F1739
G1 X128.946 Y110.788 E0.04489 F2374
G1 X127.882 Y110.936 E0.03987 F1564
G1 X126.514 Y113.051 E0.04816 F2001
G1 X129.682 Y113.267 E0.04647 F1471
G1 X126.701 Y111.656 E0.02453 F1814
G1 X126.543 Y115.664 E0.07429 F2102
G1 X128.058 Y114.002 E0.07936 F2109
G1 X128.336 Y115.602 E0.05017 F1361
G1 X126.162 Y116.006 E0.03132 F2264
G1 X124.469 Y117.353 E0.06265 F1781
G1 X125.897 Y118.081 E0.05637 F1955
G1 X123.035 Y118.708 E0.07192 F1605
G1 X125.922 Y118.310 E0.07704 F1722
G1 X123.850 Y120.905 E0.06839 F1562
G1 X123.906 Y121.264 E0.05836 F2263
G1 X122.305 Y121.940 E0.02948 F2262
G1 X123.731 Y120.363 E0.06920 F1932
G1 X120.551 Y123.335 E0.07179 F1480
G1 X121.256 Y122.108 E0.04321 F1455
G1 X118.779 Y121.701 E0.05562 F1214
G1 X121.587 Y123.438 E0.03454 F1847
G1 X120.388 Y123.017 E0.04981 F2018
G1 X118.530 Y124.394 E0.03234 F1699
G1 X119.360 Y122.582 E0.04726 F1982
G1 X118.946 Y123.743 E0.03386 F2144
G1 X115.674 Y123.492 E0.04821 F1885
G1 X116.117 Y124.685 E0.02869 F1559
G1 X117.615 Y126.953 E0.06406 F2283
G1 X114.946 Y126.857 E0.03541 F2018
G1 X112.655 Y128.774 E0.03507 F1656
G1 X114.067 Y127.774 E0.03709 F1295
G1 X111.875 Y126.718 E0.07140 F1325
G1 X111.783 Y126.001 E0.03621 F2296
G1 X109.704 Y130.195 E0.02251 F1283
G1 X111.831 Y127.182 E0.05509 F1230
G1 X108.596 Y128.186 E0.06482 F2203
G1 X111.257 Y129.154 E0.06850 F2241
M104 S216
G1 X107.364 Y128.827 E0.07473 F1498
G1 X106.792 Y129.630 E0.07515 F1332
G1 X109.186 Y131.374 E0.02188 F1914
G1 X104.676 Y130.440 E0.04204 F2142
G1 X106.027 Y129.952 E0.02698 F2391
G1 X103.268 Y131.132 E0.04101 F1919
G1 X103.397 Y129.820 E0.07735 F2372
G1 X103.354 Y130.357 E0.07845 F2103
G1 X103.383 Y132.022 E0.04568 F1370
G1 X101.562 Y128.884 E0.06078 F2090
G1 X103.096 Y130.193 E0.03321 F1331
G1 X101.384 Y130.334 E0.05047 F1542
G1 X100.678 Y132.033 E0.06930 F2030
G1 X100.098 Y129.141 E0.07178 F1350
G1 X97.994 Y128.911 E0.02802 F1286
G1 X97.697 Y132.129 E0.03691 F1622
G1 X97.816 Y129.851 E0.06577 F1985
G1 X95.101 Y131.338 E0.03453 F2008
G1 X93.515 Y128.160 E0.06681 F1366
G1 X92.740 Y130.959 E0.07795 F1603
G1 X92.002 Y128.694 E0.07779 F1330
G1 X91.672 Y127.701 E0.04253 F1737
G1 X91.940 Y129.852 E0.05075 F1766
G1 X92.449 Y130.419 E0.06581 F2233
G1 X90.906 Y128.129 E0.05114 F2251
M106 S66
G1 X91.324 Y130.051 E0.02031 F2051
G1 X87.609 Y126.807 E0.03537 F2196
G1 X89.805 Y128.764 E0.04973 F1952
G1 X89.340 Y127.966 E0.02658 F1488
G1 X85.046 Y125.730 E0.03664 F1442
G1 X84.661 Y129.218 E0.05984 F1371
G1 X83.795 Y127.917 E0.04796 F1903
G1 X83.960 Y126.308 E0.05812 F1852
G1 X85.901 Y126.492 E0.05164 F1788
G1 X84.184 Y125.851 E0.03497 F1561
G1 X84.697 Y126.191 E0.07861 F1229
G1 X83.216 Y124.461 E0.04666 F2315
G1 X79.775 Y125.551 E0.04828 F1673
G1 X80.862 Y124.671 E0.06240 F1749
G1 X80.240 Y124.169 E0.06256 F1474
G1 X78.844 Y124.201 E0.05544 F1838
G1 X79.984 Y121.611 E0.05447 F1355
G1 X76.961 Y122.281 E0.05121 F1604
G1 X77.856 Y121.057 E0.02439 F2098
G1 X79.029 Y120.758 E0.06914 F1995
G1 X78.877 Y119.322 E0.06524 F1934
G1 X75.118 Y119.783 E0.02634 F1715
G1 X75.579 Y119.492 E0.05227 F1525
G1 X77.652 Y118.928 E0.02396 F1487
G1 X73.727 Y118.730 E0.05496 F1580
M104 S215
G1 X73.905 Y118.165 E0.03784 F1783
G1 X73.785 Y116.815 E0.03255 F2326
G1 X72.998 Y117.896 E0.02132 F2158
G1 X73.543 Y114.968 E0.06377 F1936
G1 X73.460 Y112.990 E0.06335 F2354
G1 X74.609 Y113.765 E0.02616 F2163
G1 X73.707 Y115.098 E0.02617 F1435
G1 X73.700 Y111.375 E0.06674 F1763
G1 X71.075 Y113.836 E0.06415 F1259
G1 X70.654 Y110.427 E0.02631 F1636
G1 X72.447 Y110.839 E0.03912 F1593
G1 X72.505 Y108.370 E0.07622 F1522
G1 X70.132 Y109.220 E0.06334 F1721
G1 X69.924 Y106.818 E0.04428 F1937
G1 X68.789 Y107.415 E0.07189 F2164
G1 X72.107 Y105.718 E0.04651 F1292
G1 X71.848 Y107.609 E0.02204 F2143
G1 X71.124 Y104.974 E0.04021 F2008
G1 X67.967 Y105.345 E0.05992 F1654
G1 X71.654 Y104.558 E0.05776 F1982
G1 X69.978 Y103.955 E0.07857 F1591
G1 X71.475 Y100.985 E0.05023 F1730
G1 X69.289 Y103.323 E0.06775 F1718
G1 X70.286 Y99.805 E0.02561 F1854
G1 X70.608 Y99.751 E0.07391 F1466
G1 X69.647 Y98.886 E0.04949 F1412
G1 X67.612 Y99.023 E0.04586 F2200
G1 X69.725 Y98.375 E0.03374 F1838
G1 X70.323 Y96.981 E0.07695 F2148
G1 X69.185 Y96.504 E0.07861 F1524
G1 X68.973 Y97.066 E0.02508 F2367
G1 X71.808 Y96.139 E0.02148 F2208
G1 X69.403 Y93.444 E0.02227 F1596
G1 X70.457 Y91.820 E0.04135 F1577
G1 X71.663 Y94.342 E0.05792 F1671
G1 X72.008 Y93.578 E0.05611 F1447
G1 X71.058 Y90.718 E0.04985 F1765
G1 X72.489 Y89.305 E0.04801 F1330
G1 X70.503 Y89.226 E0.02780 F2288
G1 X70.134 Y87.856 E0.05939 F2002
G1 X70.187 Y89.097 E0.02824 F1703
G1 X73.645 Y85.928 E0.05433 F1626
G1 X71.217 Y84.951 E0.04325 F1860
G1 X73.463 Y85.883 E0.03221 F1515
G1 X74.122 Y85.504 E0.04902 F1392
G1 X73.695 Y85.576 E0.06647 F1960
G1 X72.712 Y85.443 E0.05010 F2105
G1 X75.444 Y84.476 E0.07784 F1717
G1 X74.453 Y83.687 E0.06055 F1878
G1 X74.691 Y83.290 E0.02775 F2383
M104 S219
M106 S214
G1 X74.812 Y81.356 E0.06273 F1492
G1 X75.351 Y80.744 E0.06719 F1481
G1 X77.820 Y81.822 E0.07372 F1820
G1 X76.045 Y79.656 E0.07901 F1541
G1 X79.454 Y80.553 E0.06212 F1729
G1 X79.215 Y79.336 E0.03089 F1262
G1 X79.352 Y77.053 E0.02672 F1271
G1 X81.103 Y78.559 E0.04659 F2354
G1 X80.883 Y78.177 E0.07147 F1455
G1 X79.631 Y76.835 E0.02658 F2235
G1 X80.540 Y77.091 E0.03361 F2001
G1 X81.144 Y73.610 E0.02227 F2105
G1 X80.466 Y76.272 E0.02404 F2359
G1 X81.199 Y72.723 E0.07088 F1846
G1 X83.996 Y73.902 E0.03473 F1884
G1 X83.883 Y74.214 E0.07965 F2172
G1 X84.727 Y73.218 E0.03213 F1827
G1 X85.322 Y71.846 E0.03301 F2002
G1 X84.409 Y74.245 E0.07491 F1904
G1 X88.730 Y70.949 E0.04764 F1745
G1 X88.423 Y71.561 E0.02043 F1445
G1 X89.491 Y71.480 E0.02703 F2085
G1 X89.947 Y72.164 E0.05203 F1405
G1 X88.040 Y72.042 E0.02856 F2056
G1 X91.789 Y71.875 E0.07591 F1526
G1 X89.456 Y70.028 E0.03975 F2085
G1 X90.448 Y72.377 E0.06762 F2265
G1 X92.916 Y69.688 E0.06970 F1216
G1 X92.052 Y70.617 E0.02936 F1835
G1 X94.240 Y69.618 E0.06834 F1901
G1 X94.756 Y70.250 E0.03680 F2393
G1 X95.336 Y69.992 E0.07065 F2193
G1 X96.960 Y70.164 E0.06512 F1230
G1 X98.178 Y71.511 E0.03360 F1774
G1 X96.579 Y68.001 E0.05632 F1422
G1 X99.812 Y70.654 E0.05638 F1589
G1 X98.605 Y69.883 E0.03194 F1691
G1 X102.065 Y67.544 E0.07621 F1756
G1 X99.205 Y67.689 E0.04421 F1622
G1 X100.924 Y68.894 E0.07386 F1505
G1 X102.603 Y68.387 E0.03077 F2253
G1 X102.403 Y71.035 E0.07446 F1597
G1 X102.582 Y68.036 E0.04407 F2087
G1 X105.981 Y70.396 E0.02834 F2341
G1 X106.883 Y69.451 E0.07444 F1835
G1 X104.661 Y69.444 E0.04267 F1725
G1 X105.914 Y72.267 E0.02122 F1837
G1 X106.682 Y70.159 E0.03879 F1235
G1 X108.996 Y68.767 E0.02723 F1843
G1 X109.704 Y72.121 E0.07044 F2312
M104 S216
G1 X109.406 Y69.313 E0.02837 F2232
G1 X111.664 Y70.124 E0.03145 F1392
G1 X112.812 Y70.743 E0.02487 F2159
G1 X113.468 Y72.462 E0.07758 F2198
G1 X111.422 Y71.221 E0.03488 F2026
G1 X113.236 Y71.752 E0.05932 F2094
G1 X112.781 Y73.137 E0.06547 F2143
G1 X113.634 Y74.482 E0.06501 F2098
G1 X115.922 Y75.833 E0.04810 F1515
G1 X117.755 Y74.715 E0.05664 F1326
G1 X118.403 Y73.791 E0.07890 F2298
G1 X117.438 Y75.038 E0.04987 F1514
G1 X118.135 Y74.495 E0.03432 F2056
G1 X120.253 Y76.724 E0.04110 F1274
G1 X118.629 Y74.881 E0.02296 F2184
G1 X118.464 Y78.159 E0.07753 F2009
G1 X118.652 Y76.614 E0.07350 F2261
G1 X121.050 Y76.416 E0.05057 F1758
G1 X123.661 Y78.189 E0.06899 F1621
G1 X121.276 Y77.545 E0.04419 F1526
G1 X123.319 Y79.320 E0.02091 F2312
G1 X124.840 Y80.374 E0.07723 F2205
G1 X122.529 Y82.193 E0.03803 F1549
G1 X125.380 Y81.909 E0.04300 F2140
G1 X123.182 Y82.930 E0.02026 F1845
M106 S152
G1 X124.318 Y80.883 E0.06728 F2292
G1 X126.136 Y84.614 E0.03430 F1693
G1 X126.889 Y82.068 E0.04523 F1433
G1 X126.670 Y86.093 E0.02856 F1532
G1 X125.128 Y86.673 E0.05455 F1392
G1 X125.523 Y86.748 E0.03678 F2393
G1 X126.085 Y87.333 E0.06625 F1260
G1 X127.153 Y86.929 E0.02407 F2359
G1 X126.922 Y89.458 E0.05328 F1386
G1 X129.256 Y87.832 E0.05541 F2195
G1 X128.283 Y88.026 E0.03956 F1815
G1 X129.637 Y90.146 E0.05704 F1419
G1 X131.079 Y92.098 E0.03231 F1291
G1 X128.909 Y93.102 E0.07872 F1371
G1 X129.103 Y90.808 E0.02585 F2178
G1 X130.999 Y92.062 E0.04085 F2157
G1 X130.075 Y94.097 E0.06384 F1998
G1 X128.757 Y95.323 E0.07402 F1900
G1 X128.717 Y94.673 E0.06496 F1312
G1 X129.196 Y95.888 E0.04348 F1200
G1 X131.584 Y96.652 E0.06168 F1822
G1 X128.841 Y99.048 E0.05426 F1468
G1 X130.687 Y100.192 E0.05677 F1992
G1 X131.038 Y100.264 E0.06127 F1585
; LAYER:6
G1 Z1.200 F720 ; move to layer height
G1 X131.994 Y99.197 E0.04205 F1836
M104 S210
M106 S252
G1 X131.815 Y102.118 E0.06733 F2050
G1 X128.899 Y101.201 E0.06820 F1620
G1 X130.353 Y101.578 E0.02679 F2154
G1 X130.188 Y104.897 E0.04225 F1252
G1 X130.948 Y105.519 E0.06616 F2273
G1 X130.521 Y106.372 E0.05593 F1471
G1 X130.385 Y105.585 E0.03346 F2224
G1 X129.528 Y107.677 E0.07228 F2182
G1 X129.424 Y106.830 E0.04943 F2306
G1 X128.298 Y108.138 E0.02927 F1948
G1 X130.816 Y110.037 E0.03929 F2228
G1 X129.059 Y110.351 E0.04192 F2064
G1 X130.305 Y108.204 E0.07324 F1290
G1 X130.045 Y111.765 E0.07408 F1637
G1 X129.315 Y110.195 E0.04986 F1994
G1 X129.510 Y112.985 E0.03734 F1274
G1 X129.329 Y111.492 E0.05508 F1758
G1 X125.876 Y115.314 E0.05331 F1696
G1 X125.879 Y114.979 E0.02954 F2227
G1 X126.948 Y115.932 E0.07777 F1469
G1 X125.734 Y115.420 E0.05207 F2030
G1 X127.809 Y115.936 E0.07443 F2059
G1 X127.240 Y116.486 E0.07056 F1925
G1 X124.566 Y118.161 E0.05832 F2041
G1 X124.838 Y116.080 E0.06342 F2323
G1 X122.994 Y119.440 E0.07877 F2095
G1 X123.566 Y121.153 E0.07366 F1352
G1 X123.430 Y119.585 E0.05564 F2058
G1 X121.987 Y121.724 E0.07573 F1472
G1 X123.052 Y122.822 E0.02385 F2173
G1 X121.090 Y121.379 E0.04009 F1344
G1 X122.846 Y120.364 E0.06438 F1220
G1 X119.095 Y121.235 E0.03121 F1406
G1 X118.692 Y122.412 E0.02017 F1492
G1 X121.037 Y124.554 E0.02537 F2200
G1 X118.144 Y125.819 E0.02861 F1721
G1 X116.456 Y122.662 E0.05321 F1666
G1 X117.411 Y124.428 E0.03354 F1570
G1 X119.040 Y124.206 E0.06424 F2194
G1 X116.728 Y124.513 E0.04885 F1975
G1 X114.604 Y125.758 E0.05810 F2255
G1 X114.527 Y126.650 E0.07347 F1379
G1 X115.306 Y127.834 E0.06309 F1383
G1 X114.998 Y127.498 E0.05623 F2398
G1 X111.361 Y127.802 E0.05756 F1979
G1 X113.084 Y126.930 E0.04061 F2303
G1 X112.469 Y127.637 E0.04986 F2269
G1 X110.632 Y128.321 E0.05392 F1310
G1 X111.716 Y127.537 E0.04355 F1879
G1 X107.516 Y130.762 E0.06813 F1311
M104 S211
G1 X108.816 Y130.963 E0.06716 F1544
G1 X107.096 Y131.041 E0.07449 F2090
G1 X108.448 Y129.181 E0.03103 F1309
G1 X107.889 Y128.006 E0.06908 F1321
G1 X104.760 Y129.895 E0.05824 F1756
G1 X106.148 Y131.720 E0.07762 F2321
G1 X105.298 Y131.884 E0.04109 F1278
G1 X105.063 Y128.429 E0.02679 F1919
G1 X102.812 Y130.670 E0.02421 F2078
G1 X100.339 Y131.169 E0.03841 F2001
G1 X102.389 Y129.207 E0.03342 F1830
G1 X99.050 Y130.282 E0.04052 F1798
G1 X99.437 Y129.898 E0.04011 F1353
G1 X100.709 Y130.231 E0.07815 F2192
G1 X96.557 Y130.597 E0.02076 F2394
G1 X98.409 Y130.076 E0.06148 F1862
G1 X96.985 Y130.079 E0.02615 F1541
G1 X94.412 Y129.351 E0.05298 F1458
G1 X95.663 Y129.496 E0.07681 F1595
G1 X92.899 Y130.809 E0.04753 F1645
G1 X92.759 Y128.377 E0.05044 F2216
G1 X94.291 Y128.619 E0.07095 F2225
G1 X90.467 Y130.946 E0.03282 F2168
G1 X92.856 Y130.149 E0.07620 F2281
G1 X90.941 Y127.409 E0.02537 F1909
M106 S40
G1 X88.298 Y129.466 E0.05553 F1900
G1 X90.693 Y130.127 E0.05097 F1901
G1 X88.761 Y128.495 E0.02247 F2118
G1 X86.700 Y126.481 E0.07091 F1551
G1 X84.998 Y126.487 E0.03177 F1871
G1 X85.992 Y126.330 E0.02646 F1610
G1 X85.690 Y126.350 E0.02298 F2303
G1 X84.705 Y125.005 E0.06510 F1951
G1 X85.440 Y125.328 E0.03670 F2006
G1 X85.600 Y126.648 E0.07473 F2172
G1 X84.419 Y124.139 E0.02159 F1211
G1 X83.833 Y124.509 E0.07669 F1943
G1 X83.537 Y122.890 E0.03664 F1270
G1 X82.183 Y126.002 E0.02319 F1627
G1 X78.764 Y122.379 E0.03413 F1334
G1 X78.019 Y121.095 E0.04593 F1203
G1 X78.180 Y121.906 E0.03312 F2387
G1 X79.781 Y120.053 E0.07930 F1619
G1 X76.844 Y122.847 E0.05681 F2049
G1 X77.303 Y119.341 E0.05874 F2238
G1 X77.442 Y121.648 E0.06502 F1850
G1 X77.645 Y121.180 E0.04131 F2001
G1 X77.319 Y118.364 E0.05070 F1662
G1 X76.641 Y120.095 E0.02375 F1289
G1 X73.828 Y119.024 E0.03903 F1955
M104 S215
G1 X76.577 Y115.704 E0.02994 F1842
G1 X76.003 Y115.676 E0.06176 F2129
G1 X75.784 Y117.317 E0.04805 F2173
G1 X74.522 Y115.790 E0.02819 F1622
G1 X74.691 Y113.754 E0.02867 F1563
G1 X74.577 Y113.259 E0.02184 F2262
G1 X72.443 Y112.313 E0.05865 F2191
G1 X71.510 Y113.854 E0.07295 F1940
G1 X71.872 Y110.571 E0.04599 F1823
G1 X72.123 Y111.387 E0.06823 F1719
G1 X70.981 Y109.888 E0.03245 F1395
G1 X70.798 Y109.575 E0.03412 F1464
G1 X71.399 Y107.394 E0.06042 F1592
G1 X69.422 Y109.008 E0.06503 F1694
G1 X70.186 Y105.779 E0.07704 F1360
G1 X68.526 Y107.076 E0.02674 F2000
G1 X69.320 Y104.852 E0.07390 F1330
G1 X70.284 Y104.345 E0.07495 F1294
G1 X71.130 Y103.327 E0.05949 F1606
G1 X68.246 Y104.107 E0.06513 F2317
G1 X68.784 Y104.481 E0.04815 F1720
G1 X70.976 Y100.475 E0.04187 F1892
G1 X68.215 Y101.328 E0.02897 F1694
G1 X67.975 Y98.895 E0.07054 F1999
G1 X70.536 Y100.963 E0.04741 F1488
G1 X67.508 Y101.208 E0.02891 F1599
G1 X68.280 Y98.075 E0.06035 F1844
G1 X67.594 Y99.326 E0.06415 F1712
G1 X67.913 Y97.648 E0.06268 F1707
G1 X69.268 Y95.989 E0.04469 F1571
G1 X68.068 Y94.539 E0.06640 F1333
G1 X69.300 Y94.219 E0.07952 F1679
G1 X69.760 Y92.470 E0.06020 F1598
G1 X69.950 Y92.847 E0.07985 F1489
G1 X71.797 Y93.422 E0.05526 F2013
G1 X70.412 Y93.421 E0.05746 F2205
G1 X69.011 Y89.733 E0.05591 F1631
G1 X71.878 Y89.687 E0.03567 F2160
G1 X69.476 Y88.225 E0.02722 F2038
G1 X70.897 Y88.089 E0.03914 F2301
G1 X70.507 Y86.500 E0.04712 F2018
G1 X72.951 Y88.457 E0.04375 F1928
G1 X72.230 Y85.281 E0.03554 F1654
G1 X73.798 Y87.302 E0.07796 F1204
G1 X75.144 Y85.455 E0.05156 F1837
G1 X73.265 Y85.299 E0.04385 F1238
G1 X74.782 Y85.884 E0.05048 F2105
G1 X75.507 Y81.524 E0.03220 F1346
G1 X76.320 Y81.773 E0.03841 F1442
G1 X75.009 Y82.581 E0.02672 F1254
M104 S218
M106 S181
G1 X74.605 Y80.504 E0.03167 F1438
G1 X76.075 Y79.136 E0.04809 F1349
G1 X77.524 Y79.453 E0.07815 F1818
G1 X78.875 Y79.841 E0.04600 F1907
G1 X76.312 Y78.557 E0.04045 F1509
G1 X76.739 Y79.094 E0.03447 F1866
G1 X78.855 Y76.077 E0.07949 F1385
G1 X77.755 Y76.673 E0.04801 F1609
G1 X80.223 Y75.863 E0.03275 F1771
G1 X78.889 Y76.063 E0.03456 F1517
G1 X81.828 Y74.640 E0.05659 F1959
G1 X83.699 Y74.872 E0.03159 F2367
G1 X83.235 Y74.534 E0.07426 F1725
G1 X84.397 Y72.705 E0.04879 F1816
G1 X85.012 Y75.414 E0.06242 F2213
G1 X85.366 Y72.265 E0.05133 F2204
G1 X85.029 Y73.401 E0.04866 F2204
G1 X86.319 Y72.104 E0.05951 F1961
G1 X87.104 Y73.133 E0.05410 F1840
G1 X85.597 Y71.172 E0.02747 F2098
G1 X86.253 Y73.229 E0.05773 F2176
G1 X89.505 Y71.646 E0.07669 F1572
G1 X87.779 Y73.129 E0.06982 F1320
G1 X91.709 Y71.963 E0.05977 F1921
G1 X89.329 Y71.697 E0.02978 F2170
G1 X91.916 Y72.296 E0.05967 F1461
G1 X91.362 Y70.560 E0.07159 F1617
G1 X92.183 Y69.213 E0.04177 F1846
G1 X94.409 Y71.839 E0.04254 F2129
G1 X93.654 Y69.514 E0.05035 F1983
G1 X94.890 Y70.490 E0.06335 F1682
G1 X97.386 Y69.067 E0.04338 F2207
G1 X97.516 Y68.778 E0.05098 F1767
G1 X97.385 Y71.059 E0.07871 F1335
G1 X96.425 Y71.027 E0.04917 F1788
G1 X98.034 Y71.210 E0.06536 F1289
G1 X99.215 Y71.149 E0.07971 F2356
G1 X101.908 Y69.100 E0.04746 F1204
G1 X102.732 Y68.731 E0.07379 F1908
G1 X101.295 Y67.466 E0.06422 F1686
G1 X102.358 Y70.538 E0.06501 F1319
G1 X104.561 Y69.496 E0.07787 F2262
G1 X104.364 Y70.157 E0.06900 F1960
G1 X105.476 Y68.516 E0.02186 F1760
G1 X104.737 Y69.585 E0.07115 F1966
G1 X105.753 Y71.937 E0.02706 F1579
G1 X108.952 Y70.811 E0.02017 F1773
G1 X108.432 Y69.629 E0.04530 F1770
G1 X109.345 Y71.294 E0.07298 F1672
G1 X109.921 Y70.107 E0.07922 F1415
M104 S220
G1 X110.784 Y70.823 E0.07760 F1332
G1 X109.206 Y73.054 E0.02989 F1470
G1 X109.771 Y73.617 E0.06104 F1555
G1 X110.382 Y70.327 E0.06478 F2382
G1 X115.028 Y73.911 E0.05153 F1659
G1 X113.424 Y71.591 E0.03031 F2208
G1 X115.137 Y71.882 E0.07509 F1887
G1 X116.896 Y74.628 E0.02212 F1911
G1 X115.465 Y73.991 E0.07341 F2167
G1 X117.425 Y72.880 E0.02005 F1795
G1 X116.131 Y75.783 E0.04436 F2029
G1 X119.430 Y75.191 E0.02255 F2287
G1 X119.987 Y75.185 E0.02270 F1477
G1 X120.191 Y77.424 E0.06648 F1849
G1 X117.603 Y76.417 E0.07723 F2305
G1 X120.157 Y75.275 E0.04699 F1407
G1 X120.033 Y78.960 E0.03823 F1461
G1 X119.566 Y77.049 E0.04430 F1639
G1 X123.359 Y79.884 E0.04790 F2049
G1 X123.523 Y78.427 E0.04247 F1675
G1 X123.986 Y80.007 E0.03678 F1695
G1 X121.567 Y81.378 E0.06768 F1304
G1 X124.747 Y79.264 E0.02156 F2297
G1 X124.419 Y80.394 E0.04198 F1793
G1 X124.514 Y83.863 E0.03814 F2233
M106 S143
G1 X124.317 Y84.138 E0.07483 F2226
G1 X126.013 Y84.003 E0.05110 F1977
G1 X124.215 Y84.259 E0.05555 F2391
G1 X126.261 Y83.866 E0.07049 F2343
G1 X126.713 Y85.937 E0.04033 F2189
G1 X126.471 Y86.284 E0.02200 F2228
G1 X126.840 Y87.290 E0.06541 F2009
G1 X126.996 Y87.810 E0.05533 F1352
G1 X127.596 Y86.285 E0.05910 F1298
G1 X128.599 Y87.726 E0.05670 F1356
G1 X127.747 Y88.401 E0.05093 F2092
G1 X129.487 Y88.607 E0.03549 F2305
G1 X127.847 Y92.019 E0.05817 F2269
G1 X127.707 Y93.392 E0.05743 F2005
G1 X129.908 Y90.787 E0.02515 F1859
G1 X130.834 Y94.916 E0.04874 F1966
G1 X129.786 Y93.447 E0.03772 F1619
G1 X130.117 Y92.792 E0.02804 F1733
G1 X131.227 Y94.394 E0.02931 F1792
G1 X129.727 Y95.184 E0.05205 F1729
G1 X130.812 Y96.742 E0.05503 F1733
G1 X132.406 Y96.435 E0.04772 F1397
G1 X129.133 Y99.313 E0.02651 F1736
G1 X131.402 Y100.782 E0.04673 F2202
; LAYER:7
G1 Z1.400 F720 ; move to layer height
G1 X130.212 Y101.594 E0.03270 F2292
M104 S211
M106 S142
G1 X129.181 Y101.698 E0.07408 F2119
G1 X129.958 Y100.435 E0.07919 F1450
G1 X130.901 Y103.020 E0.05325 F1405
G1 X130.757 Y102.169 E0.03246 F1454
G1 X132.196 Y105.612 E0.02576 F1470
G1 X131.785 Y104.160 E0.02554 F1268
G1 X128.540 Y104.835 E0.06844 F2039
G1 X131.395 Y104.776 E0.03676 F1875
G1 X131.835 Y107.665 E0.07655 F2073
G1 X128.822 Y109.071 E0.03640 F1660
G1 X130.442 Y107.583 E0.06226 F1353
G1 X128.554 Y111.096 E0.07913 F2137
G1 X130.069 Y107.984 E0.06317 F1765
G1 X129.644 Y110.418 E0.05208 F2242
G1 X129.185 Y111.385 E0.06590 F1306
G1 X126.942 Y110.878 E0.04834 F2390
G1 X126.800 Y111.548 E0.04443 F1731
G1 X127.527 Y114.482 E0.05236 F2018
G1 X125.584 Y113.328 E0.02352 F1683
G1 X125.793 Y114.638 E0.02644 F2099
G1 X124.532 Y115.321 E0.05994 F2399
G1 X127.577 Y116.628 E0.02308 F1523
G1 X127.659 Y116.791 E0.02855 F2165
G1 X125.721 Y118.572 E0.02927 F1531
G1 X123.735 Y118.699 E0.05843 F1932
G1 X125.410 Y117.604 E0.03019 F2122
G1 X123.502 Y118.898 E0.06452 F1317
G1 X124.231 Y120.493 E0.02160 F1342
G1 X124.794 Y120.955 E0.02038 F1996
G1 X121.953 Y120.842 E0.02799 F1252
G1 X120.072 Y120.132 E0.05767 F2079
G1 X121.358 Y120.962 E0.04105 F1402
G1 X119.092 Y122.065 E0.04197 F1817
G1 X121.705 Y121.533 E0.04670 F1225
G1 X120.614 Y125.088 E0.02977 F1846
G1 X118.194 Y123.664 E0.06849 F1824
G1 X120.237 Y122.890 E0.04297 F1787
G1 X117.376 Y123.320 E0.02715 F1923
G1 X118.386 Y125.985 E0.04997 F1253
G1 X115.257 Y126.481 E0.04151 F2368
G1 X115.393 Y124.784 E0.04824 F2052
G1 X115.572 Y127.064 E0.03360 F1280
G1 X115.691 Y127.419 E0.05148 F1953
G1 X115.320 Y126.144 E0.06067 F1619
G1 X111.310 Y126.582 E0.06190 F1908
G1 X112.500 Y126.820 E0.04536 F1984
G1 X113.035 Y127.146 E0.04669 F1719
G1 X109.145 Y127.412 E0.05930 F1291
G1 X109.017 Y129.125 E0.03674 F2205
G1 X109.103 Y128.443 E0.05482 F1282
M104 S210
G1 X108.383 Y131.296 E0.04142 F2358
G1 X109.716 Y129.427 E0.04160 F1210
G1 X107.062 Y130.812 E0.02196 F1631
G1 X104.919 Y128.104 E0.05239 F1828
G1 X107.146 Y131.627 E0.03635 F1361
G1 X105.202 Y130.282 E0.05111 F1917
G1 X105.519 Y130.552 E0.05164 F1503
G1 X104.220 Y131.921 E0.07122 F1764
G1 X104.447 Y131.724 E0.03416 F1999
G1 X101.774 Y129.029 E0.04861 F1780
G1 X102.500 Y129.736 E0.04576 F2213
G1 X99.171 Y130.916 E0.06308 F1660
G1 X101.539 Y128.980 E0.05925 F2313
G1 X99.281 Y131.273 E0.03045 F2318
G1 X97.966 Y129.302 E0.02069 F1323
G1 X95.370 Y128.728 E0.04929 F2400
G1 X95.732 Y130.653 E0.06371 F1569
G1 X95.033 Y130.636 E0.06388 F2097
G1 X96.979 Y131.877 E0.07170 F1939
G1 X96.194 Y128.224 E0.02792 F1437
G1 X93.084 Y129.699 E0.03048 F2147
G1 X94.293 Y129.413 E0.05596 F2137
G1 X93.757 Y131.598 E0.07276 F2096
G1 X90.036 Y129.969 E0.02596 F2361
G1 X90.822 Y128.207 E0.07028 F1634
M106 S214
G1 X89.998 Y130.028 E0.07533 F1268
G1 X87.667 Y129.884 E0.02151 F1983
G1 X88.153 Y129.583 E0.03307 F2228
G1 X89.182 Y127.410 E0.07500 F1240
G1 X86.638 Y127.045 E0.04552 F2144
G1 X87.525 Y128.748 E0.06979 F1631
G1 X85.754 Y127.504 E0.03286 F2328
G1 X85.767 Y127.013 E0.06566 F2155
G1 X84.561 Y127.193 E0.06979 F2138
G1 X83.201 Y126.102 E0.07749 F1703
G1 X84.644 Y127.207 E0.04404 F1774
G1 X83.466 Y126.393 E0.04532 F2126
G1 X81.265 Y124.386 E0.03547 F1986
G1 X81.345 Y124.184 E0.04889 F1692
G1 X80.154 Y122.868 E0.03723 F2302
G1 X80.956 Y121.805 E0.07433 F1432
G1 X80.529 Y121.956 E0.06778 F1651
G1 X79.316 Y122.240 E0.07536 F1437
G1 X77.970 Y120.257 E0.03094 F1378
G1 X77.430 Y122.064 E0.07835 F2340
G1 X76.459 Y120.006 E0.02228 F2192
G1 X74.677 Y118.512 E0.02863 F2392
G1 X76.646 Y118.654 E0.06178 F2190
G1 X75.637 Y119.619 E0.06531 F1927
G1 X76.412 Y117.192 E0.04490 F1769
M104 S213
G1 X73.814 Y115.559 E0.07704 F1542
G1 X74.438 Y117.176 E0.04945 F2001
G1 X74.879 Y115.245 E0.03734 F1752
G1 X71.682 Y116.969 E0.06660 F1437
G1 X72.634 Y114.510 E0.06149 F2379
G1 X72.594 Y115.709 E0.06092 F1548
G1 X71.215 Y112.385 E0.02670 F2002
G1 X71.210 Y113.788 E0.07180 F2191
G1 X72.277 Y111.981 E0.05300 F2297
G1 X71.162 Y110.341 E0.04830 F2026
G1 X72.227 Y109.874 E0.06459 F1879
G1 X70.926 Y111.061 E0.04659 F2061
G1 X71.798 Y109.287 E0.06932 F1710
G1 X70.092 Y108.305 E0.06887 F1609
G1 X68.625 Y108.108 E0.06059 F2147
G1 X71.350 Y108.477 E0.02218 F1677
G1 X70.807 Y107.669 E0.02318 F1316
G1 X69.611 Y104.523 E0.05491 F1533
G1 X70.006 Y104.198 E0.06677 F1734
G1 X69.309 Y105.459 E0.06068 F2051
G1 X67.823 Y104.933 E0.04327 F2355
G1 X70.594 Y103.801 E0.07713 F2293
G1 X68.124 Y99.704 E0.06380 F2159
G1 X69.245 Y101.090 E0.05267 F1440
G1 X68.319 Y99.809 E0.05671 F1470
G1 X68.676 Y99.439 E0.03508 F1531
G1 X67.403 Y98.938 E0.05881 F1454
G1 X69.765 Y99.127 E0.02809 F1672
G1 X71.245 Y97.436 E0.05745 F2115
G1 X67.960 Y95.791 E0.07668 F2033
G1 X69.526 Y96.385 E0.07695 F1427
G1 X67.927 Y94.748 E0.04450 F1299
G1 X71.684 Y93.172 E0.05629 F1765
G1 X69.994 Y91.987 E0.06393 F1392
G1 X71.986 Y91.123 E0.03568 F1363
G1 X68.925 Y93.439 E0.02638 F1743
G1 X70.765 Y91.705 E0.04275 F1328
G1 X72.347 Y92.099 E0.06536 F1313
G1 X69.565 Y90.900 E0.04470 F1592
G1 X71.915 Y87.617 E0.06263 F2159
G1 X71.378 Y89.260 E0.04816 F1692
G1 X72.641 Y89.018 E0.02952 F2290
G1 X71.264 Y84.709 E0.04380 F1903
G1 X70.901 Y86.551 E0.03380 F1210
G1 X72.884 Y86.160 E0.06088 F1225
G1 X71.864 Y82.880 E0.02876 F2200
G1 X74.930 Y83.761 E0.05776 F1436
G1 X73.800 Y82.112 E0.04833 F1976
G1 X76.022 Y83.987 E0.06671 F1840
G1 X75.729 Y82.360 E0.06634 F2325
M104 S215
M106 S23
G1 X74.455 Y79.825 E0.03204 F1406
G1 X74.246 Y80.877 E0.02967 F1395
G1 X78.450 Y79.340 E0.05735 F1320
G1 X75.398 Y78.802 E0.06165 F1443
G1 X79.112 Y77.162 E0.04118 F1743
G1 X78.923 Y79.383 E0.02802 F1452
G1 X78.718 Y77.577 E0.04337 F1597
G1 X80.118 Y78.466 E0.07522 F1247
G1 X81.580 Y77.023 E0.03703 F2116
G1 X79.354 Y75.592 E0.06829 F1302
G1 X82.105 Y76.701 E0.02573 F2001
G1 X82.847 Y74.376 E0.03336 F1615
G1 X81.336 Y76.751 E0.03517 F2169
G1 X81.038 Y74.859 E0.05000 F1651
G1 X84.595 Y72.165 E0.02087 F2308
G1 X86.014 Y75.665 E0.02559 F1579
G1 X83.593 Y74.856 E0.02812 F1926
G1 X84.048 Y71.606 E0.06024 F2352
G1 X85.380 Y72.541 E0.07742 F2201
G1 X85.611 Y72.038 E0.07342 F1873
G1 X87.678 Y73.610 E0.03849 F1394
G1 X89.637 Y70.879 E0.02913 F1409
G1 X88.227 Y69.823 E0.06262 F2176
G1 X91.768 Y72.284 E0.05560 F1610
G1 X88.831 Y72.542 E0.06748 F1596
G1 X89.555 Y69.574 E0.05362 F1412
G1 X92.846 Y70.520 E0.03450 F1410
G1 X93.301 Y69.527 E0.06612 F1502
G1 X92.068 Y70.420 E0.06598 F2237
G1 X94.953 Y69.611 E0.03844 F1961
G1 X95.704 Y69.130 E0.04944 F1572
G1 X94.478 Y69.241 E0.06179 F1275
G1 X95.030 Y70.440 E0.03775 F1915
G1 X95.455 Y68.669 E0.07831 F2165
G1 X96.430 Y68.936 E0.05806 F2353
G1 X98.761 Y69.407 E0.02671 F1652
G1 X99.022 Y68.470 E0.03260 F2017
G1 X100.407 Y69.217 E0.06759 F1743
G1 X102.277 Y68.794 E0.04328 F1708
G1 X103.263 Y70.184 E0.06425 F2028
G1 X103.116 Y69.089 E0.06521 F1237
G1 X103.191 Y67.748 E0.06961 F1981
G1 X102.236 Y71.327 E0.02263 F1792
G1 X105.496 Y70.362 E0.04233 F1439
G1 X103.757 Y71.380 E0.04423 F2008
G1 X106.998 Y70.901 E0.07753 F2003
G1 X105.878 Y71.715 E0.04382 F1377
G1 X109.872 Y71.301 E0.04629 F1340
G1 X110.310 Y71.536 E0.05195 F1289
G1 X110.051 Y72.731 E0.04555 F2259
M104 S210
G1 X108.969 Y70.505 E0.04383 F1534
G1 X110.538 Y71.198 E0.04916 F1847
G1 X111.429 Y71.423 E0.07640 F1748
G1 X110.472 Y72.317 E0.04046 F1487
G1 X111.374 Y74.189 E0.07734 F1552
G1 X114.516 Y71.125 E0.06968 F1719
G1 X114.051 Y72.730 E0.03608 F2258
G1 X115.844 Y74.782 E0.06996 F1803
G1 X114.028 Y72.561 E0.02982 F1653
G1 X116.071 Y72.586 E0.06343 F1856
G1 X118.799 Y74.068 E0.06555 F1223
G1 X117.523 Y74.261 E0.03176 F1653
G1 X118.134 Y74.970 E0.07425 F1828
G1 X119.043 Y76.799 E0.02188 F1299
G1 X118.552 Y75.335 E0.03280 F1514
G1 X119.285 Y77.510 E0.03558 F1597
G1 X118.844 Y76.178 E0.06638 F1781
G1 X119.774 Y77.608 E0.06730 F2169
G1 X121.883 Y78.275 E0.06522 F1604
G1 X124.265 Y78.923 E0.03384 F2243
G1 X124.896 Y78.572 E0.02639 F1670
G1 X123.752 Y79.692 E0.04876 F1722
G1 X125.695 Y81.303 E0.02284 F1506
G1 X125.947 Y81.664 E0.05048 F2252
G1 X124.092 Y82.412 E0.04193 F2152
M106 S126
G1 X127.205 Y80.930 E0.06996 F1495
G1 X124.198 Y84.470 E0.05209 F2310
G1 X126.738 Y82.840 E0.04402 F1843
G1 X126.331 Y84.914 E0.05674 F2035
G1 X126.583 Y83.523 E0.06672 F2397
G1 X128.160 Y84.002 E0.07513 F1576
G1 X126.516 Y85.768 E0.07805 F2140
G1 X126.110 Y86.194 E0.03229 F1311
G1 X129.284 Y86.363 E0.05513 F1553
G1 X129.643 Y87.517 E0.02314 F1316
G1 X130.641 Y87.657 E0.04423 F2380
G1 X128.191 Y92.089 E0.07497 F1384
G1 X130.240 Y89.122 E0.04099 F2229
G1 X130.115 Y93.318 E0.04345 F2269
G1 X130.846 Y92.867 E0.07694 F1259
G1 X130.341 Y91.203 E0.07865 F1399
G1 X128.566 Y94.040 E0.07069 F1343
G1 X128.690 Y92.676 E0.05926 F1364
G1 X131.445 Y96.845 E0.02975 F2281
G1 X132.031 Y97.148 E0.05523 F1841
G1 X132.339 Y98.284 E0.04791 F2236
G1 X130.557 Y97.478 E0.06796 F1395
G1 X129.540 Y99.222 E0.03967 F1869
G1 X131.613 Y99.262 E0.06509 F2026
; LAYER:8
G1 Z1.600 F720 ; move to layer height
G1 X132.085 Y98.453 E0.03818 F2252
M104 S215
M106 S173
G1 X130.348 Y99.385 E0.06016 F1449
G1 X131.469 Y101.311 E0.03851 F1249
G1 X130.183 Y102.423 E0.06632 F2115
G1 X130.305 Y104.944 E0.03195 F1769
G1 X130.344 Y103.474 E0.05555 F1540
G1 X130.146 Y104.426 E0.06588 F1854
G1 X131.623 Y106.244 E0.05678 F2231
G1 X129.392 Y107.826 E0.03592 F1370
G1 X130.578 Y107.826 E0.05978 F1337
G1 X129.567 Y108.723 E0.03566 F1427
G1 X128.977 Y106.670 E0.05477 F1531
G1 X129.677 Y109.865 E0.04745 F1204
G1 X129.828 Y109.736 E0.03967 F2116
G1 X129.075 Y108.995 E0.04443 F2126
G1 X130.245 Y109.860 E0.02509 F1552
G1 X128.964 Y110.996 E0.06627 F2183
G1 X128.149 Y112.039 E0.02044 F2376
G1 X127.171 Y112.840 E0.07752 F1262
G1 X128.624 Y113.753 E0.07231 F1843
G1 X126.994 Y113.224 E0.04802 F1664
G1 X128.317 Y117.457 E0.05910 F2069
G1 X126.311 Y117.585 E0.06738 F1501
G1 X125.723 Y117.554 E0.06745 F1442
G1 X126.045 Y117.783 E0.04759 F2237
G1 X124.831 Y118.630 E0.06110 F1816
G1 X124.411 Y117.312 E0.03022 F2013
G1 X123.306 Y119.317 E0.03122 F2065
G1 X121.679 Y121.600 E0.04550 F1269
G1 X121.995 Y120.279 E0.05647 F2090
G1 X124.307 Y119.694 E0.02953 F1563
G1 X121.020 Y123.247 E0.02825 F1876
G1 X122.583 Y124.079 E0.07357 F1569
G1 X120.664 Y123.519 E0.04888 F1529
G1 X120.487 Y121.812 E0.07973 F2357
G1 X118.366 Y123.183 E0.03488 F1620
G1 X119.075 Y125.470 E0.07174 F2179
G1 X118.749 Y125.081 E0.07255 F1648
G1 X117.871 Y126.947 E0.05167 F1812
G1 X115.185 Y126.258 E0.02005 F1205
G1 X116.200 Y127.184 E0.07190 F1714
G1 X113.893 Y125.885 E0.04956 F2225
G1 X115.822 Y125.066 E0.03287 F1614
G1 X114.610 Y128.741 E0.04863 F1630
G1 X113.837 Y127.036 E0.06802 F1750
G1 X113.436 Y126.045 E0.05496 F1434
G1 X111.491 Y128.910 E0.02090 F1473
G1 X113.365 Y127.155 E0.06912 F2261
G1 X109.717 Y128.351 E0.06617 F2255
G1 X109.634 Y127.463 E0.04642 F2164
G1 X110.070 Y129.043 E0.02712 F1982
M104 S218
G1 X108.898 Y129.195 E0.03331 F1549
G1 X108.255 Y128.051 E0.02844 F1372
G1 X108.925 Y129.283 E0.06895 F1838
G1 X107.892 Y128.734 E0.02410 F1623
G1 X107.623 Y128.873 E0.03889 F1713
G1 X105.857 Y131.245 E0.06729 F1338
G1 X103.456 Y131.784 E0.02885 F1750
G1 X104.574 Y129.379 E0.06170 F2228
G1 X103.556 Y129.119 E0.04846 F1386
G1 X103.592 Y129.521 E0.05156 F2183
G1 X102.031 Y129.892 E0.05735 F1976
G1 X100.495 Y129.845 E0.02983 F2004
G1 X100.404 Y132.576 E0.04615 F1736
G1 X96.959 Y131.679 E0.02073 F1368
G1 X99.618 Y128.792 E0.02130 F2168
G1 X96.945 Y130.953 E0.03042 F1709
G1 X95.820 Y128.644 E0.04306 F2004
G1 X96.711 Y131.226 E0.05464 F1735
G1 X94.615 Y128.435 E0.06435 F1307
G1 X94.712 Y128.795 E0.06372 F2052
G1 X94.088 Y128.755 E0.04857 F1764
G1 X94.568 Y131.637 E0.03162 F1452
G1 X93.864 Y129.346 E0.02424 F1671
G1 X91.175 Y130.754 E0.07517 F2128
G1 X91.465 Y127.603 E0.07084 F1523
M106 S83
G1 X91.027 Y130.544 E0.06838 F1596
G1 X90.676 Y127.782 E0.07992 F2356
G1 X87.736 Y129.669 E0.07172 F1605
G1 X87.625 Y129.547 E0.02880 F1525
G1 X87.302 Y126.827 E0.05454 F2151
G1 X87.994 Y126.637 E0.04974 F1337
G1 X86.160 Y127.540 E0.02561 F2055
G1 X85.696 Y128.280 E0.04591 F1830
G1 X83.122 Y127.648 E0.04058 F2394
G1 X82.804 Y127.173 E0.06861 F1449
G1 X83.082 Y126.210 E0.07663 F2218
G1 X82.081 Y125.858 E0.07466 F2159
G1 X80.702 Y123.323 E0.07390 F1745
G1 X81.247 Y125.470 E0.02762 F2246
G1 X81.067 Y122.927 E0.07555 F1867
G1 X80.062 Y125.165 E0.03950 F2381
G1 X79.627 Y124.395 E0.03213 F2008
G1 X78.107 Y122.475 E0.02430 F1364
G1 X77.009 Y122.818 E0.06464 F1759
G1 X78.408 Y122.341 E0.07475 F1231
G1 X78.489 Y121.526 E0.06491 F2135
G1 X75.994 Y121.093 E0.02940 F2093
G1 X74.174 Y118.659 E0.07772 F2026
G1 X77.363 Y118.018 E0.07918 F1724
G1 X73.491 Y118.125 E0.04644 F1718
M104 S217
G1 X75.082 Y119.302 E0.02610 F2390
G1 X72.378 Y118.656 E0.06574 F1602
G1 X71.970 Y114.349 E0.06390 F1893
G1 X73.453 Y116.527 E0.05026 F2004
G1 X72.674 Y113.722 E0.06929 F2258
G1 X72.275 Y114.918 E0.06217 F2145
G1 X70.580 Y111.690 E0.06838 F1224
G1 X72.554 Y114.364 E0.06641 F1471
G1 X73.372 Y113.794 E0.04354 F2019
G1 X72.730 Y109.364 E0.07805 F1613
G1 X70.030 Y112.028 E0.05447 F1460
G1 X72.047 Y110.426 E0.06534 F2141
G1 X69.358 Y111.022 E0.07395 F2275
G1 X69.874 Y107.023 E0.03445 F1960
G1 X69.184 Y107.514 E0.07180 F2245
G1 X71.238 Y107.609 E0.04111 F1646
G1 X69.015 Y105.261 E0.07363 F1676
G1 X69.571 Y105.963 E0.05704 F2337
G1 X71.442 Y103.076 E0.05950 F1478
G1 X68.451 Y105.308 E0.06702 F1634
G1 X67.814 Y104.794 E0.02936 F1246
G1 X70.635 Y101.273 E0.07984 F1200
G1 X69.950 Y100.781 E0.06406 F1513
G1 X68.766 Y101.599 E0.03655 F2110
G1 X67.879 Y101.569 E0.06866 F2368
G1 X70.386 Y100.239 E0.02624 F1771
G1 X68.988 Y99.384 E0.03912 F2156
G1 X69.275 Y99.652 E0.07665 F2194
G1 X67.776 Y96.930 E0.03680 F1761
G1 X70.803 Y97.914 E0.02169 F1496
G1 X69.669 Y97.273 E0.02868 F1331
G1 X70.331 Y95.244 E0.03515 F2373
G1 X70.671 Y95.349 E0.07035 F1719
G1 X69.701 Y94.894 E0.04518 F1909
G1 X71.904 Y92.448 E0.02226 F2044
G1 X71.450 Y92.554 E0.03415 F1989
G1 X70.372 Y89.831 E0.05667 F1500
G1 X69.602 Y91.075 E0.03710 F1596
G1 X72.866 Y88.359 E0.04519 F1930
G1 X70.433 Y88.030 E0.06610 F1660
G1 X70.830 Y88.678 E0.06430 F2230
G1 X70.993 Y86.068 E0.05584 F1428
G1 X71.604 Y86.258 E0.02741 F2174
G1 X73.038 Y86.806 E0.07602 F1283
G1 X72.365 Y83.644 E0.02047 F2398
G1 X74.095 Y85.409 E0.06798 F2301
G1 X72.816 Y85.025 E0.03787 F2269
G1 X72.918 Y82.466 E0.04389 F1851
G1 X75.239 Y84.330 E0.02835 F1778
G1 X74.645 Y80.089 E0.02432 F1398
M104 S216
M106 S116
G1 X75.157 Y83.159 E0.04476 F2395
G1 X75.516 Y79.410 E0.07873 F1525
G1 X75.596 Y79.808 E0.03828 F1693
G1 X78.560 Y80.089 E0.07913 F1627
G1 X77.470 Y80.667 E0.03442 F1423
G1 X78.069 Y77.611 E0.07227 F1805
G1 X76.991 Y79.551 E0.02316 F1627
G1 X78.547 Y76.761 E0.07743 F1403
G1 X81.013 Y74.922 E0.04670 F1517
G1 X79.924 Y77.582 E0.03083 F1394
G1 X82.468 Y74.898 E0.04175 F2392
G1 X81.528 Y74.873 E0.03660 F1467
G1 X81.064 Y74.426 E0.02261 F1681
G1 X81.914 Y73.325 E0.04204 F1879
G1 X84.591 Y74.565 E0.05398 F2174
G1 X85.899 Y73.074 E0.06880 F1253
G1 X84.484 Y73.112 E0.02624 F2227
G1 X86.108 Y74.306 E0.07570 F2166
G1 X87.355 Y74.464 E0.02937 F1442
G1 X88.516 Y70.823 E0.05228 F1596
G1 X87.355 Y71.739 E0.05978 F1460
G1 X88.560 Y73.026 E0.04012 F1519
G1 X89.415 Y72.235 E0.06156 F2339
G1 X90.352 Y72.842 E0.07649 F1664
G1 X91.747 Y70.723 E0.06672 F1723
G1 X91.145 Y68.887 E0.05141 F2276
G1 X91.466 Y71.478 E0.03350 F1544
G1 X91.553 Y69.354 E0.02212 F1320
G1 X91.905 Y71.424 E0.05490 F1516
G1 X93.972 Y70.476 E0.04104 F2195
G1 X96.065 Y68.445 E0.07598 F1526
G1 X95.846 Y68.934 E0.04915 F1297
G1 X96.005 Y70.587 E0.05437 F1761
G1 X99.004 Y71.283 E0.02023 F1586
G1 X96.203 Y70.472 E0.04436 F1341
G1 X98.626 Y68.329 E0.03836 F1231
G1 X101.107 Y67.595 E0.05877 F1828
G1 X98.909 Y69.683 E0.04686 F2133
G1 X99.656 Y70.203 E0.05560 F1371
G1 X103.880 Y68.713 E0.07424 F2175
G1 X103.888 Y70.420 E0.04191 F1520
G1 X101.688 Y68.833 E0.05205 F2237
G1 X102.590 Y69.930 E0.04663 F1425
G1 X105.510 Y71.276 E0.07082 F1359
G1 X107.065 Y69.461 E0.06289 F2071
G1 X107.233 Y69.966 E0.03550 F1378
G1 X108.141 Y69.567 E0.02369 F1746
G1 X109.703 Y68.377 E0.06544 F2135
G1 X109.520 Y69.457 E0.07195 F1827
G1 X111.501 Y71.143 E0.06340 F1461
M104 S212
G1 X111.130 Y69.226 E0.07623 F1761
G1 X112.011 Y69.975 E0.02885 F1589
G1 X112.715 Y72.443 E0.04647 F1586
G1 X111.772 Y71.025 E0.02263 F1510
G1 X113.053 Y70.275 E0.05518 F1389
G1 X113.951 Y71.349 E0.04093 F1375
G1 X115.741 Y74.729 E0.04301 F1631
G1 X117.038 Y73.237 E0.02442 F2011
G1 X117.474 Y74.127 E0.06541 F1208
G1 X117.980 Y74.485 E0.06919 F2152
G1 X117.578 Y75.136 E0.03077 F1786
G1 X118.116 Y75.288 E0.05500 F1270
G1 X119.443 Y76.797 E0.02225 F1334
G1 X119.100 Y75.568 E0.04025 F1403
G1 X120.767 Y76.351 E0.03011 F2373
G1 X119.028 Y75.140 E0.03227 F1225
G1 X122.637 Y78.869 E0.06855 F1225
G1 X119.642 Y77.701 E0.02028 F1987
G1 X120.364 Y77.342 E0.06459 F1320
G1 X122.336 Y79.616 E0.02950 F1673
G1 X122.516 Y80.789 E0.05129 F1250
G1 X122.623 Y81.280 E0.02223 F1825
G1 X124.093 Y79.305 E0.04814 F2186
G1 X122.462 Y82.949 E0.07545 F1245
G1 X124.950 Y81.480 E0.07378 F1906
M106 S182
G1 X126.434 Y83.970 E0.04534 F1497
G1 X123.934 Y82.636 E0.05124 F2342
G1 X127.398 Y84.963 E0.05416 F1863
G1 X125.853 Y85.749 E0.06283 F1722
G1 X128.036 Y85.143 E0.05009 F1584
G1 X128.441 Y85.074 E0.06867 F2214
G1 X125.780 Y88.217 E0.05941 F2293
G1 X129.376 Y86.382 E0.02158 F2070
G1 X127.182 Y89.133 E0.06280 F2146
G1 X130.215 Y87.239 E0.03984 F2273
G1 X129.389 Y90.914 E0.05439 F1567
G1 X129.554 Y90.917 E0.07010 F1338
G1 X131.322 Y90.287 E0.06718 F2079
G1 X129.574 Y90.921 E0.03815 F2182
G1 X129.301 Y91.529 E0.03433 F1746
G1 X130.112 Y94.959 E0.02315 F1953
G1 X129.842 Y95.475 E0.03681 F2109
G1 X129.543 Y94.334 E0.04053 F1596
G1 X130.732 Y96.019 E0.04536 F1764
G1 X130.452 Y97.578 E0.03118 F2177
G1 X131.769 Y97.704 E0.04841 F1416
G1 X129.895 Y95.845 E0.02199 F1848
G1 X132.260 Y99.735 E0.04255 F1923
G1 X130.136 Y97.352 E0.06927 F1267
; LAYER:9
G1 Z1.800 F720 ; move to layer height
G1 X131.267 Y98.295 E0.03002 F1824
M104 S214
M106 S172
G1 X132.874 Y101.935 E0.03080 F1418
G1 X130.907 Y100.896 E0.03723 F1770
G1 X129.861 Y102.157 E0.06069 F1531
G1 X132.040 Y104.184 E0.02791 F1674
G1 X131.599 Y105.106 E0.03848 F2303
G1 X130.277 Y105.106 E0.02674 F2034
G1 X130.251 Y105.634 E0.02627 F1881
G1 X130.852 Y104.783 E0.07617 F1472
G1 X131.591 Y108.109 E0.03388 F2394
G1 X129.996 Y108.236 E0.04576 F2028
G1 X127.745 Y107.506 E0.07913 F1636
G1 X127.778 Y108.258 E0.06485 F1774
G1 X128.244 Y109.277 E0.07360 F1907
G1 X129.210 Y109.250 E0.03531 F1337
G1 X129.804 Y111.521 E0.06360 F1305
G1 X130.255 Y112.355 E0.05500 F2036
G1 X128.862 Y111.993 E0.06504 F2279
G1 X129.583 Y112.570 E0.02909 F2386
G1 X126.756 Y114.647 E0.07991 F1450
G1 X129.061 Y115.577 E0.04349 F2097
G1 X127.255 Y116.387 E0.05687 F2244
G1 X125.744 Y114.716 E0.02178 F1229
G1 X124.152 Y116.864 E0.03402 F1419
G1 X123.817 Y117.296 E0.07876 F1306
G1 X124.061 Y116.236 E0.03361 F1694
G1 X124.157 Y120.309 E0.07650 F2113
G1 X125.037 Y117.596 E0.02674 F1419
G1 X122.744 Y121.421 E0.07561 F1276
G1 X124.842 Y121.332 E0.06142 F2387
G1 X123.578 Y119.413 E0.05708 F2372
G1 X120.925 Y123.529 E0.06219 F2315
G1 X122.538 Y120.696 E0.04694 F1612
G1 X121.830 Y123.120 E0.02022 F1284
G1 X119.276 Y124.422 E0.06287 F1316
G1 X120.678 Y125.750 E0.06974 F2163
G1 X120.656 Y123.225 E0.07958 F1413
G1 X119.978 Y124.703 E0.06595 F2037
G1 X119.766 Y125.401 E0.06644 F1934
G1 X118.572 Y124.341 E0.03548 F1466
G1 X116.782 Y128.078 E0.07878 F1500
G1 X117.387 Y124.540 E0.06994 F1623
G1 X113.363 Y128.354 E0.06069 F2368
G1 X114.653 Y127.541 E0.04978 F2038
G1 X113.605 Y128.777 E0.04381 F1436
G1 X114.439 Y128.206 E0.07025 F2128
G1 X114.136 Y127.139 E0.05346 F1408
G1 X110.322 Y127.737 E0.07135 F2101
G1 X111.706 Y128.433 E0.05608 F2240
G1 X110.266 Y131.128 E0.07339 F1322
G1 X110.987 Y129.492 E0.06845 F2283
M104 S220
G1 X110.132 Y128.423 E0.02211 F2062
G1 X109.520 Y130.903 E0.05836 F2320
G1 X106.806 Y131.870 E0.07849 F1970
G1 X108.410 Y128.340 E0.07351 F1352
G1 X107.488 Y131.068 E0.03169 F2278
G1 X104.716 Y131.424 E0.04526 F1244
G1 X105.518 Y132.531 E0.04141 F1847
G1 X103.650 Y128.797 E0.02622 F2387
G1 X103.282 Y129.119 E0.06772 F1610
G1 X101.603 Y129.656 E0.06715 F2145
G1 X101.255 Y130.082 E0.02766 F2216
G1 X101.259 Y131.503 E0.02194 F2313
G1 X100.775 Y131.836 E0.02162 F1509
G1 X98.228 Y129.703 E0.04278 F1351
G1 X99.374 Y131.698 E0.02434 F1811
G1 X98.338 Y128.890 E0.07707 F2298
G1 X98.495 Y130.196 E0.04011 F1485
G1 X97.010 Y129.794 E0.04427 F2084
G1 X95.325 Y129.715 E0.05471 F1731
G1 X94.659 Y129.242 E0.03531 F2384
G1 X94.070 Y132.154 E0.07620 F1686
G1 X93.748 Y131.641 E0.07339 F2382
G1 X91.951 Y130.865 E0.07718 F1247
G1 X90.262 Y129.838 E0.06490 F2095
G1 X90.923 Y130.585 E0.07613 F1812
M106 S30
G1 X89.900 Y129.866 E0.03098 F2395
G1 X90.082 Y127.374 E0.03220 F1258
G1 X89.158 Y129.221 E0.04672 F1450
G1 X87.230 Y126.435 E0.05166 F1814
G1 X85.895 Y128.745 E0.07760 F1996
G1 X84.289 Y127.327 E0.02707 F2267
G1 X85.385 Y126.089 E0.02998 F2077
G1 X84.784 Y125.413 E0.02683 F2240
G1 X85.927 Y124.903 E0.03331 F1684
G1 X82.496 Y127.239 E0.07052 F1335
G1 X81.800 Y126.553 E0.02643 F2047
G1 X82.290 Y126.524 E0.06679 F2314
G1 X80.423 Y123.208 E0.05401 F2076
G1 X80.564 Y125.737 E0.07997 F1871
G1 X79.834 Y125.157 E0.05550 F1229
G1 X80.704 Y122.672 E0.04929 F1549
G1 X80.768 Y121.858 E0.04922 F2391
G1 X79.587 Y120.629 E0.06262 F1943
G1 X77.153 Y122.410 E0.07668 F1948
G1 X76.778 Y122.038 E0.02756 F1552
G1 X76.514 Y120.772 E0.06466 F1744
G1 X77.132 Y121.734 E0.05829 F1227
G1 X74.830 Y120.899 E0.02193 F1326
G1 X76.280 Y119.685 E0.02250 F1699
G1 X74.998 Y118.492 E0.06379 F1529
M104 S212
G1 X76.245 Y119.491 E0.03674 F1842
G1 X72.445 Y115.939 E0.03015 F2312
G1 X74.645 Y117.313 E0.07178 F1932
G1 X74.415 Y115.661 E0.07843 F1303
G1 X72.092 Y114.162 E0.03494 F1542
G1 X72.725 Y115.718 E0.06301 F2045
G1 X74.049 Y114.986 E0.06347 F1755
G1 X70.318 Y110.924 E0.06481 F1881
G1 X73.346 Y110.470 E0.02528 F2050
G1 X72.763 Y109.532 E0.04723 F1568
G1 X69.601 Y110.956 E0.07954 F1294
G1 X72.362 Y110.805 E0.05275 F2086
G1 X68.636 Y111.095 E0.06281 F1922
G1 X69.739 Y107.399 E0.03400 F1873
G1 X68.732 Y108.425 E0.05279 F2392
G1 X70.914 Y105.141 E0.06291 F1652
G1 X68.047 Y105.530 E0.02750 F1512
G1 X68.517 Y103.551 E0.02191 F1889
G1 X70.316 Y103.972 E0.03987 F1328
G1 X69.605 Y102.314 E0.05512 F2293
G1 X70.601 Y105.097 E0.02997 F1558
G1 X67.222 Y101.089 E0.04657 F1396
G1 X71.101 Y100.426 E0.07881 F2218
G1 X69.765 Y100.008 E0.03329 F1587
G1 X69.109 Y98.334 E0.02285 F2321
G1 X68.553 Y100.566 E0.02342 F1987
G1 X67.408 Y99.658 E0.07381 F1907
G1 X69.224 Y97.554 E0.02844 F2097
G1 X71.151 Y95.732 E0.03360 F1589
G1 X67.586 Y97.178 E0.02267 F2197
G1 X70.089 Y96.915 E0.07624 F1325
G1 X69.989 Y93.913 E0.05725 F1552
G1 X70.424 Y92.173 E0.04175 F1370
G1 X70.676 Y91.196 E0.04414 F1799
G1 X69.626 Y92.201 E0.02022 F1472
G1 X69.214 Y92.667 E0.06082 F1938
G1 X71.760 Y91.795 E0.03232 F1937
G1 X69.854 Y88.105 E0.06176 F1657
G1 X71.702 Y89.967 E0.05705 F1324
G1 X69.332 Y89.301 E0.05476 F1410
G1 X71.075 Y87.758 E0.06607 F1859
G1 X72.060 Y86.620 E0.06650 F2283
G1 X72.622 Y84.782 E0.03394 F2265
G1 X74.284 Y84.441 E0.07805 F1601
G1 X72.933 Y85.216 E0.05962 F1658
G1 X72.617 Y82.981 E0.07921 F1678
G1 X75.350 Y84.847 E0.05484 F1292
G1 X74.080 Y84.865 E0.07662 F2003
G1 X76.367 Y82.721 E0.04269 F1882
G1 X74.172 Y82.541 E0.05099 F1480
M104 S211
M106 S61
G1 X75.362 Y81.236 E0.05276 F2127
G1 X73.971 Y79.118 E0.06153 F2336
G1 X76.423 Y79.073 E0.06512 F1931
G1 X77.256 Y79.573 E0.02088 F2248
G1 X79.213 Y80.777 E0.07423 F1386
G1 X76.990 Y79.277 E0.03089 F2013
G1 X77.941 Y75.787 E0.03042 F1916
G1 X77.573 Y76.982 E0.02100 F1467
G1 X78.209 Y76.429 E0.07547 F2061
G1 X78.325 Y75.985 E0.07875 F2317
G1 X81.080 Y74.860 E0.02946 F1648
G1 X83.096 Y74.848 E0.05961 F1683
G1 X82.043 Y75.852 E0.05153 F1685
G1 X81.836 Y76.074 E0.04266 F2031
G1 X84.134 Y75.288 E0.03192 F1886
G1 X83.641 Y72.916 E0.02214 F1494
G1 X82.933 Y71.320 E0.05267 F1715
G1 X86.869 Y74.401 E0.02868 F1712
G1 X85.054 Y71.724 E0.03482 F2328
G1 X88.562 Y70.100 E0.02263 F1999
G1 X86.553 Y69.910 E0.03707 F1209
G1 X86.675 Y70.640 E0.05876 F1929
G1 X87.913 Y72.344 E0.04405 F1427
G1 X90.670 Y71.578 E0.02490 F1929
G1 X92.213 Y71.095 E0.03661 F1390
G1 X93.075 Y68.895 E0.04169 F2247
G1 X90.186 Y70.729 E0.02579 F2217
G1 X93.498 Y69.070 E0.03189 F2103
G1 X91.906 Y68.139 E0.02781 F2038
G1 X95.897 Y68.445 E0.05865 F1816
G1 X95.946 Y68.844 E0.04006 F1852
G1 X96.379 Y68.632 E0.05093 F1959
G1 X98.105 Y67.940 E0.05434 F2106
G1 X97.539 Y69.683 E0.05546 F1425
G1 X99.482 Y70.561 E0.02269 F1361
G1 X99.120 Y70.576 E0.07886 F1340
G1 X99.576 Y68.253 E0.05995 F2309
G1 X101.377 Y70.292 E0.02102 F2382
G1 X100.393 Y69.178 E0.04272 F2158
G1 X101.180 Y68.167 E0.03575 F1964
G1 X102.639 Y69.239 E0.06426 F1757
G1 X103.392 Y68.253 E0.03503 F2193
G1 X105.435 Y70.043 E0.06212 F1644
G1 X106.562 Y67.571 E0.02835 F2120
G1 X106.266 Y67.808 E0.02793 F2083
G1 X107.628 Y70.392 E0.02470 F2304
G1 X107.029 Y70.720 E0.04080 F1349
G1 X106.821 Y70.038 E0.04348 F1479
G1 X110.093 Y69.048 E0.03753 F2054
G1 X110.416 Y68.663 E0.02625 F1609
M104 S214
G1 X110.104 Y69.792 E0.04091 F1630
G1 X112.584 Y72.002 E0.05570 F2040
G1 X112.168 Y72.617 E0.06170 F1760
G1 X114.050 Y69.772 E0.03844 F1577
G1 X113.748 Y74.018 E0.02879 F1638
G1 X112.513 Y71.095 E0.04885 F2046
G1 X116.203 Y73.165 E0.06344 F2169
G1 X113.792 Y73.860 E0.02045 F2310
G1 X116.952 Y74.813 E0.05775 F1339
G1 X116.057 Y73.851 E0.05081 F1732
G1 X115.605 Y74.217 E0.07513 F1569
G1 X116.707 Y75.054 E0.04575 F2175
G1 X120.464 Y74.779 E0.07720 F2054
G1 X118.730 Y76.196 E0.06198 F2139
G1 X120.493 Y76.216 E0.07782 F1595
G1 X119.894 Y75.115 E0.02717 F2291
G1 X119.821 Y77.834 E0.05091 F1973
G1 X123.430 Y78.895 E0.05380 F1599
G1 X122.219 Y78.768 E0.03661 F1250
G1 X123.528 Y77.397 E0.02053 F2197
G1 X121.374 Y78.401 E0.03036 F1276
G1 X121.709 Y80.082 E0.04166 F1257
G1 X122.642 Y80.627 E0.04445 F1731
G1 X125.090 Y81.525 E0.06537 F1776
G1 X125.213 Y81.328 E0.02078 F1579
M106 S133
G1 X124.286 Y83.139 E0.03102 F1434
G1 X125.163 Y83.088 E0.06773 F2279
G1 X126.616 Y81.967 E0.05409 F2049
G1 X126.387 Y83.530 E0.03497 F1543
G1 X125.736 Y86.468 E0.05966 F1750
G1 X127.809 Y85.468 E0.07436 F1727
G1 X126.725 Y87.868 E0.02358 F2321
G1 X127.905 Y87.730 E0.03443 F1775
G1 X130.320 Y86.170 E0.06270 F1659
G1 X127.847 Y87.470 E0.02307 F1592
G1 X128.905 Y88.803 E0.04905 F2213
G1 X130.540 Y88.947 E0.03244 F1212
G1 X128.847 Y90.820 E0.04003 F1952
G1 X128.108 Y91.287 E0.04812 F1221
G1 X128.696 Y91.469 E0.07170 F1557
G1 X131.229 Y93.410 E0.07991 F1972
G1 X130.119 Y93.983 E0.05931 F2152
G1 X129.199 Y95.096 E0.05445 F1543
G1 X129.712 Y96.258 E0.04621 F2322
G1 X132.149 Y95.747 E0.07478 F2259
G1 X132.717 Y97.512 E0.05760 F1871
G1 X129.890 Y97.650 E0.03720 F1439
G1 X132.795 Y98.419 E0.07693 F2355
G1 X131.369 Y100.529 E0.05851 F1212
; LAYER:10
G1 Z2.000 F720 ; move to layer height
G1 X131.395 Y100.782 E0.03633 F2133
M104 S210
M106 S215
G1 X130.927 Y99.825 E0.05238 F1685
G1 X130.911 Y100.310 E0.04540 F1665
G1 X129.151 Y101.631 E0.03220 F1532
G1 X130.549 Y102.997 E0.07043 F1937
G1 X130.108 Y104.487 E0.03709 F2339
G1 X130.195 Y106.207 E0.07102 F2168
G1 X131.387 Y103.984 E0.07275 F2022
G1 X129.791 Y105.596 E0.03758 F1511
G1 X128.454 Y107.779 E0.06341 F1229
G1 X131.614 Y109.019 E0.07075 F1672
G1 X129.274 Y108.794 E0.03181 F1882
G1 X129.487 Y110.028 E0.03628 F1854
G1 X128.878 Y108.372 E0.05534 F1841
G1 X127.320 Y110.123 E0.02647 F1805
G1 X130.552 Y111.081 E0.03077 F1935
G1 X126.578 Y112.809 E0.04853 F2072
G1 X126.400 Y111.809 E0.03612 F1428
G1 X127.836 Y112.739 E0.04997 F2012
G1 X128.928 Y112.812 E0.03938 F1248
G1 X126.522 Y113.283 E0.05948 F2057
G1 X128.612 Y114.880 E0.02138 F1296
G1 X125.707 Y114.515 E0.02553 F2297
G1 X124.974 Y115.412 E0.04030 F2067
G1 X127.478 Y118.717 E0.04124 F1830
G1 X123.956 Y120.204 E0.06122 F1693
G1 X123.333 Y117.698 E0.05901 F2365
G1 X122.733 Y118.968 E0.05368 F1811
G1 X123.035 Y118.896 E0.02135 F1345
G1 X124.404 Y120.732 E0.05372 F1591
G1 X121.118 Y122.529 E0.05440 F1891
G1 X121.427 Y122.338 E0.03289 F2102
G1 X122.045 Y121.553 E0.07989 F1651
G1 X122.684 Y122.563 E0.07821 F1249
G1 X122.133 Y122.969 E0.05531 F1786
G1 X119.639 Y124.313 E0.05094 F1222
G1 X119.129 Y126.266 E0.03129 F2364
G1 X119.960 Y125.047 E0.06454 F1953
G1 X119.279 Y127.212 E0.02910 F1711
G1 X115.521 Y127.443 E0.05322 F1734
G1 X116.826 Y127.052 E0.04660 F1299
G1 X114.510 Y125.193 E0.07961 F2146
G1 X115.505 Y127.643 E0.03184 F1411
G1 X115.147 Y125.421 E0.07371 F1718
G1 X114.628 Y129.166 E0.06217 F1554
G1 X112.054 Y129.745 E0.07729 F1295
G1 X113.031 Y129.771 E0.05482 F2268
G1 X111.846 Y127.281 E0.04492 F1425
G1 X111.706 Y128.903 E0.03805 F2280
G1 X108.895 Y128.199 E0.02737 F2352
G1 X110.362 Y128.541 E0.03950 F1490
M104 S215
G1 X110.047 Y129.204 E0.05794 F2323
G1 X106.218 Y130.990 E0.06975 F1481
G1 X106.176 Y128.490 E0.02600 F1708
G1 X104.750 Y131.370 E0.02044 F1731
G1 X107.040 Y129.289 E0.06948 F2054
G1 X104.973 Y132.148 E0.02924 F1273
G1 X103.486 Y129.568 E0.06634 F2088
G1 X102.766 Y130.895 E0.04985 F1369
G1 X100.950 Y132.016 E0.07375 F1377
G1 X100.137 Y131.471 E0.06766 F1526
G1 X101.816 Y129.107 E0.06262 F1617
G1 X101.842 Y132.603 E0.07017 F1278
G1 X99.634 Y130.538 E0.07743 F1549
G1 X99.593 Y132.314 E0.06505 F2399
G1 X96.096 Y130.056 E0.06240 F2271
G1 X95.797 Y132.011 E0.04872 F1825
G1 X97.133 Y132.017 E0.07680 F2390
G1 X95.090 Y131.867 E0.05045 F2045
G1 X95.654 Y131.073 E0.03390 F1538
G1 X95.920 Y129.480 E0.05071 F1328
G1 X93.822 Y131.739 E0.02242 F2074
G1 X93.362 Y129.794 E0.06009 F1888
G1 X90.671 Y128.678 E0.03001 F2118
G1 X92.457 Y128.375 E0.06422 F1967
G1 X91.348 Y130.749 E0.07265 F1764
M106 S92
G1 X90.230 Y129.104 E0.03770 F2005
G1 X89.697 Y130.910 E0.07088 F1307
G1 X87.199 Y128.082 E0.02813 F1840
G1 X86.125 Y129.843 E0.07848 F2313
G1 X88.069 Y126.940 E0.03411 F2144
G1 X85.081 Y126.081 E0.02518 F1662
G1 X86.987 Y128.795 E0.03701 F1780
G1 X84.772 Y128.526 E0.06061 F1891
G1 X85.829 Y126.601 E0.07013 F1299
G1 X83.704 Y126.282 E0.02384 F1426
G1 X82.807 Y126.715 E0.05686 F1352
G1 X81.376 Y124.572 E0.02727 F1511
G1 X79.622 Y126.217 E0.05351 F1229
G1 X80.094 Y124.523 E0.06973 F1476
G1 X81.894 Y122.577 E0.04777 F2089
G1 X79.944 Y121.466 E0.02259 F2280
G1 X80.351 Y122.617 E0.04535 F2273
G1 X78.266 Y121.181 E0.06121 F1335
G1 X77.657 Y121.310 E0.05719 F1628
G1 X76.230 Y123.024 E0.04643 F1991
G1 X76.138 Y121.930 E0.04336 F1540
G1 X77.319 Y119.849 E0.03648 F2345
G1 X75.316 Y118.914 E0.05973 F1697
G1 X77.361 Y119.146 E0.02539 F2366
G1 X73.987 Y116.773 E0.04930 F1475
M104 S210
G1 X75.890 Y118.370 E0.02705 F1469
G1 X72.454 Y115.959 E0.07886 F2015
G1 X75.321 Y116.425 E0.02364 F1726
G1 X72.359 Y114.009 E0.06078 F1900
G1 X74.151 Y114.496 E0.02970 F1673
G1 X73.504 Y112.819 E0.06115 F1629
G1 X73.772 Y111.597 E0.06540 F1320
G1 X70.445 Y113.988 E0.02536 F2075
G1 X72.069 Y113.785 E0.03375 F2106
G1 X72.474 Y109.557 E0.04804 F2084
G1 X72.027 Y109.823 E0.07440 F1931
G1 X71.847 Y111.672 E0.07531 F2224
G1 X69.411 Y109.286 E0.02473 F1972
G1 X68.929 Y109.521 E0.03710 F1888
G1 X68.598 Y105.846 E0.03600 F2069
G1 X68.367 Y107.919 E0.02899 F2008
G1 X69.745 Y104.360 E0.05476 F1329
G1 X69.564 Y107.147 E0.04408 F1982
G1 X69.868 Y105.493 E0.07936 F2239
G1 X67.563 Y103.978 E0.02697 F1862
G1 X68.371 Y103.250 E0.07224 F2345
G1 X70.459 Y101.238 E0.07554 F2154
G1 X69.965 Y99.592 E0.06713 F1868
G1 X69.979 Y101.078 E0.02484 F2204
G1 X70.686 Y98.237 E0.05092 F2263
G1 X69.204 Y98.971 E0.05870 F1321
G1 X70.094 Y99.901 E0.07313 F2373
G1 X69.849 Y96.426 E0.02136 F1543
G1 X70.033 Y95.861 E0.03032 F1579
G1 X70.312 Y97.685 E0.07015 F1683
G1 X69.582 Y96.727 E0.04396 F2040
G1 X68.332 Y95.008 E0.06858 F1867
G1 X67.835 Y93.395 E0.05120 F1572
G1 X70.035 Y94.943 E0.05480 F1456
G1 X70.741 Y91.639 E0.06378 F2369
G1 X68.558 Y92.016 E0.04285 F2330
G1 X70.228 Y92.547 E0.03747 F1658
G1 X71.403 Y90.691 E0.07646 F1801
G1 X70.266 Y87.499 E0.05025 F1207
G1 X70.409 Y87.309 E0.04847 F1337
G1 X73.350 Y89.212 E0.03404 F1398
G1 X71.849 Y86.336 E0.06114 F2283
G1 X71.658 Y87.951 E0.07488 F2082
G1 X72.748 Y85.181 E0.05920 F1463
G1 X72.005 Y86.177 E0.07122 F1524
G1 X71.781 Y84.576 E0.05551 F1824
G1 X73.715 Y82.899 E0.04242 F2235
G1 X72.222 Y81.314 E0.02090 F1918
G1 X75.854 Y81.308 E0.04404 F2380
G1 X74.918 Y81.741 E0.03366 F1859
M104 S211
M106 S88
G1 X74.763 Y82.965 E0.04655 F1602
G1 X76.560 Y81.847 E0.06279 F2056
G1 X75.532 Y81.255 E0.02837 F1739
G1 X77.739 Y79.277 E0.04575 F2214
G1 X78.820 Y79.238 E0.06431 F1215
G1 X79.899 Y78.304 E0.04660 F2073
G1 X79.188 Y76.082 E0.05916 F2200
G1 X79.918 Y75.198 E0.03236 F1415
G1 X78.213 Y77.421 E0.06968 F1867
G1 X81.377 Y76.406 E0.03175 F1864
G1 X82.461 Y77.177 E0.03309 F1343
G1 X80.626 Y75.856 E0.04749 F1795
G1 X83.763 Y75.462 E0.02114 F1526
G1 X83.062 Y73.300 E0.06731 F2070
G1 X85.040 Y73.548 E0.04203 F1996
G1 X82.306 Y71.776 E0.07548 F1364
G1 X83.787 Y72.144 E0.03653 F1484
G1 X85.409 Y72.895 E0.05768 F1421
G1 X86.290 Y73.247 E0.05445 F1242
G1 X86.701 Y72.401 E0.06469 F2338
G1 X86.174 Y71.863 E0.03298 F2127
G1 X86.708 Y73.004 E0.05136 F1915
G1 X89.153 Y69.270 E0.07940 F2005
G1 X89.642 Y70.567 E0.05105 F1438
G1 X91.267 Y71.104 E0.04093 F2153
G1 X90.994 Y70.918 E0.04327 F2131
G1 X91.520 Y71.604 E0.04441 F2290
G1 X94.288 Y70.096 E0.03727 F2307
G1 X95.018 Y70.715 E0.06996 F1700
G1 X93.714 Y69.519 E0.03648 F1205
G1 X96.189 Y68.134 E0.07713 F1931
G1 X94.138 Y70.506 E0.06842 F1923
G1 X94.615 Y70.844 E0.07341 F1610
G1 X97.811 Y69.535 E0.03066 F2357
G1 X98.550 Y68.781 E0.04257 F1272
G1 X98.344 Y69.104 E0.05768 F2254
G1 X98.431 Y69.335 E0.07768 F1217
G1 X98.965 Y68.279 E0.06468 F1668
G1 X100.536 Y69.958 E0.04416 F1494
G1 X100.046 Y68.827 E0.06398 F2312
G1 X103.404 Y69.355 E0.05226 F1363
G1 X101.991 Y67.995 E0.04867 F2345
G1 X103.684 Y68.744 E0.02985 F2252
G1 X104.121 Y70.256 E0.04004 F2284
G1 X106.556 Y68.970 E0.05253 F1218
G1 X105.796 Y71.374 E0.03016 F2391
G1 X105.513 Y71.298 E0.03599 F1790
G1 X106.582 Y70.111 E0.03973 F2161
G1 X109.480 Y69.332 E0.02733 F1352
G1 X109.779 Y70.259 E0.06827 F2031
M104 S219
G1 X109.719 Y71.372 E0.05161 F1416
G1 X112.855 Y70.450 E0.06837 F1357
G1 X110.654 Y71.197 E0.07304 F1978
G1 X113.193 Y71.049 E0.07177 F2312
G1 X113.899 Y71.790 E0.05040 F2375
G1 X115.270 Y70.834 E0.05240 F1507
G1 X113.146 Y72.441 E0.04595 F2147
G1 X114.811 Y72.336 E0.03210 F2172
G1 X115.270 Y74.898 E0.04337 F2266
G1 X117.294 Y73.494 E0.02675 F2198
G1 X117.923 Y73.232 E0.07349 F1675
G1 X118.453 Y76.183 E0.07765 F1789
G1 X118.237 Y74.647 E0.04565 F2254
G1 X120.144 Y76.167 E0.02735 F1468
G1 X119.884 Y77.647 E0.03481 F2204
G1 X121.075 Y77.145 E0.02278 F1483
G1 X121.769 Y78.756 E0.06965 F1779
G1 X121.959 Y78.453 E0.05501 F1655
G1 X123.431 Y76.839 E0.02715 F1914
G1 X121.775 Y79.718 E0.06832 F2213
G1 X123.784 Y78.014 E0.05967 F2248
G1 X122.471 Y80.164 E0.02648 F1254
G1 X124.630 Y78.953 E0.04710 F1761
G1 X124.265 Y79.923 E0.04345 F2151
G1 X124.370 Y81.270 E0.07394 F2160
M106 S109
G1 X123.728 Y83.975 E0.04301 F2385
G1 X125.623 Y83.992 E0.02140 F1273
G1 X125.255 Y82.043 E0.02992 F2046
G1 X124.992 Y85.654 E0.05349 F2342
G1 X127.537 Y86.149 E0.03057 F1651
G1 X126.417 Y85.896 E0.07150 F2075
G1 X127.914 Y87.378 E0.07102 F1246
G1 X129.577 Y86.166 E0.04367 F1399
G1 X126.741 Y89.412 E0.05800 F1927
G1 X127.795 Y89.016 E0.07548 F2016
G1 X127.483 Y89.403 E0.05364 F1276
G1 X131.355 Y91.290 E0.02307 F2192
G1 X127.679 Y91.722 E0.02409 F1633
G1 X128.217 Y90.233 E0.05238 F1907
G1 X129.911 Y94.036 E0.06422 F1525
G1 X129.929 Y91.262 E0.02906 F2242
G1 X129.463 Y94.615 E0.06824 F1522
G1 X129.462 Y92.881 E0.03957 F1323
G1 X131.980 Y94.390 E0.06139 F1342
G1 X129.823 Y96.084 E0.07261 F2385
G1 X131.345 Y95.252 E0.02689 F1696
G1 X129.779 Y97.434 E0.07663 F1836
G1 X129.248 Y98.261 E0.05799 F1932
G1 X130.223 Y99.408 E0.03300 F2096
; LAYER:11
G1 Z2.200 F720 ; move to layer height
G1 X130.425 Y98.438 E0.03567 F2147
M104 S216
M106 S141
G1 X130.001 Y100.003 E0.07585 F1218
G1 X129.509 Y100.038 E0.03542 F1582
G1 X131.714 Y103.571 E0.07316 F1391
G1 X131.286 Y101.206 E0.07668 F1736
G1 X132.415 Y102.461 E0.05363 F2234
G1 X130.407 Y105.099 E0.07810 F2369
G1 X130.053 Y106.361 E0.03053 F1323
G1 X129.078 Y104.253 E0.02946 F1499
G1 X132.141 Y108.040 E0.02708 F1587
G1 X129.913 Y106.304 E0.02461 F1407
G1 X131.049 Y109.685 E0.05320 F1443
G1 X127.771 Y109.338 E0.02954 F1398
G1 X129.021 Y108.465 E0.02515 F1911
G1 X130.868 Y112.102 E0.07484 F1282
G1 X129.872 Y111.701 E0.06062 F1362
G1 X129.400 Y114.052 E0.06628 F2068
G1 X128.936 Y111.363 E0.05916 F1252
G1 X128.152 Y113.394 E0.06909 F2221
G1 X127.215 Y113.094 E0.04654 F1993
G1 X129.176 Y116.502 E0.04448 F1881
G1 X128.481 Y115.254 E0.05332 F1621
G1 X127.225 Y115.438 E0.03649 F1309
G1 X125.882 Y118.820 E0.03490 F1555
G1 X125.174 Y118.982 E0.05321 F1508
G1 X123.636 Y118.548 E0.05209 F1707
G1 X123.574 Y117.419 E0.04042 F1450
G1 X123.137 Y118.819 E0.06635 F2020
G1 X123.415 Y121.148 E0.07817 F1381
G1 X124.989 Y119.688 E0.06417 F1232
G1 X120.781 Y121.528 E0.07472 F1852
G1 X120.336 Y122.729 E0.05297 F1302
G1 X121.667 Y121.384 E0.04505 F1790
G1 X121.193 Y124.739 E0.04505 F1224
G1 X121.197 Y122.500 E0.07038 F1213
G1 X118.515 Y123.399 E0.07563 F1631
G1 X119.640 Y124.829 E0.05325 F2309
G1 X118.164 Y123.453 E0.03829 F1776
G1 X117.199 Y126.816 E0.07743 F1772
G1 X119.269 Y124.298 E0.05693 F1481
G1 X116.916 Y128.124 E0.05373 F2391
G1 X116.689 Y127.493 E0.04844 F2268
G1 X113.750 Y125.683 E0.02930 F1484
G1 X114.856 Y128.036 E0.02507 F2041
